/* XPM */
static char *result[] = {
/* columns rows colors chars-per-pixel */
"16 16 199 2 ",
"   c #A86A06",
".  c #AA6C06",
"X  c #A96E0D",
"o  c #AD710E",
"O  c #AF730F",
"+  c #B0730C",
"@  c #B0740E",
"#  c #B1760F",
"$  c #B4770F",
"%  c #B3780F",
"&  c #B07511",
"*  c #B17610",
"=  c #B17612",
"-  c #B77B10",
";  c #B47913",
":  c #B47B17",
">  c #B77D15",
",  c #B97E16",
"<  c #B37B1A",
"1  c #B47B19",
"2  c #B57C19",
"3  c #B67D1B",
"4  c #B37D1D",
"5  c #B47E1E",
"6  c #BD8313",
"7  c #BA8017",
"8  c #B88018",
"9  c #BB8119",
"0  c #BA831B",
"q  c #BD8318",
"w  c #BA841E",
"e  c #BF871C",
"r  c #B68123",
"t  c #B48426",
"y  c #B88121",
"u  c #B88221",
"i  c #BB8421",
"p  c #BA8522",
"a  c #BC8623",
"s  c #BE8723",
"d  c #BB8625",
"f  c #BD8822",
"g  c #BF8A27",
"h  c #BB872B",
"j  c #BB8B28",
"k  c #BC8C29",
"l  c #BD8D29",
"z  c #BF8D29",
"x  c #BE8C2D",
"c  c #B58B32",
"v  c #B58B34",
"b  c #B8903B",
"n  c #BF953B",
"m  c #BC943D",
"M  c #C18921",
"N  c #C08A20",
"B  c #C18B21",
"V  c #C08C22",
"C  c #C18C25",
"Z  c #C38E24",
"A  c #C28E27",
"S  c #C18E28",
"D  c #C18F2D",
"F  c #C48F2C",
"G  c #C58F2C",
"H  c #C39027",
"J  c #C4902B",
"K  c #C7922E",
"L  c #C18E31",
"P  c #C08F31",
"I  c #C18F34",
"U  c #C29336",
"Y  c #C49437",
"T  c #CB9730",
"R  c #C99A33",
"E  c #CB9C33",
"W  c #CB9C35",
"Q  c #CA9C37",
"!  c #CC9D37",
"~  c #CC9E37",
"^  c #C3943B",
"/  c #C5953D",
"(  c #C59B3C",
")  c #C6993E",
"_  c #C99C39",
"`  c #C89C3B",
"'  c #C89D3B",
"]  c #CC9F39",
"[  c #C99B3C",
"{  c #C89A3F",
"}  c #CB9C3C",
"|  c #CA9E3D",
" . c #CEA13B",
".. c #CEA13C",
"X. c #CDA03E",
"o. c #C09840",
"O. c #C69840",
"+. c #C79941",
"@. c #C29A45",
"#. c #C59E47",
"$. c #CB9C41",
"%. c #CA9F43",
"&. c #C89D46",
"*. c #CC9F47",
"=. c #CDA241",
"-. c #CFA442",
";. c #CCA044",
":. c #CEA145",
">. c #CDA444",
",. c #CDA447",
"<. c #C5A04A",
"1. c #C9A24B",
"2. c #CCA548",
"3. c #CEA549",
"4. c #CEA648",
"5. c #CFA648",
"6. c #CDA54A",
"7. c #CAA44E",
"8. c #CFA84B",
"9. c #D0A743",
"0. c #D0A645",
"q. c #D0A646",
"w. c #D2A944",
"e. c #D1A946",
"r. c #D2A94A",
"t. c #D0A84D",
"y. c #D0A94E",
"u. c #D3AC4F",
"i. c #CAA651",
"p. c #CAA754",
"a. c #CDA850",
"s. c #CFA851",
"d. c #CEA952",
"f. c #CFA853",
"g. c #CCA854",
"h. c #CBA95B",
"j. c #CFAC58",
"k. c #D0AA52",
"l. c #D1AA52",
"z. c #D2AB53",
"x. c #D3AC50",
"c. c #D2AE56",
"v. c #D3AF57",
"b. c #D2AE58",
"n. c #D3AF58",
"m. c #D3AE5B",
"M. c #D3AF5B",
"N. c #D6B152",
"B. c #D6B155",
"V. c #D6B255",
"C. c #D7B255",
"Z. c #D7B355",
"A. c #D5B056",
"S. c #D6B25F",
"D. c #D9B55B",
"F. c #D9B65A",
"G. c #D9B65C",
"H. c #D8B55E",
"J. c #D2B260",
"K. c #D3B262",
"L. c #D3B263",
"P. c #D5B360",
"I. c #D4B363",
"U. c #D6B562",
"Y. c #D7B662",
"T. c #D6B465",
"R. c #D7B764",
"E. c #D8B463",
"W. c #D8B662",
"Q. c #D8B764",
"!. c #DAB860",
"~. c #D8B668",
"^. c #D9B96B",
"/. c #DBBA6D",
"(. c #DABC6D",
"). c #DDBE6F",
"_. c #D8BA72",
"`. c #DCBD73",
"'. c #DBBD75",
"]. c #DDBF74",
"[. c #DDC074",
"{. c #DFC177",
"}. c #DFC47D",
"|. c #E1C681",
" X c #E2C783",
".X c #E1C686",
"XX c #E3CB8D",
"oX c #E4CB8E",
"OX c #E5CD93",
"+X c #E8D4A2",
"@X c #E9D4A2",
"#X c #E8D5A5",
"$X c #E9D5A5",
"%X c #E9D6A6",
"&X c #E9D6A8",
"*X c #EBD9AD",
"=X c #ECD9AD",
"-X c #ECDAAF",
";X c None",
/* pixels */
";X;X;X;X;X*X X^.).|.=X;X;X;X;X;X",
";X;X;X&XQ.J.K.h.L.p.i.H.-X;X;X;X",
";X;XXXR.(.~.:.K F +.T.@.d.OX;X;X",
";X$XY.I.} T E.].`.m.G $.g.a.;X;X",
";Xc.j.U ;.f.; *.O., s.P Y 1.v.;X",
"+X7.6.f z.2 S.&.{ L . l.3 b.<.%X",
"[.#.z 4.> M.= h / ^ I 1 [ x m }.",
"n.o.0 u.* %.5 t.g d 8.o 5.4 b P.",
"U.n 8 x.- 3.: A.)   ,.+ 4.< c W.",
"_.v V ! M =.y & O r | i D u 2.'.",
"$XN.] 6 0.# Q r.q._ @ >.X ` V.;X",
";X!...B e -.s J S a X.9 p e.B.;X",
";X#XF. .Z % H W ~ A $ C 9.Z.;X;X",
";X;XoXC.w.E N 7 q w R w.N..X;X;X",
";X;X;X%XD.' l j k t ( G.;X;X;X;X",
";X;X;X;X;X@X/.y.k.{.;X;X;X;X;X;X"
};
