/* XPM */
static char *result[] = {
/* columns rows colors chars-per-pixel */
"256 256 249 2 ",
"   c #7A4600",
".  c #7E4900",
"X  c #744200",
"o  c #7D5411",
"O  c #753D00",
"+  c #844D00",
"@  c #8A4E00",
"#  c #834500",
"$  c #865000",
"%  c #8C5301",
"&  c #8C5808",
"*  c #925600",
"=  c #955A01",
"-  c #9B5D00",
";  c #945D0A",
":  c #995904",
">  c #845B15",
",  c #875C16",
"<  c #935203",
"1  c #A15E00",
"2  c #9D6102",
"3  c #9C640B",
"4  c #9A650D",
"5  c #8C621A",
"6  c #8C6016",
"7  c #9B6612",
"8  c #9C6A14",
"9  c #92651C",
"0  c #94691E",
"q  c #9C6C1A",
"w  c #946413",
"e  c #8D600E",
"r  c #A36401",
"t  c #AA6600",
"y  c #A66903",
"u  c #AD6A01",
"i  c #A2660A",
"p  c #A46B0C",
"a  c #AB6D0B",
"s  c #A86709",
"d  c #B26D00",
"f  c #B16F09",
"g  c #AE7104",
"h  c #A6700E",
"j  c #AC730C",
"k  c #AF780A",
"l  c #B57201",
"z  c #BA7501",
"x  c #B47B06",
"c  c #BD7A01",
"v  c #B3740B",
"b  c #B47A0B",
"n  c #BB7C0C",
"m  c #B9760B",
"M  c #A36D13",
"N  c #A16E19",
"B  c #A96D12",
"V  c #A67113",
"C  c #AB7313",
"Z  c #A4731C",
"A  c #AA761B",
"S  c #AD791C",
"D  c #AE7815",
"F  c #B27513",
"G  c #B47B14",
"H  c #BB7D13",
"J  c #B47C1B",
"K  c #B97E1B",
"L  c #B2761A",
"P  c #966C21",
"I  c #996E22",
"U  c #916720",
"Y  c #9C7224",
"T  c #9E752B",
"R  c #9E7934",
"E  c #A27525",
"W  c #AC7B22",
"Q  c #A57A2B",
"!  c #AA7E2B",
"~  c #A47727",
"^  c #B27D23",
"/  c #A77E31",
"(  c #C17D00",
")  c #C27D09",
"_  c #C17E11",
"`  c #BD820D",
"'  c #BB8105",
"]  c #BD8314",
"[  c #B6821D",
"{  c #BC831B",
"}  c #BD881A",
"|  c #AD812D",
" . c #AF8026",
".. c #B58224",
"X. c #BB8523",
"o. c #BD8A25",
"O. c #B2842C",
"+. c #BD8B2B",
"@. c #BA862B",
"#. c #AD8333",
"$. c #AC853A",
"%. c #B18632",
"&. c #B58934",
"*. c #BB8D34",
"=. c #B58B3B",
"-. c #BA8E3A",
";. c #B28738",
":. c #BC913C",
">. c #BE9134",
",. c #C58201",
"<. c #C98501",
"1. c #CD8A03",
"2. c #C3830C",
"3. c #C58B0C",
"4. c #CA8B0B",
"5. c #D18E04",
"6. c #CB920C",
"7. c #CB9208",
"8. c #D59407",
"9. c #C28413",
"0. c #C48B14",
"q. c #CB8C14",
"w. c #C2851B",
"e. c #C38B1C",
"r. c #C98D1B",
"t. c #C98614",
"y. c #CB9314",
"u. c #C6911D",
"i. c #CB931C",
"p. c #CB9617",
"a. c #D2971A",
"s. c #D7A519",
"d. c #C38C23",
"f. c #C38D2B",
"g. c #C68B23",
"h. c #C59224",
"j. c #CA9424",
"k. c #CC9925",
"l. c #C4932C",
"z. c #CA952B",
"x. c #CC9A2C",
"c. c #C7982F",
"v. c #D29C2C",
"b. c #D29925",
"n. c #C38E35",
"m. c #C49432",
"M. c #CA9632",
"N. c #C69935",
"B. c #CB9C34",
"V. c #C3953B",
"C. c #C69A3B",
"Z. c #CB9E3A",
"A. c #CA963B",
"S. c #D29E33",
"D. c #D19C39",
"F. c #CEA136",
"G. c #CEA23C",
"H. c #D3A235",
"J. c #D1A53D",
"K. c #D5A93E",
"L. c #D8A83A",
"P. c #D8A52B",
"I. c #B68E41",
"U. c #BC9443",
"Y. c #BC974A",
"T. c #B9954F",
"R. c #C49A44",
"E. c #CB9D42",
"W. c #C29C4B",
"Q. c #C39743",
"!. c #C29E53",
"~. c #D19F45",
"^. c #CEA443",
"/. c #CCA44A",
"(. c #CFA94B",
"). c #C7A14C",
"_. c #D1A642",
"`. c #D3A945",
"'. c #D4AD4B",
"]. c #D6AA49",
"[. c #D6B04E",
"{. c #DAB24D",
"}. c #DDB346",
"|. c #C6A253",
" X c #CBA553",
".X c #CDA956",
"XX c #CDAA5C",
"oX c #C8A55B",
"OX c #D3AE52",
"+X c #D2AD5B",
"@X c #D7AB55",
"#X c #D6B253",
"$X c #D8B455",
"%X c #D6B45A",
"&X c #D9B65B",
"*X c #DAB85E",
"=X c #DBB857",
"-X c #E2BA57",
";X c #CDAC63",
":X c #CDAC68",
">X c #D2AE62",
",X c #D4B363",
"<X c #D9B661",
"1X c #DBBB63",
"2X c #D3B56B",
"3X c #DCBE6A",
"4X c #D7B86A",
"5X c #DBBD72",
"6X c #D7BB76",
"7X c #CFB069",
"8X c #E1BD69",
"9X c #E1BE74",
"0X c #DEC06D",
"qX c #DEC173",
"wX c #DFC37B",
"eX c #E2C16D",
"rX c #E6C060",
"tX c #E1C374",
"yX c #E0C47C",
"uX c #E8C97B",
"iX c #DDC483",
"pX c #DEC78B",
"aX c #DFC991",
"sX c #E1C682",
"dX c #E2C985",
"fX c #E3CB8B",
"gX c #E9CC88",
"hX c #E4CE93",
"jX c #E5CE97",
"kX c #E6D19C",
"lX c #EAD39C",
"zX c #EAD195",
"xX c #ECD08E",
"cX c #E7D3A2",
"vX c #E9D5A3",
"bX c #ECD9AC",
"nX c #EAD7A9",
"mX c #F1DBAB",
"MX c #ECDBB3",
"NX c #EDDDB9",
"BX c #F2DEB3",
"VX c #F1E1BC",
"CX c #F1E5C7",
"ZX c #F4EBD6",
"AX c #F2E6CD",
"SX c #FAF4E7",
"DX c #FDFBF5",
"FX c #ECDFC0",
"GX c None",
/* pixels */
"GXGXGXGXGXGXGXGXGXGXGXGXGXGXGXGXGXGXGXGXGXGXGXGXGXGXGXGXGXGXGXGXGXGXGXGXGXGXGXGXGXGXGXGXGXGXGXGXGXGXGXGXGXGXGXGXGXGXGXGXGXGXGXGXGXGXGXGXGXGXGXGXGXGXGXGXGXGXGXGXGXGXGXGXGXGXGXGXGXGXGXGXGXGXGXGXGXGXGXGXGXGXGXGXGXGXGXGXGXGXGXGXGXGXGXGXGXGXGXGXGXGXGXGXGXGXGXGXGXGXGXGXGXGXGXGXGXGXGXGXGXGXGXGXGXGXGXGXGXGXGXGXGXGXGXGXGXGXGXGXGXGXGXGXGXGXGXGXGXGXGXGXGXGXGXGXGXGXGXGXGXGXGXGXGXGXGXGXGXGXGXGXGXGXGXGXGXGXGXGXGXGXGXGXGXGXGXGXGXGXGXGXGXGXGXGXGXGXGXGXGXGXGXGXGXGXGXGXGXGXGXGXGXGXGXGXGXGXGXGXGXGXGXGXGXGXGXGXGXGXGXGXGXGXGXGX",
"GXGXGXGXGXGXGXGXGXGXGXGXGXGXGXGXGXGXGXGXGXGXGXGXGXGXGXGXGXGXGXGXGXGXGXGXGXGXGXGXGXGXGXGXGXGXGXGXGXGXGXGXGXGXGXGXGXGXGXGXGXGXGXGXGXGXGXGXGXGXGXGXGXGXGXGXGXGXGXGXGXGXGXGXGXGXGXGXGXGXGXGXGXGXGXGXGXGXGXGXGXGXGXGXGXGXGXGXGXGXGXGXGXGXGXGXSXZXZXZXAXFXFXNXNXbXbXMXMXMXNXNXVXFXCXAXZXZXSXSXGXGXGXGXGXGXGXGXGXGXGXGXGXGXGXGXGXGXGXGXGXGXGXGXGXGXGXGXGXGXGXGXGXGXGXGXGXGXGXGXGXGXGXGXGXGXGXGXGXGXGXGXGXGXGXGXGXGXGXGXGXGXGXGXGXGXGXGXGXGXGXGXGXGXGXGXGXGXGXGXGXGXGXGXGXGXGXGXGXGXGXGXGXGXGXGXGXGXGXGXGXGXGXGXGXGXGXGXGXGXGXGXGXGXGXGX",
"GXGXGXGXGXGXGXGXGXGXGXGXGXGXGXGXGXGXGXGXGXGXGXGXGXGXGXGXGXGXGXGXGXGXGXGXGXGXGXGXGXGXGXGXGXGXGXGXGXGXGXGXGXGXGXGXGXGXGXGXGXGXGXGXGXGXGXGXGXGXGXGXGXGXGXGXGXGXGXGXGXGXGXGXGXGXGXGXGXGXGXGXGXGXGXGXGXGXGXGXGXGXGXGXGXGXGXGXGXZXCXFXNXMXbXlXjXjXjXfXfXhXfXwX5X5XtXyXiXwXyXwXiXwXwXdXpXdXdXhXkXcXbXVXAXZXSXGXGXGXGXGXGXGXGXGXGXGXGXGXGXGXGXGXGXGXGXGXGXGXGXGXGXGXGXGXGXGXGXGXGXGXGXGXGXGXGXGXGXGXGXGXGXGXGXGXGXGXGXGXGXGXGXGXGXGXGXGXGXGXGXGXGXGXGXGXGXGXGXGXGXGXGXGXGXGXGXGXGXGXGXGXGXGXGXGXGXGXGXGXGXGXGXGXGXGXGXGXGXGXGXGXGXGXGXGX",
"GXGXGXGXGXGXGXGXGXGXGXGXGXGXGXGXGXGXGXGXGXGXGXGXGXGXGXGXGXGXGXGXGXGXGXGXGXGXGXGXGXGXGXGXGXGXGXGXGXGXGXGXGXGXGXGXGXGXGXGXGXGXGXGXGXGXGXGXGXGXGXGXGXGXGXGXGXGXGXGXGXGXGXGXGXGXGXGXGXGXGXGXGXGXGXGXGXGXGXGXGXGXGXAXVXNXcXkXfXdXsXsXyXiXwXyXwXwXqX5X5X3X3X1X*X1X1X1X1X1X3X3X1X3X3X3X3X0XqXqXqXwXwXwXsXyXiXfXkXnXCXAXSXGXGXGXGXGXGXGXGXGXGXGXGXGXGXGXGXGXGXGXGXGXGXGXGXGXGXGXGXGXGXGXGXGXGXGXGXGXGXGXGXGXGXGXGXGXGXGXGXGXGXGXGXGXGXGXGXGXGXGXGXGXGXGXGXGXGXGXGXGXGXGXGXGXGXGXGXGXGXGXGXGXGXGXGXGXGXGXGXGXGXGXGXGXGXGXGXGXGXGXGXGXGXGX",
"GXGXGXGXGXGXGXGXGXGXGXGXGXGXGXGXGXGXGXGXGXGXGXGXGXGXGXGXGXGXGXGXGXGXGXGXGXGXGXGXGXGXGXGXGXGXGXGXGXGXGXGXGXGXGXGXGXGXGXGXGXGXGXGXGXGXGXGXGXGXGXGXGXGXGXGXGXGXGXGXGXGXGXGXGXGXGXGXGXGXGXGXGXGXGXGXGXGXZXNXnXkXaXdXsXsXyX9X5X3X1X1X1X1X1X1X1X1X1X&X*X*X=X&X1X&X*X&X*X&X=X&X&X=X*X&X*X&X*X&X*X1X*X0X1X3X3X3X3X6XwXsXdXhXvXCXZXSXGXGXGXGXGXGXGXGXGXGXGXGXGXGXGXGXGXGXGXGXGXGXGXGXGXGXGXGXGXGXGXGXGXGXGXGXGXGXGXGXGXGXGXGXGXGXGXGXGXGXGXGXGXGXGXGXGXGXGXGXGXGXGXGXGXGXGXGXGXGXGXGXGXGXGXGXGXGXGXGXGXGXGXGXGXGXGXGXGXGXGXGXGXGXGXGXGXGX",
"GXGXGXGXGXGXGXGXGXGXGXGXGXGXGXGXGXGXGXGXGXGXGXGXGXGXGXGXGXGXGXGXGXGXGXGXGXGXGXGXGXGXGXGXGXGXGXGXGXGXGXGXGXGXGXGXGXGXGXGXGXGXGXGXGXGXGXGXGXGXGXGXGXGXGXGXGXGXGXGXGXGXGXGXGXGXGXGXGXGXGXGXGXGXSXFXbXkXfXwXwXwXwXqX3X4X1X1X1X&X*X*X&X&X=X#X{.{.K.L.H.v.b.b.P.a.a.a.a.a.i.a.b.b.v.H.L.L.'.{.#X$X$X=X&X*X%X*X&X1X4X3X0XqXwXiXdXjXbXAXSXGXGXGXGXGXGXGXGXGXGXGXGXGXGXGXGXGXGXGXGXGXGXGXGXGXGXGXGXGXGXGXGXGXGXGXGXGXGXGXGXGXGXGXGXGXGXGXGXGXGXGXGXGXGXGXGXGXGXGXGXGXGXGXGXGXGXGXGXGXGXGXGXGXGXGXGXGXGXGXGXGXGXGXGXGXGXGXGXGXGXGXGXGXGXGX",
"GXGXGXGXGXGXGXGXGXGXGXGXGXGXGXGXGXGXGXGXGXGXGXGXGXGXGXGXGXGXGXGXGXGXGXGXGXGXGXGXGXGXGXGXGXGXGXGXGXGXGXGXGXGXGXGXGXGXGXGXGXGXGXGXGXGXGXGXGXGXGXGXGXGXGXGXGXGXGXGXGXGXGXGXGXGXGXGXGXGXGXAXNXnXkXhXiXsXwX3X1X1X<X=X*X*X%X$X`.H.z.b.i.y.q.q.i.i.j.b.v.H.H.L.L.`.K._.K.L.L.H.H.v.v.v.i.i.q.y.6.0.p.u.b.v.L.'.#X$X$X&X%X1X1X1X3XqXwXwXsXkXMXAXSXGXGXGXGXGXGXGXGXGXGXGXGXGXGXGXGXGXGXGXGXGXGXGXGXGXGXGXGXGXGXGXGXGXGXGXGXGXGXGXGXGXGXGXGXGXGXGXGXGXGXGXGXGXGXGXGXGXGXGXGXGXGXGXGXGXGXGXGXGXGXGXGXGXGXGXGXGXGXGXGXGXGXGXGXGXGXGXGXGXGXGX",
"GXGXGXGXGXGXGXGXGXGXGXGXGXGXGXGXGXGXGXGXGXGXGXGXGXGXGXGXGXGXGXGXGXGXGXGXGXGXGXGXGXGXGXGXGXGXGXGXGXGXGXGXGXGXGXGXGXGXGXGXGXGXGXGXGXGXGXGXGXGXGXGXGXGXGXGXGXGXGXGXGXGXGXGXGXGXGXGXCXnXdXiXdXwXwX3X3X4X&X1X<X%X%XL.b.y.8.4.q.k.H.H._.].{.{.#X#X#X#X$X#X#X=X=X#X=X#X=X&X#X%X%X#X#X#X#X#X'.'.'.'.J.F.x.j.q.4.1.q.a.S.`.%X%X&X*X&X1X3X3X0XwXyXdXnXCXSXGXGXGXGXGXGXGXGXGXGXGXGXGXGXGXGXGXGXGXGXGXGXGXGXGXGXGXGXGXGXGXGXGXGXGXGXGXGXGXGXGXGXGXGXGXGXGXGXGXGXGXGXGXGXGXGXGXGXGXGXGXGXGXGXGXGXGXGXGXGXGXGXGXGXGXGXGXGXGXGXGXGXGXGXGXGXGXGX",
"GXGXGXGXGXGXGXGXGXGXGXGXGXGXGXGXGXGXGXGXGXGXGXGXGXGXGXGXGXGXGXGXGXGXGXGXGXGXGXGXGXGXGXGXGXGXGXGXGXGXGXGXGXGXGXGXGXGXGXGXGXGXGXGXGXGXGXGXGXGXGXGXGXGXGXGXGXGXGXGXGXGXGXGXGXZXNXcXhXwXwXwX3X1X1X<X*X*X=X`.k.6.3.u.H.L.`.'.#X#X#X#X%X=X#X%X%X&X=X&X&X&X*X%X&X&X&X&X%X*X%X*X&X&X&X%X&X%X&X#X#X#X%X#X#X'.'._.J.D.k.i.4.1.r.v.}.=X$X*X*X8X<X3X5XtXyXfXnXZXGXGXGXGXGXGXGXGXGXGXGXGXGXGXGXGXGXGXGXGXGXGXGXGXGXGXGXGXGXGXGXGXGXGXGXGXGXGXGXGXGXGXGXGXGXGXGXGXGXGXGXGXGXGXGXGXGXGXGXGXGXGXGXGXGXGXGXGXGXGXGXGXGXGXGXGXGXGXGXGXGXGXGXGXGXGX",
"GXGXGXGXGXGXGXGXGXGXGXGXGXGXGXGXGXGXGXGXGXGXGXGXGXGXGXGXGXGXGXGXGXGXGXGXGXGXGXGXGXGXGXGXGXGXGXGXGXGXGXGXGXGXGXGXGXGXGXGXGXGXGXGXGXGXGXGXGXGXGXGXGXGXGXGXGXGXGXGXGXGXZXNXcXjXpXwXqX1X1X1X1X1X#XH.b.a.q.j.J.'.#X%X$X&X%X&X&X*X&X*X*X1X*X1X4X*X&X&X&X&X&X*X1X1X1X*X<X&X&X<X*X<X1X&X1X&X<X&X*X,X*X%X&X&X#X%X%X$XOX'.`._.J.v.r.q.r.v.K.$X=X%X<X1X3X9XqXwXhXMXZXGXGXGXGXGXGXGXGXGXGXGXGXGXGXGXGXGXGXGXGXGXGXGXGXGXGXGXGXGXGXGXGXGXGXGXGXGXGXGXGXGXGXGXGXGXGXGXGXGXGXGXGXGXGXGXGXGXGXGXGXGXGXGXGXGXGXGXGXGXGXGXGXGXGXGXGXGXGXGXGXGXGXGX",
"GXGXGXGXGXGXGXGXGXGXGXGXGXGXGXGXGXGXGXGXGXGXGXGXGXGXGXGXGXGXGXGXGXGXGXGXGXGXGXGXGXGXGXGXGXGXGXGXGXGXGXGXGXGXGXGXGXGXGXGXGXGXGXGXGXGXGXGXGXGXGXGXGXGXGXGXGXGXGXZXFXnXkXfXiXqX3X1X&X1X%X'.k.4.q.x._.OX%X&X%X1X%X*X<X*X*X*X<X*X*X*X&X&X%XoXoX:X4X1X&X*X1X1X1X1X*X1X<X1X1X1X1X<X1X<X1X*X1X1X*X*X*X%X*X*X*X%X=X*X*X&X&X#X#XOX'.].J.v.i.4.q.L.#X%X*X*X1X1X3XwXdXcXCXSXGXGXGXGXGXGXGXGXGXGXGXGXGXGXGXGXGXGXGXGXGXGXGXGXGXGXGXGXGXGXGXGXGXGXGXGXGXGXGXGXGXGXGXGXGXGXGXGXGXGXGXGXGXGXGXGXGXGXGXGXGXGXGXGXGXGXGXGXGXGXGXGXGXGXGXGXGXGXGXGX",
"GXGXGXGXGXGXGXGXGXGXGXGXGXGXGXGXGXGXGXGXGXGXGXGXGXGXGXGXGXGXGXGXGXGXGXGXGXGXGXGXGXGXGXGXGXGXGXGXGXGXGXGXGXGXGXGXGXGXGXGXGXGXGXGXGXGXGXGXGXGXGXGXGXGXGXGXGXZXNXcXhXdXsX6X3X1X1X&X=Xx.t.q.v.'.#X&X$X*X*X%X<X1X0X*X1X1X<X<X1X*X1X<X1X.XT./ #.Q 4X&X*X*X&X1X1X<X1X*X1X1X1X1X1X&X1X1X1X1X1X<X*X%X0X%X*X<X1X<X*X*X%X*X*X&X*X$X&X$X#X#X'.`.H.i.5.a.`.$X*X&X1X1XqXyXiXfXMXZXGXGXGXGXGXGXGXGXGXGXGXGXGXGXGXGXGXGXGXGXGXGXGXGXGXGXGXGXGXGXGXGXGXGXGXGXGXGXGXGXGXGXGXGXGXGXGXGXGXGXGXGXGXGXGXGXGXGXGXGXGXGXGXGXGXGXGXGXGXGXGXGXGXGXGXGXGXGX",
"GXGXGXGXGXGXGXGXGXGXGXGXGXGXGXGXGXGXGXGXGXGXGXGXGXGXGXGXGXGXGXGXGXGXGXGXGXGXGXGXGXGXGXGXGXGXGXGXGXGXGXGXGXGXGXGXGXGXGXGXGXGXGXGXGXGXGXGXGXGXGXGXGXGXGXCXbXjXpXiXwXqX1X1X*X'.z.q.r.B.'.%X%X*X%X&X%X<X1X*X%X*X*X*X1X3X3X1X1X1X<X1X&X:.#.#.$.| :.,X*X1X*X*X*X*X1X,X1X1X1X1X1X1X1X1X1X1X,X0X*X*X*X0X1X1X<X<X1X1X*X<X<X*X&X<X*X*X$X%X$X$X#XOX`.H.j.q.i.L.#X&X*X<X1X3XqXsXcXAXGXGXGXGXGXGXGXGXGXGXGXGXGXGXGXGXGXGXGXGXGXGXGXGXGXGXGXGXGXGXGXGXGXGXGXGXGXGXGXGXGXGXGXGXGXGXGXGXGXGXGXGXGXGXGXGXGXGXGXGXGXGXGXGXGXGXGXGXGXGXGXGXGXGXGXGX",
"GXGXGXGXGXGXGXGXGXGXGXGXGXGXGXGXGXGXGXGXGXGXGXGXGXGXGXGXGXGXGXGXGXGXGXGXGXGXGXGXGXGXGXGXGXGXGXGXGXGXGXGXGXGXGXGXGXGXGXGXGXGXGXGXGXGXGXGXGXGXGXGXGXFXcXhXdXwXqX3X&X&X#XS.m t.D.#X$X*X*X1X1X<X<X%X<X1X1X1X*X0X0X0X1X1X<X1X1X1X1X1X<XG.O.W.I.| >.1X1X1X1X0X1X*X1X1X1X1X4X1X1X3X0X1X1X1X0X1X*X0X*X*X1X1X1X1X1X1X<X1X1X1X1X1X1X*X<X<X*X&X*X$X&X#X#X].J.b.4.a.}.=X*X1X1X3X0XwXdXVXDXGXGXGXGXGXGXGXGXGXGXGXGXGXGXGXGXGXGXGXGXGXGXGXGXGXGXGXGXGXGXGXGXGXGXGXGXGXGXGXGXGXGXGXGXGXGXGXGXGXGXGXGXGXGXGXGXGXGXGXGXGXGXGXGXGXGXGXGXGXGXGXGXGX",
"GXGXGXGXGXGXGXGXGXGXGXGXGXGXGXGXGXGXGXGXGXGXGXGXGXGXGXGXGXGXGXGXGXGXGXGXGXGXGXGXGXGXGXGXGXGXGXGXGXGXGXGXGXGXGXGXGXGXGXGXGXGXGXGXGXGXGXGXGXGXGXFXcXdXiXwX0X1X*X&X'.i.) h.].OX*X<X<X1X1X3X4X3X1X3X1X1X1X1X,X0X1X1X1X1X1X1X1X1X1X1X&X&Xc.D [ +.,X1X0X0X0X0X1X6XwXpXsX3X5XwXwXqX0X1X0X0X1X1X0X0X*X0X3X1X1X1X1X1X1X1X<X&X4X3X<X*X1X*X*X<X*X*X&X&X$X%X$XOX_.v.q.q.L.=X&X1X1X3X0X3XwXCXGXGXGXGXGXGXGXGXGXGXGXGXGXGXGXGXGXGXGXGXGXGXGXGXGXGXGXGXGXGXGXGXGXGXGXGXGXGXGXGXGXGXGXGXGXGXGXGXGXGXGXGXGXGXGXGXGXGXGXGXGXGXGXGXGXGXGXGXGXGXGXGX",
"GXGXGXGXGXGXGXGXGXGXGXGXGXGXGXGXGXGXGXGXGXGXGXGXGXGXGXGXGXGXGXGXGXGXGXGXGXGXGXGXGXGXGXGXGXGXGXGXGXGXGXGXGXGXGXGXGXGXGXGXGXGXGXGXGXGXGXGXGXNXdXwXwX3X1X1X&X$XD.e.r.B.'.#X#X*X*X<X1X4X1X3X3X1X1X3X4X1X1X1X*X0X1X1X0X4X1X3X3XqX3X1X1X1X.X|.T.T.wX0X1X0X4X0X*X|.|.|.W.oXY.W.!.Y.7XwX1X1X0X1X0X*X0X,X3X1X1X3X4X1X1X1X1X1XI.#.T.;X4X3X1X<X<X1X*X*X*X*X*X$X$XOX'.L.j.y.v.{.&X&X<X<X1XwXfXVXGXGXGXGXGXGXGXGXGXGXGXGXGXGXGXGXGXGXGXGXGXGXGXGXGXGXGXGXGXGXGXGXGXGXGXGXGXGXGXGXGXGXGXGXGXGXGXGXGXGXGXGXGXGXGXGXGXGXGXGXGXGXGXGXGXGXGXGXGXGX",
"GXGXGXGXGXGXGXGXGXGXGXGXGXGXGXGXGXGXGXGXGXGXGXGXGXGXGXGXGXGXGXGXGXGXGXGXGXGXGXGXGXGXGXGXGXGXGXGXGXGXGXGXGXGXGXGXGXGXGXGXGXGXGXGXGXGXGXNXaXqX1X%X1X1X=X#Xv._ j.].#X%X%X%X*X*X*X1X0X*X0X,X0X1X,X1X1X1X1X1X3X0X1X1XwXsX3X6X6XiX3X3X0X3X XW.I.I.wX0X1X1X1X4X,XXX|.oX|.).|. X|.|.|.7XqX0X,X0X0X,X7X0X1X3X1X3X0X*X0X0X*XXX| P | | T $.7XwX3X<X%X1X1X&X1X*X*X%X&X%X#X`.v.q.q.}.$X&X<X1X1X5XhXAXGXGXGXGXGXGXGXGXGXGXGXGXGXGXGXGXGXGXGXGXGXGXGXGXGXGXGXGXGXGXGXGXGXGXGXGXGXGXGXGXGXGXGXGXGXGXGXGXGXGXGXGXGXGXGXGXGXGXGXGXGXGXGXGXGXGXGXGX",
"GXGXGXGXGXGXGXGXGXGXGXGXGXGXGXGXGXGXGXGXGXGXGXGXGXGXGXGXGXGXGXGXGXGXGXGXGXGXGXGXGXGXGXGXGXGXGXGXGXGXGXGXGXGXGXGXGXGXGXGXGXGXGXGXGXAXkXwX3X1X1X&X&X=Xx.2.j.`.$X$X=X*X*X1X*X,X1X%X%X*X*X*X*X*X0X1X3X1X1X1X1X+X6XwX2X2XY.XX2XqX1X3X0X,XW.#.#.=.6X3X5XqXqXqX,XoXXXoX.X|.|.).!.|.|.|.wX0X0X0X0X0X0X0X3X3X3X3X,X0X,X*X*X!.T | T T T | / :.;XwX1X1X1X&X1X*X*X*X&X&X%X%X#X'.v.q.a.}.&X$X&X1XqXdXkXZXGXGXGXGXGXGXGXGXGXGXGXGXGXGXGXGXGXGXGXGXGXGXGXGXGXGXGXGXGXGXGXGXGXGXGXGXGXGXGXGXGXGXGXGXGXGXGXGXGXGXGXGXGXGXGXGXGXGXGXGXGXGXGXGXGXGX",
"GXGXGXGXGXGXGXGXGXGXGXGXGXGXGXGXGXGXGXGXGXGXGXGXGXGXGXGXGXGXGXGXGXGXGXGXGXGXGXGXGXGXGXGXGXGXGXGXGXGXGXGXGXGXGXGXGXGXGXGXGXGXGXGXcXpX0X0X<X=X=X[.z.w.M.{.#X&X&X*X*X*X1X%X1X1X1X1X0X*X0X*X1X0X1X0X3X1X3X3X0X(.6X7X2XT.-.2X!.W.%X3X0X1X X| #.Q T.3XqXqXqXqXXXXXXXoX|.$...o.*.|.|.).T.yX0X,X0X0X0X0X3X3X1X3X*X0X*X0X0X=.| P P | | o Q Q #.:.6X5X1X1X*X1X<X1X&X<X<X&X&X#X'.].H.a.b.K.=X<X1X3X0XwXnXSXGXGXGXGXGXGXGXGXGXGXGXGXGXGXGXGXGXGXGXGXGXGXGXGXGXGXGXGXGXGXGXGXGXGXGXGXGXGXGXGXGXGXGXGXGXGXGXGXGXGXGXGXGXGXGXGXGXGXGXGXGXGXGXGX",
"GXGXGXGXGXGXGXGXGXGXGXGXGXGXGXGXGXGXGXGXGXGXGXGXGXGXGXGXGXGXGXGXGXGXGXGXGXGXGXGXGXGXGXGXGXGXGXGXGXGXGXGXGXGXGXGXGXGXGXGXGXGXMXdX5X0X1X&X&X#Xj.H D.[.$X%X&X%X*X1X%X0X*X1X1X1X1X1X0X*X0X,X1X0XqX2X1X3X3X3X1X%X7X;XXX$.I.Y.XX/./.0X0X*X(.#.Q R #.0XqXqX6X3X.XXXXX!.=.G.0X*XN.Y.|.|.I.0X0X0X0X0X0X0X3X3X3X0X0X0X0X*X.X#.| | |  ...$.Q | | #.#.6X3X1X1X1X<X1X1X1X<X%X*X#X$X$X#X[.`.a.y.[.1X1X3X1XtXsXMXDXGXGXGXGXGXGXGXGXGXGXGXGXGXGXGXGXGXGXGXGXGXGXGXGXGXGXGXGXGXGXGXGXGXGXGXGXGXGXGXGXGXGXGXGXGXGXGXGXGXGXGXGXGXGXGXGXGXGXGXGXGXGX",
"GXGXGXGXGXGXGXGXGXGXGXGXGXGXGXGXGXGXGXGXGXGXGXGXGXGXGXGXGXGXGXGXGXGXGXGXGXGXGXGXGXGXGXGXGXGXGXGXGXGXGXGXGXGXGXGXGXGXGXGXAXcXdXwX0X*X%X=X`.' c.[.{.=X$X%X*X*X1X&X*X,X*X1X*X0X*X1X*X0X0XqX7X;XoX6XiX0X,X0X0X,X|.|.$.I..X| X.B.<X3X0X1X#XI.T T #.0XwXwXwXqX.XY.Y.$.&.*X0X0X%X=.!.Y.Y.(.0X0X0X0X0X0X3X0X0X0X0X2X,X0X).#.:.$.| ).J.o.` ..#.&.#.#.wX1X1X1X1X1X1X<X1X4X6XwX#X#X$X=X$X#XJ.q.b.&X*X*X1X3X3XdXZXGXGXGXGXGXGXGXGXGXGXGXGXGXGXGXGXGXGXGXGXGXGXGXGXGXGXGXGXGXGXGXGXGXGXGXGXGXGXGXGXGXGXGXGXGXGXGXGXGXGXGXGXGXGXGXGXGXGXGXGXGX",
"GXGXGXGXGXGXGXGXGXGXGXGXGXGXGXGXGXGXGXGXGXGXGXGXGXGXGXGXGXGXGXGXGXGXGXGXGXGXGXGXGXGXGXGXGXGXGXGXGXGXGXGXGXGXGXGXGXGXGXMXhXiXwX5X1X1X_.} o.'.#X=X%X*X*X1X%X*X<X<X0X1X*X0X0X*X1X0X0X|.oX7X$.#./ I.T.iX0X0X1X1X).|.2X7X7XC.1X3X5X3X0XqX%XI.$.#.#.%XwXwXwXqX).Q $.T Y.qX0X0X0X:.Y.R.Y.).0X0XqX0XqX0XqX0X0X0X0X0X0X0X=.| #.=.#.;X1X1X%Xl. .#.#.| ;X1X1X1X1X1X1X%X/.;.-.|.5X$X*X&X*X*X&X{.S.q.v.#X&X&X%X%X3XMXDXGXGXGXGXGXGXGXGXGXGXGXGXGXGXGXGXGXGXGXGXGXGXGXGXGXGXGXGXGXGXGXGXGXGXGXGXGXGXGXGXGXGXGXGXGXGXGXGXGXGXGXGXGXGXGXGXGXGXGX",
"GXGXGXGXGXGXGXGXGXGXGXGXGXGXGXGXGXGXGXGXGXGXGXGXGXGXGXGXGXGXGXGXGXGXGXGXGXGXGXGXGXGXGXGXGXGXGXGXGXGXGXGXGXGXGXGXGXMXiXiXqXqX1X1XOX} } [.=X1X1X%X*X<X1X<X*X4X5XwX1X1X0X1X0X,X0X0X.XY.Y.$.#.Q |.oXY.>.,X0X0X0X(.W.;X6X,X9X0XqX3XtXqX3X%X#.Q / $.).wXiXqX0XE.| / / $.pX0X0X%XY.U.=.=.>.qXqX0XqX0XqX0X0XqX0X0X0X0X%X#.$.U.=.(.1X0X1X1X%XS | Q | :.1X1X1X1X1X1X^.). X XU.XX$X1X1X1X1X*X$X#X`.B.4.K.=X&X1X3XwXfXVXGXGXGXGXGXGXGXGXGXGXGXGXGXGXGXGXGXGXGXGXGXGXGXGXGXGXGXGXGXGXGXGXGXGXGXGXGXGXGXGXGXGXGXGXGXGXGXGXGXGXGXGXGXGXGXGXGXGX",
"GXGXGXGXGXGXGXGXGXGXGXGXGXGXGXGXGXGXGXGXGXGXGXGXGXGXGXGXGXGXGXGXGXGXGXGXGXGXGXGXGXGXGXGXGXGXGXGXGXGXGXGXGXGXGXGXcXwX3X3X1X&X&XB.' F.%X*X*X1X1X0X<X1X4XsXiXjXjXcX1X0X1X1X*X0X*X%X,X;XU.;XY.o.;XoX>.OX0X0X0X0XOXU.7X,XI.1X0XqXqXqXqXqX3X| #.Q Q Q.wXwXqX0XU./ #.#.I.!.7X7XY.:.$.#.| ).qXqXqXwXqX0XqX0X4XqX0X0X,X|.%.Y.Y.Y.1X0X0X0X0X1X>.#.Q Q | <X3X4X3X1X1XC.#.oXoXW.Q.$X1X1X1X*X&X=X&X&X[.K.y.i.%X1X3X0X0XwXnXDXGXGXGXGXGXGXGXGXGXGXGXGXGXGXGXGXGXGXGXGXGXGXGXGXGXGXGXGXGXGXGXGXGXGXGXGXGXGXGXGXGXGXGXGXGXGXGXGXGXGXGXGXGXGXGXGX",
"GXGXGXGXGXGXGXGXGXGXGXGXGXGXGXGXGXGXGXGXGXGXGXGXGXGXGXGXGXGXGXGXGXGXGXGXGXGXGXGXGXGXGXGXGXGXGXGXGXGXGXGXGXGXFXdXqXqX1X1X&XJ.w.h.(.*X1X1X1X1X1X1X0X6XiXaXiXaXaXwX*X1X%X0X0X1X1X;XwX6X!.U.+.`.m.z.'.0X0X0XqX3X,XXX2X|.|.%X5XtXwXwXqX5X1X| Q #./ =.qXwXwX3X-.! $.=.Y.I.U.I.;.$.Q ;. .0XqXqXwXqXwX0X7X0X0X0X0X0X%XR.=.=.=.XX0X0X0X0X3X1X/.&.#.Q | &X1X3X3X1X1X4X*.>./.&.V.*X1X<X1X*X%X*X1X%X$X#XOXJ.y.H.&X1X1X1X5XfXAXGXGXGXGXGXGXGXGXGXGXGXGXGXGXGXGXGXGXGXGXGXGXGXGXGXGXGXGXGXGXGXGXGXGXGXGXGXGXGXGXGXGXGXGXGXGXGXGXGXGXGXGXGXGXGX",
"GXGXGXGXGXGXGXGXGXGXGXGXGXGXGXGXGXGXGXGXGXGXGXGXGXGXGXGXGXGXGXGXGXGXGXGXGXGXGXGXGXGXGXGXGXGXGXGXGXGXGXGXGXcXwXyX3X%X&X=Xd.] `.$X*X*X*X1X1X0X0XXX6XwXiXwX6XaXaXqX(.0X0X0X,X0X%X;X7XY.$.>.1X3X4X1X0X0XqX0X0X0X0X).I.$.XXR.wX5XwX5XqXqX3X ./ #.Q #.qX0X0X3X%./ ;./ U.Y.$.Q #.Q #.A %XwXwXwXwX0X0X7X0X0X0X0X*X0X(.Y.=.=.$.;X0X0X0X0X3X3X).=.=.;.Q &X3X3X3X1X5X).oXXXQ.^.%X$X*X%X*X*X*X1X0X*X*X*X1X%X'.j.4.`.&X*X1X3XwXnXDXGXGXGXGXGXGXGXGXGXGXGXGXGXGXGXGXGXGXGXGXGXGXGXGXGXGXGXGXGXGXGXGXGXGXGXGXGXGXGXGXGXGXGXGXGXGXGXGXGXGXGXGXGX",
"GXGXGXGXGXGXGXGXGXGXGXGXGXGXGXGXGXGXGXGXGXGXGXGXGXGXGXGXGXGXGXGXGXGXGXGXGXGXGXGXGXGXGXGXGXGXGXGXGXGXGXGXhX5X1X3X<X&X`.n j.#X&X<X1X*X,X*X1X1X#X).6XaXiX;XwX;X).C.(.1X0X1X0X0X.X=.$.Y.;X9X3X3X3X1X7XwXpXwXqXqX0X).I.Y.7X|.3XwXwXwXwXwX3X&.| | -.&.qXwXqXqXO.! ;.$.oX[  .| | W C .XqXwXwXwX0XqXwXqX0X0X0X,X0X%X:.U.=.| #.wX0XqX0X0X3X4XU.U.&.| #.0X3X3X3X1X,XW.Y.:.2X1X&X*X&X1X1X&X0X*X1X1X1X*X*X%X$X'.H.t.D.=X*X1X3XqXjXSXGXGXGXGXGXGXGXGXGXGXGXGXGXGXGXGXGXGXGXGXGXGXGXGXGXGXGXGXGXGXGXGXGXGXGXGXGXGXGXGXGXGXGXGXGXGXGXGXGXGXGXGX",
"GXGXGXGXGXGXGXGXGXGXGXGXGXGXGXGXGXGXGXGXGXGXGXGXGXGXGXGXGXGXGXGXGXGXGXGXGXGXGXGXGXGXGXGXGXGXGXGXGXGXFXhX3X1X&X&X%Xz.w.J.$X*X*X*X1X*X*X1X1X,XU.I.6XaXXX+.N.^.#XXX0X0X0X0X0X0X#X#.XX2X2XpXwX0XqX).#.#.$.|.qXqX0X).,X.X.XY.+XwXwXwXwXwXqXC.+.M.N.R.wXqXiXwX! / Q / 6X(.N.x.H.'.0XwXwXwXwX0X0X0XqXqX0X0X0X0X0X%X| #.$.#.$.T.7XqXiXwX3XW.=.U.:.:.V.0X3X3X3X5X|.U.U.U.+X1X<X1X1X1X3X3X0X1X=X%X*X0X%X*X%X$X[.].r.r.}.&X&X3X0XwXCXGXGXGXGXGXGXGXGXGXGXGXGXGXGXGXGXGXGXGXGXGXGXGXGXGXGXGXGXGXGXGXGXGXGXGXGXGXGXGXGXGXGXGXGXGXGXGXGXGXGXGX",
"GXGXGXGXGXGXGXGXGXGXGXGXGXGXGXGXGXGXGXGXGXGXGXGXGXGXGXGXGXGXGXGXGXGXGXGXGXGXGXGXGXGXGXGXGXGXGXGXGXcXiXwX1X$X&X]._ z.OX$X*X*X<X1X*X1X1X1X0XOXT.6XpXiX:.0X2X0X0XwXwXwX0X0X0X,X1X=.pXiXoXI.6XdX4X$.Y.$.U. .qXqXqX.X2XW.-.S Q.wXwXsXqX0XqXqXwX3XqXwXwXwXqX1X~ #./ =.5X3X3X3X0XwXwXwXwXwXwX0XqX2X0X0X0X0X0X0X0XR.| | | | | | #.| | $.&.Q.W.>.W.| %X3X3X3X3X;X:.:.=.:.%X1X1X1X1X4X3X3X0X*X%X%X1X1X*X1X<X*X$XOX'.J.2.D.&X&X1X1XwXnXDXGXGXGXGXGXGXGXGXGXGXGXGXGXGXGXGXGXGXGXGXGXGXGXGXGXGXGXGXGXGXGXGXGXGXGXGXGXGXGXGXGXGXGXGXGXGXGXGXGX",
"GXGXGXGXGXGXGXGXGXGXGXGXGXGXGXGXGXGXGXGXGXGXGXGXGXGXGXGXGXGXGXGXGXGXGXGXGXGXGXGXGXGXGXGXGXGXGXGXjX5X&X1X1X*XJ.n D.$X$X%X*X*X*X1X1X1X1X1X*X|.wX6XaXaXpXqXiXaXaXpXpXaXpXwX0X0X0X:.6X6XI.$.$.Y.Y.$.).$.=.>.0XwXqX,X[ u.B.OX5XwXyXwXqXqX0XqX5XqXwXwXwXqXwX1XO.Y.Y.W.XX3XwXwXwXwXwXwXwXqXqXqXqXqX0XqX0XqXwX0X0X:.h Z | T | | | | | | #.| :.Y.&.:.0X0XqX3X3XY.;.I.Y.G.3X1X4X3X1X3X3X3X,X*X*X0X0X1X1X&X<X*X<X$X$XOX_.r.i.%X*X1X1XqXhXDXGXGXGXGXGXGXGXGXGXGXGXGXGXGXGXGXGXGXGXGXGXGXGXGXGXGXGXGXGXGXGXGXGXGXGXGXGXGXGXGXGXGXGXGXGXGXGXGX",
"GXGXGXGXGXGXGXGXGXGXGXGXGXGXGXGXGXGXGXGXGXGXGXGXGXGXGXGXGXGXGXGXGXGXGXGXGXGXGXGXGXGXGXGXGXGXGXhXwX0X<X&X&Xl.g.'.#X&X*X*X*X1X<X1X1X1X1X1X1X(.oXqXpXiXwXwXaXaXiXpXaXwXwXaXwX0X0X,X*.W.$.$.I.2XY.Y.XX=.o.1X0XqXqXwXqXwXwXwXwXtX0X3XqXwXqXqXqXiXjXfXwXwXiX5XJ ..f.@.R.dXdXwXwXwXwXwXqX0X0X0X0XqXwXwXqXqX0X0XqXwX0X).&.[ [ [ | #.$.#.| #.#.Z C.0X0XqX0X0X.X=.&.#.;. X1X3X3X3X3XqX6X3X0XwX0X0X1X1X1X<X<X*X*X*X*X$XOX].v.r.'.&X1X3X3XdXSXGXGXGXGXGXGXGXGXGXGXGXGXGXGXGXGXGXGXGXGXGXGXGXGXGXGXGXGXGXGXGXGXGXGXGXGXGXGXGXGXGXGXGXGXGXGXGX",
"GXGXGXGXGXGXGXGXGXGXGXGXGXGXGXGXGXGXGXGXGXGXGXGXGXGXGXGXGXGXGXGXGXGXGXGXGXGXGXGXGXGXGXGXGXFXkXiX3X&X&X[.H B.&X<X*X$X$X*X<X1X1X1X1X1X0X1X1X,X=.oX!.qX;X6XiXiXpXpXaXwXaX7XpX0X0X0X<Xo.-.I.Y.;X$.=.O.+.0X0X0XqXqXwXwXwXwXwXyX5XqXwXqXwXwXiXpXlXcXnXcXkXhXhXdXwX5X5XdXcXkXjXjXfXdXsXpXiXpXpXaXaXaXwXqXqX0X0XwXpXwX0X0X0X0XK.} ` } } [ F ..#XqXqXqXqXqX%X#.| | | W 1X1X1X3X1X2XU.| #.=.I.2XwX0X1X1X1X1X1X*X*X*X%X%X$X[.H.t.H.&X&X1X3XwXAXGXGXGXGXGXGXGXGXGXGXGXGXGXGXGXGXGXGXGXGXGXGXGXGXGXGXGXGXGXGXGXGXGXGXGXGXGXGXGXGXGXGXGXGXGXGX",
"GXGXGXGXGXGXGXGXGXGXGXGXGXGXGXGXGXGXGXGXGXGXGXGXGXGXGXGXGXGXGXGXGXGXGXGXGXGXGXGXGXGXGXGXMXwXqX1X&X&X[.H _.&X1X1X<X*X%X&X1X1X1X1X0X1X1X1X0X%X^.I.0XpXpXpXwXiXiX6XiX2XpX;X).0XwXqX3X<Xz.w.] w.} e.(.3XwXwXwXqXqX0XwXwX5XwXsXdXiXdXdXhXkXbXMXbXbXNXNXNXMXbXMXMXnXnXMXMXNXMXMXbXMXbXcXcXnXbXcXcXjXfXdXiX5X5XyXsXqXwX3XqXwX3X1X%XOX(.OX,X0XqXqXqXqXqXqXU.| | %.Q C.0X1X3X1XOX&.| ! | ! ;.U.7XiX1X1X1X1X<X<X*X<X*X%X*X$XOX`.r.b.*X*X1X0XwXZXGXGXGXGXGXGXGXGXGXGXGXGXGXGXGXGXGXGXGXGXGXGXGXGXGXGXGXGXGXGXGXGXGXGXGXGXGXGXGXGXGXGXGXGXGX",
"GXGXGXGXGXGXGXGXGXGXGXGXGXGXGXGXGXGXGXGXGXGXGXGXGXGXGXGXGXGXGXGXGXGXGXGXGXGXGXGXGXGXGXnX5X<X&X&X=Xc.] ].%X<X1X1X1X,X*X%X1X1X1X1X1X1X0X,X1X0X%XN.&.).OX(.B.c.c.C.R.7X;X=.| 1XqXqXwXwXwX4X%X&X1X0X3XwXiXwXwXqXwXwXwXiXdXfXhXkXcXnXMXbXMXMXMXMXbXbXNXMXNXMXbXcXcXcXbXMXMXMXMXMXMXNXNXNXMXNXMXMXbXnXlXhXfXfXfXwXqXwXwXiXwX3X0XqXqXqXqXwXqXwXwXqXwXqX%X&.&.&.&.| <X&X1X1X.X=.#.| ! #.| #.&.>.XXqXqX1X1X1X1X1X1X<X<X%X$X$XOX'.v.y.=X&X1X1XqXbXGXGXGXGXGXGXGXGXGXGXGXGXGXGXGXGXGXGXGXGXGXGXGXGXGXGXGXGXGXGXGXGXGXGXGXGXGXGXGXGXGXGXGXGX",
"GXGXGXGXGXGXGXGXGXGXGXGXGXGXGXGXGXGXGXGXGXGXGXGXGXGXGXGXGXGXGXGXGXGXGXGXGXGXGXGXGXGXnXiXqX1X&X=Xg.f.OX*X<X0X1X1X0X1X,X%X,X1X1X0X*X0X,X0X0X1X0X1X*X(.'.#X,X0X0X1X,X:..X=...5XwXwXwXwXwXwXqXqXqXwXsXsXwXwXwXwXpXhXjXkXcXnXbXMXMXbXcXkXcXkXjXjXkXjXjXkXkXkXhXfXdXdXdXhXjXhXhXfXjXhXhXjXfXkXnXkXlXnXMXNXNXMXbXkXjXhXfXsXwXqX0X0X0X0XwXwXwXwXwXwXqXqX:.#.=.U.#.R.1X1X1X%XR.Q.&.#.| Z J  .#.=.&.W.Y.5X1X<X<X1X1X*X*X*X<X*X$X$XOXD.2.].&X1X1X4XkXGXGXGXGXGXGXGXGXGXGXGXGXGXGXGXGXGXGXGXGXGXGXGXGXGXGXGXGXGXGXGXGXGXGXGXGXGXGXGXGXGXGXGX",
"GXGXGXGXGXGXGXGXGXGXGXGXGXGXGXGXGXGXGXGXGXGXGXGXGXGXGXGXGXGXGXGXGXGXGXGXGXGXGXGXGXjXwX1X%X<X1Xh.f.#X%X*X<X,XwX2X0X1X0X*X0X1X1X1X1X0X0X,X1X0X,X0X0X0X0X0X0X0X6X4XXXY..XI.l.qXwXwXyXwXwXyXiXsXwXwXiXdXdXdXhXkXcXnXbXnXbXcXkXjXhXdXdXsX6XwXyX6XsX9XwXwXwXqXqX5XwXyXwXwXwX5X3X3X9X9XsXdXyXfXsXwXyXiXdXjXnXbXMXNXNXMXnXjXfXiXwXqXqX0XqXwXwXwXwXwXqX<XM  .#.=.&.*X<X1X1X%XQ.U.-.#.Z Z.`.r...| | #.%.#. X1X1X1X1X1X1X*X*X*X*X&X$X#XJ.q.[.&X&X%X1XlXGXGXGXGXGXGXGXGXGXGXGXGXGXGXGXGXGXGXGXGXGXGXGXGXGXGXGXGXGXGXGXGXGXGXGXGXGXGXGXGXGXGX",
"GXGXGXGXGXGXGXGXGXGXGXGXGXGXGXGXGXGXGXGXGXGXGXGXGXGXGXGXGXGXGXGXGXGXGXGXGXGXGXGXjX4X<X1X&X=Xo.N.$X*X<X&X%XiXkXpX0X0X0X0X*X1X0X,X0X*X0X0X0X4X0X0X0XXX;XqX2X2X,X).W.6X2Xf.4XwXwXiXwXsXsXsXdXpXhXcXcXkXcXMXMXMXMXnXcXkXkXfXwXwXqX3X3X3X1X3X8X8X8X&X#X].].J.L.`.L.L.J.D.J._._.].].@X1X8X3X9X3X3X3X5X9XfXjXjXhXhXcXMXNXMXMXbXkXhXfXiXwXwXqXwXwXwXqX0X(.l.} O.>.1X<X1X5XOX%.%.%.%.'.1X1X%X+.| Q Q | Q E.1X1X1X1X<X1X1XoX X6X*X*X#X#X_.0.J.=X$X<XwXjXDXGXGXGXGXGXGXGXGXGXGXGXGXGXGXGXGXGXGXGXGXGXGXGXGXGXGXGXGXGXGXGXGXGXGXGXGXGXGXGXGX",
"GXGXGXGXGXGXGXGXGXGXGXGXGXGXGXGXGXGXGXGXGXGXGXGXGXGXGXGXGXGXGXGXGXGXGXGXGXGXGXhX3X1X%X1X$XG ^.%X%X*X1X#X2XiXaXkXiX,X0X0X0X1X0X0X0X2X0X0X0X0X0X4X0X*XY.W.U.;X).W.+X;Xo.<XwXwXwXyXyXsXiXdXjXcXbXMXMXMXMXMXMXnXcXjXfXfXiXwX3X1X1X1X$X`.D.b.q.) ( ( ( ( ( <.<.( ,.z = r r 0.( - ( ( ( d F L f.H.{.1X3X5X5XwXyXyXdXhXjXjXfXjXbXNXbXlXfXiXwXqXqXwXwX0X1X<X%XC.&X1X1XqX5X<X! O.#.U.sX3X3X1XR. .Q  .| &.#X1X1X3X1X1X%XW.;.-.Q.5X%X*X&X#X`.q.J.*X1X3X3XkXDXGXGXGXGXGXGXGXGXGXGXGXGXGXGXGXGXGXGXGXGXGXGXGXGXGXGXGXGXGXGXGXGXGXGXGXGXGXGXGX",
"GXGXGXGXGXGXGXGXGXGXGXGXGXGXGXGXGXGXGXGXGXGXGXGXGXGXGXGXGXGXGXGXGXGXGXGXGXGXhXwX1X%X1X$Xn G.*X*X<X<X&X).pXaXjXjXkXwX,X0X0X,X0X*X0X0X0X0X0X0X0XqX0X*XY.oX|.(.6X4Xm.d.4XyXwXsXsXsXiXdXfXjXcXMXMXMXMXMXbXcXkXhXdXtXwXwX3X1X].f.K ) d : _ b.<.<.<.<.<.1.1.1.,.n l * d ( & # ( r ( 1.( t i t 1 1 : t B g._.1X4X3XyXyXwXwXwXwXpXzXcXNXMXnXhXfXiXiXqX0X3X1X1X1X3X0XqXwX5X3X^ O.-.U.2XsX3X1XW.| &.| | N.1X,X1X1X1X<X^.:.:.U.&.W.*X%X%X&X$X`.t.L.1X1X%XqXkXDXGXGXGXGXGXGXGXGXGXGXGXGXGXGXGXGXGXGXGXGXGXGXGXGXGXGXGXGXGXGXGXGXGXGXGXGXGXGX",
"GXGXGXGXGXGXGXGXGXGXGXGXGXGXGXGXGXGXGXGXGXGXGXGXGXGXGXGXGXGXGXGXGXGXGXGXGXkXpXwX3X1X#Xw._.=X*X1X<X1X1X%XXXpXjXjXaXjX0X0X*X0X0X0X0X0X2X0X0X0X0XqX0X2X>.G.>.o.c.N.%X6XwXwXyXsXiXdXfXjXcXnXcXnXnXnXcXjXhXdXwXqX3X#XV.g.F t i - ( 1.<.( ( v g.b.a.<.2.( 5.1.2 3 i ( 1.( ; t ( 1 i.( <.,.( ( ( ( ( z t 1 d - m { B.].1X0X0X0XiXsXwXiXfXlXbXMXnXzXiXyXwX0X4X3X0X0XwXwXdX2XV.&.=.=.-.Y.:XoX;.| | #.@.<X0X3X1X3X1X3X.X^ %.&.&.*.&X1X&X*X$X$X`.e.H.&X&X&X3XhXDXGXGXGXGXGXGXGXGXGXGXGXGXGXGXGXGXGXGXGXGXGXGXGXGXGXGXGXGXGXGXGXGXGXGXGXGXGX",
"GXGXGXGXGXGXGXGXGXGXGXGXGXGXGXGXGXGXGXGXGXGXGXGXGXGXGXGXGXGXGXGXGXGXGXGXhXdXwX3X<X'.n `.%X&X1X1X0X%X,X%XOX|.iXaXkXaXcX0X0X0X0X0X0X3X0X0X0XqXqX5XqX3X%XOX#X1X0XwXwXwXyXiXiXdXhXkXlXcXnXcXkXjXhXdXiXwX5X3X].^ H z 1.1.<.( ( ( _ v.5.<.1.5.( z f g.: m 1.<.y 4 z x i.l - 1.<.% % l ( <.<.<.v 2.,.l r.- z 2 z t z * d F S.*X9X1X3X5X5XsXhXnXMXNXnXkXhXfXsXqXqXdXwX7X=.#.XXH %.%.! | %.&.| #.;.| OX3X1X0X*X0X0X|.=.^.W  .Z V.&X1X1X%X*X$X%X'.r.D.=X&X1X0XfXGXGXGXGXGXGXGXGXGXGXGXGXGXGXGXGXGXGXGXGXGXGXGXGXGXGXGXGXGXGXGXGXGXGXGXGXGX",
"GXGXGXGXGXGXGXGXGXGXGXGXGXGXGXGXGXGXGXGXGXGXGXGXGXGXGXGXGXGXGXGXGXGXGXkXdXwX<X1X#XG ].$X%X*X<X<X1X1X0X0X0X(.2XaXjXaXpXaX0X0X1X0X3X0X0XqX0XqXqXqXqXqXqXqXqXwXwXwXyXyXsXdXfXkXcXcXcXcXkXfXdXdXwX3X1XOXf.m d t v z.v.5.1.<.z * t t g.S.q.<.<.<.( 1 h l 1.1.( c z + % 2 c 1.<.p ; - w.( <.l ; 2 ,.- + 1 z - c t z - ( : z 1 i.`.1X8X3X3XwXsXhXhXbXVXMXcXhXiXwXiX^.| | &.W.OXH +.O.%.;.%.| %.;.>.1X0X4X1X0X0X;X| | =.V.o.^.&X1X&X1X&X*X<X$X%X'.q.S.1X1X1X0XvXGXGXGXGXGXGXGXGXGXGXGXGXGXGXGXGXGXGXGXGXGXGXGXGXGXGXGXGXGXGXGXGXGXGXGXGX",
"GXGXGXGXGXGXGXGXGXGXGXGXGXGXGXGXGXGXGXGXGXGXGXGXGXGXGXGXGXGXGXGXGXGXcXfXwX1X&XOX{ #X1X&X%X&X1X1X1X,X%X%X%X,X).wXaXpXXXoXwX0X0X0X3XqX3X0XqXqXqXqX5X3XwXwXwXwXwXwXiXdXhXjXkXcXcXkXhXfXiXqX3X3XOXf.9.,.1.1.t 9.1.( z X.j.y : ( <.1.( l _ g.t.F <.( m 1.1.1.,.z 2 v r = 1.1.1.c u j + <.<.d 3 ( ( 2 r ( y t l r c - ( - z r ( z ( j.`.1XtXyXsXfXjXcXnXVXMXlXdXqX#X[ -.*.&.W.2XB.{ *.&. .&.-. .%X1X,X0X0X*X2X=.#.#.| &.#X<X1X1X1X&X1X<X*X$X$X$X'.i.D.3X3X4X5XvXGXGXGXGXGXGXGXGXGXGXGXGXGXGXGXGXGXGXGXGXGXGXGXGXGXGXGXGXGXGXGXGXGXGXGX",
"GXGXGXGXGXGXGXGXGXGXGXGXGXGXGXGXGXGXGXGXGXGXGXGXGXGXGXGXGXGXGXGXGXcXiX5X1X*X#Xm '.1X1X1X1X&X,X1X0X*X0X*X0X0X*X&.XX!.:..X;X0X0X0X3XqXqXqXqXqXwXqXwXiXwXwXwXwXiXiXhXjXkXcXkXkXhXdXwXqX0X1XZ.F * 5.5.<.2.,.B @ 1.1.1.1.d l <.1.1.<.5.5.1.( i ; <.t.1.<.,.,.u = z ( r r 1.1.( r = t ( 1.<.t u <.,.% ,.( = z - l g l u 1 l t ( ( ( ( ( ) z.*X5XyXsXdXjXnXNXFXNXhXiX^.f.n.&.*.%.!.oX=.| #.;.| ^.0X1X<X,X*X2X=.=.#.|  .G.<X1X,X1X<X1X%X*X<X<X*X&X=X'.r.H.1X*X1XwXnXGXGXGXGXGXGXGXGXGXGXGXGXGXGXGXGXGXGXGXGXGXGXGXGXGXGXGXGXGXGXGXGXGXGX",
"GXGXGXGXGXGXGXGXGXGXGXGXGXGXGXGXGXGXGXGXGXGXGXGXGXGXGXGXGXGXGXGXnXpXqX1X1X&XH J.1X1X1X1X0X&X&X1X0X0X0X0X0X0X%XOX .).:.R.:.).0X0X3XqXqX0XqXqXwXyXwXiXsXyXyXiXfXhXjXkXkXkXhXdXwXqX0X1XC.H l t n 8.1.2 D c + c 5.1.1.1.1 { 1.1.1.1.1.5.1.1.d d t ; ( c i.r - ( c - = <.<.c r r <.<.<.1.,.% <.<.r y ,.z r ( + ( = ( r l r t z ,.( ( ( ( z z M.*X8X9XyXfXlXcXMXVXbXfXj.f.&.*.&.&.&.%.%.%.&.@.1XqX1X%X*X,X:.%.&.%.| o.%X1X1X1X<X1X1X3X*X*X*X*X&X%X#X]._ H.*X<X1XqXCXGXGXGXGXGXGXGXGXGXGXGXGXGXGXGXGXGXGXGXGXGXGXGXGXGXGXGXGXGXGXGXGXGX",
"GXGXGXGXGXGXGXGXGXGXGXGXGXGXGXGXGXGXGXGXGXGXGXGXGXGXGXGXGXGXGXGXiXiXqX3X1Xo.Z.*X1X3X3X1X3X1X,X%X1X0X0X,X*X0X0X%X'.*.).R.W.U.(.0X0X0XqXwXwXqXwXwXwXwXwXsXiXpXzXlXcXjXkXdXwXwX3X1XE.k ( 8.5.<.1.8.' D $ c - 1.5.1.,.<.B 3 P.a.1.<.<.1.1.1.( 1.r p z % ; t ,.z = r <.,.l = d <.<.<.1.<.z = <.<.. c ,.- z l = ( @ ( * ( - d r ( ( ( ( ( ( z 9.l h.*X3X5XdXfXkXnXNXMXhXj.g.*.%.| &.@.&.=.~ *XqX3X1X,X,X).&.%.#.&. .#X1X1X1X1XyX1X5X,XwX<X<X*X*X&X&X#X`.t.}.*X<X1XwXZXGXGXGXGXGXGXGXGXGXGXGXGXGXGXGXGXGXGXGXGXGXGXGXGXGXGXGXGXGXGXGXGX",
"GXGXGXGXGXGXGXGXGXGXGXGXGXGXGXGXGXGXGXGXGXGXGXGXGXGXGXGXGXGXGXhXwX0X3X1Xo.N.$X<X3X3X3X1X3X3X1X3X0X0X0X,X0X*X0X0X0XG.:..XR.U.U.'.3XwXqXqXwXwXwXwXwXyXsXdXhXkXkXkXjXfXsXqX0X&XV.2.1.,.y.,.8.8.1.u 2 u z = ,.1.<.u 9.,.z z z H g.{ C ,.5.1.,.1.% u ,.a * c r = z <.z y 2 c 1.1.1.n 4.,.y z <.l $ <.c % ,.* c l r l - ( + ( * z M ( ( ) ( 1 i e.( z d.'.3XqXsXhXcXbXMXkX(.w.} &.&.&.Q  .#X0XqX3X1X#XW.=.=.%.|  .OX1X1X1X<X,X;.;X|.#.#.+X*X<X<X%X&X%X#X`.r.'.*X1X1XqXZXGXGXGXGXGXGXGXGXGXGXGXGXGXGXGXGXGXGXGXGXGXGXGXGXGXGXGXGXGXGXGX",
"GXGXGXGXGXGXGXGXGXGXGXGXGXGXGXGXGXGXGXGXGXGXGXGXGXGXGXGXGXGXhXiXqX3X1X} z.1X1X1X1X3X3X3X1X0X3X3X0X0XwX0X,X0X*X,X0X*XF.R.R.R.R.XXOX5XwXwXwX5XwXyXiXiXfXkXhXkXjXfXsXwX0X1X>.n 8.8.4.2 % l 5.,.2 t 1.5.,.. 5.1.<.p B v.8.5.1.( c - 4 <.1.u 3 n $ 1.,.c z - t ( <.l = r H 4.1.<.( @ 2 ( u c ,.$ l <.r u c = ,.- ( = l u - z + r p g.v.<.( f : a f.v.2.z e.#X3XwXiXfXhXcXcXdX'.j.0.w.C.1XqXqXqX5X%XQ.&.&.=.&.~ ).1X0X3X%XV.! Y Q ! Q T Q (.1X*X*X*X&X$XOX`.2.[.*X<X1XyXSXGXGXGXGXGXGXGXGXGXGXGXGXGXGXGXGXGXGXGXGXGXGXGXGXGXGXGXGXGXGX",
"GXGXGXGXGXGXGXGXGXGXGXGXGXGXGXGXGXGXGXGXGXGXGXGXGXGXGXGXGXfXiXqX0X0XG.o.*X*X%X0X1X0X0X0X0X0X1X,X!.|.).7XiX0X0X0X1X1X%Xo.:.).|.C...1XwXwX6XyXyXyXdXhXhXhXjXhXdXwX9X<X@XC g.P.8.<.g s 3 z J 2 l 5.5.( 2 y 5.1.<.t d t g.S._ w.<.z l 1.c a B r r <.z b.( ) y.a.g.z.g.} 3 u 1.c d H r <.t ) l y ( ( * ( t l ( = ( % ( % z t = z 1 d r ^ v.t.( ( t r ^ v.t.z M.1X3X5XyXfXjXnXcXfXwX3XqXqXqXwX0X3XV.%.&.&.&.O.>.0X0X0X*XOX[  .P  .T Y Y  .[.&X1X&X&X&X*X&X#XF.t.&X*X<X1XhXGXGXGXGXGXGXGXGXGXGXGXGXGXGXGXGXGXGXGXGXGXGXGXGXGXGXGXGXGXGX",
"GXGXGXGXGXGXGXGXGXGXGXGXGXGXGXGXGXGXGXGXGXGXGXGXGXGXGXGXcXiXwX3X*X`.} *X*X,X%X0X0X1X0X0X1X.X X X;X0X0XXX.XiX0X0X4X0X0X,X>.C.:.o.OXqXwXwXwXwXiXpXhXhXhXhXpXiXqX0X'.f.9.8.) _ g.p 2 ,.( t 4 z 5.<.c r y <.5.( - H 5.1.( ) B : 5.<.4.} M.~.+X4XgXjXkXkXkXcXcXkXcXkXkXlXkXvXlXkXlXhXdXtXoX].! N 2.d d ( - ) d t ( r z * z r ( c n ( ( ( t F d.b.q.( ( t F d.g.w.A.8X3XtXsXfXlXbXkXfXyXwXqXwXwX<XS W | O.%.>.0X0X1X,X0X*XN.| T Y Y | Y ^.*X1X1X1X1X*X&X%X#X[.v.j.&X*X<X3XlXGXGXGXGXGXGXGXGXGXGXGXGXGXGXGXGXGXGXGXGXGXGXGXGXGXGXGXGXGX",
"GXGXGXGXGXGXGXGXGXGXGXGXGXGXGXGXGXGXGXGXGXGXGXGXGXGXGXMXwX5X3X&X`.G [.*X%X*X%X*X%X0X0X*X+XXXXXXX.X7XqX7X,X.XqX0X0X0X0X2X#Xo.u.&XqXqXwXwXwXdXfXhXhXhXpXiXqX0X<Xl.c d K D.P.8.8.<.1.8.8.,.l 1.( l * l <.<.<.z A : 1.1.5.<.d M.8XdXkXkXlXlXjXjXhXhXjXjXjXfXhXhXhXhXhXhXhXhXjXlXcXlXjXhXhXjXkXlXvX9X!.f.l ( * ( ( - ( - : @ z u * z.2.( ( ( ) 1 C v.b.) ( ( 1 s 1 f =X1X3XyXdXjXMXbXhXdXwXwXqX3X%Xl.o.| X.1X2X0X0X1X0X.X| | | Y | Y | :.,X1X&X&X1X*X<X&X&X#XOXz.x.=X<X<X1XVXGXGXGXGXGXGXGXGXGXGXGXGXGXGXGXGXGXGXGXGXGXGXGXGXGXGXGXGX",
"GXGXGXGXGXGXGXGXGXGXGXGXGXGXGXGXGXGXGXGXGXGXGXGXGXGXGXiX3X&X=X#Xb [.%X*X*X0X*X#X%X#X0X0XXX XXXwX%XW.0XY.:.:.|.iX0X0X0X0X0X[.1XqXqXwXwXwXdXfXhXhXhXfXwXqX1XOXB z b.8.5.z m z.P.8.8.8.8.5.5.c t = ( 1.,.` 5.(   ( 5.a.].9XlXcXfXhXjXhXhXhXkXkXjXjXhXfXfXdXfXfXfXhXfXhXfXhXjXhXjXjXhXhXfXhXhXhXjXhXzXlXlX9XQ.q.( - z - a ; ) t 3 r ^ v.q._ ( ( l f s f.b.4.( ( t : 1 D.1X3X5XyXdXvXMXjXdXwXwX0X3X1Xc.} #X0X0X0X1X0X%X#.| Y  .Y |  .| | ^.<X1X1X<X*X1X<X&X%X$X].9.J.*X<X1XwXSXGXGXGXGXGXGXGXGXGXGXGXGXGXGXGXGXGXGXGXGXGXGXGXGXGXGXGX",
"GXGXGXGXGXGXGXGXGXGXGXGXGXGXGXGXGXGXGXGXGXGXGXGXGXGXiXqX1X1X&Xg.`.1X&X1X0X,X*X*X%X*X0X).6XwXaXW.>.).;XY.:.:.:.R.|.0X0XqX0X0X3XqXqXwXwXiXfXhXhXfXiXqX3X<X@.F r 2 t.j.P.a.8.<.m X.6.8.5.,.z - u 1.1.5.t : d j M.<XjXvXcXkXjXjXjXlXjXdXiXdXjXkXjXdXdXdXsXyXsXdXdXfXfXdXdXfXfXdXfXfXfXfXfXfXfXfXfXhXfXjXhXhXhXkXgX>Xf.t d : H 2.( ,.z u B - s ( * i ( l t L w.b.t.( d d _ ].&X1X3XyXkXMXlXdXwXwX0X0X1X1X0X0X0X0X0X#X$.| | | | Y ]  .%. .OX1X1X*X1X*X&X1X&X&X&X#X_.9.[.&X1X1XiXSXGXGXGXGXGXGXGXGXGXGXGXGXGXGXGXGXGXGXGXGXGXGXGXGXGXGX",
"GXGXGXGXGXGXGXGXGXGXGXGXGXGXGXGXGXGXGXGXGXGXGXGXGXhXwX3X3X1XB.l.&X1X1X<X*X0X0X*X%X%X*X).pXaX2X:.;XqXqX,X(.R.U.;X;XqX4XqXqXqXqX3XwXsXfXhXpXhXfXwXqX0X(.v # ; l <.<.<.c _ D.P.8.z n 5.r C s ( 1.,.q.<.r v.8XcXcXkXkXfXjXfXfXfXfXfXhXhXhXfXdXdXdXyXyX9XwXwXwXsXdXdXdXpXdXdXdXdXdXdXdXdXfXfXfXdXfXfXfXfXdXhXhXhXjXfXkXjX7Xg.* ^ v.r.( ( z i t - a - ( ( ( ( d 1 L M.r.( u : x.3X3XyXyXfXMXvXfXwXwXwXqXqX0XqX3X3X=X:.Y  .T | Y G.(.] [ (.&X&X*X<X*X<X<X&X1X&X%X#X#X_.0.&X*X1X1XfXGXGXGXGXGXGXGXGXGXGXGXGXGXGXGXGXGXGXGXGXGXGXGXGXGXGX",
"GXGXGXGXGXGXGXGXGXGXGXGXGXGXGXGXGXGXGXGXGXGXGXGXGXiXwX<X1X(.{ %X1X1X<X*X*X1X0X0X1X*X#X;XpXiX).XXwXwX7X[  .:.R.qX2X XOX0X0X0XqX6XwXpXfXfXhXiXwX0X1XC.x <.G r 1.y r.8.8.8.( f ,.,.h ,.p 4 z 1.<.r ) ].yXjXhXcXkXjXfXfXfXfXfXfXfXfXfXhXhXhXdXwXtXwX5X5XyXsXdXiXsXsXsXsXsXdXdXsXdXdXdXdXsXdXdXdXdXdXdXdXdXfXfXfXfXfXhXhXhXvXsX~.d F z.b.( d - r z ( ( ( ( ( ( ( ( 1 B d.: ( z ^ 1X1X3XwXfXbXnXfXsXqXqXqXqX0XqX0X(.#.| | |  .R.#X#X^.^.&X%X%X&X1X<X1X1X1X&X&X&X&X&X#Xx.j.&X%X&X1XCXGXGXGXGXGXGXGXGXGXGXGXGXGXGXGXGXGXGXGXGXGXGXGXGXGX",
"GXGXGXGXGXGXGXGXGXGXGXGXGXGXGXGXGXGXGXGXGXGXGXGXwXwX3X1X#X] [.&X*X<X1X1X1X1X*X1X*X*X*X>.G.G.@.qX|.7X>.(.:.W.).).+.G.0XqXqXqXqXwXwXfXpXfXsXwX3X&X{ 1.8.1.z c d C - 8.8.8.4.t <.( & j z l 1.1.b.+XjXjXfXdXdXhXjXdXfXfXdXfXdXdXdXdXdXdXdXfXiXdXwXqXtXyXdXdXdXdXsXyXiXyXyXsXwXyXyXiXwXyXsXsXiXsXsXsXdXdXsXyXwXyX9X9X9XdXfXgXhXjXfX#X_ f ^ r z ( ( ( ( z d a.2.( ( ( ( d ( ( t + f _.0XqXyXfXlXbXfXdXqXqXqX0X0X4XU.| | #.#.).*X%X%X%X*X0X&X1X1X1X1X<X1X&X<X1X<X&X&X#X{.r.B.&X<X*X3XSXGXGXGXGXGXGXGXGXGXGXGXGXGXGXGXGXGXGXGXGXGXGXGXGX",
"GXGXGXGXGXGXGXGXGXGXGXGXGXGXGXGXGXGXGXGXGXGXGXhX5X3X1X&Xo.'.&X&X*X*X<X1X1X1X3X0X1X1X1X,X,X%X(.wX.XiXqXXXR..X7X&.>.0XqXqXwXiXaXwXwXiXfXiXwX1X'.m 8.8.8.5.( y - t ,.8.8.<.,.z o.l K 2 5.5.a.9XcXkXhXjXkXjXhXdXdXdXfXsXdXsXsXsXsXsXyXyXsXsXyXwXtXwXwXsXiXdXdXsXyXyXyXsXyXsXwXyXyXyXyXsXyXyXyXwXyXwXiXyXyX5XqXqXwXyXwXwXsXsXdXfXhXhXcX8X_ ( ( ( ( ( z r : 1 L M.r.( ( ( ( ( 1 s 1 < M.8X3X9XdXjXMXjXiXwXqX0X0X0X^. .| | &.7XdX0X*X*X1X1X3X1X1XwXqX1X*X1X*X1X1X&X*X&XOX'.t.].<X<X4XhXGXGXGXGXGXGXGXGXGXGXGXGXGXGXGXGXGXGXGXGXGXGXGXGX",
"GXGXGXGXGXGXGXGXGXGXGXGXGXGXGXGXGXGXGXGXGXGXGXiX3X3X&X_.h.=X&X1X1X*X1X1X<X1X1X3X0X1X1X1X1X1XXX2X.X,X|.Y.;X;X!.G.0X0XqXqXqXwXiXiXwXwXqX3X1X^.m 8.8.8.1.z 2 2 a i.8.8.8.l h.r $ u z <.a.&XhXxXhXjXjXjXhXjXfXpXdXdXsXsXsXsXiXyX9XyXyXyXwXyXyXwXqXqXwXwXdXdXdXsXwXyXyXyXsXwXyXyXyXwXyX5X9XyXyXyXyXyXyX5XqXeXqXqXyXyXdXwXwXwXdXdXdXfXhXhXlX&X) ( l r.1 1 ( ( ( 1 f M.b.) ( ( ( d ) 1 : g.1X3XtXsXzXMXhXiXqXqX0X0X%X] | | #.| R.%X*X,X%X1X<X3X,XQ I.wX<X<X1X&X1X%X*X%X$X#X_.r.&X*X1X0XCXGXGXGXGXGXGXGXGXGXGXGXGXGXGXGXGXGXGXGXGXGXGXGX",
"GXGXGXGXGXGXGXGXGXGXGXGXGXGXGXGXGXGXGXGXGXGXqX3X1X&X].H #X&X1X&X1X1X<X&X1X1X4XdX1X0X1X4X0X*X).&.U.:.W.0XiXwX:.0X0X0XqXwXdXfXiXiXwX3X<X*XC.f ,.5.8.<.g 2 l g B % 8.1.( a & - a <.a.#XhXfXfXhXfXhXfXhXfXdXfXdXsXsXsXsXyXsXyXtXwXwXwXqXwXwX5XqX0XqXwXyXdXsXwXyXtXwXyXwXyXwXwXyXyXyXyXtXwXyXqXwXwXqXtXwXwXqXqXwXdXdXdXwXyXwXwXdXiXfXfXfXfXhXhX%Xp @ t ( ( ( ( ( ( d t ^ g.r.) ) ( ( ( t K *X3X9XsXfXbXhXiXwX0X0X,X(.]  .#.| :.0X0X,X%X<X1X%X&. .Q | 6X1X<X1X1X*X%X<X*X$XOXz.B.*X1X1XwXSXGXGXGXGXGXGXGXGXGXGXGXGXGXGXGXGXGXGXGXGXGXGX",
"GXGXGXGXGXGXGXGXGXGXGXGXGXGXGXGXGXGXGXGXGXiX%X<X%X&XH `.&X*X&X1X&X1X1X1X&X4XiXaXwX1X1X1X,X0X#X>.qX2XiXpX2X..,X0X0XqXqXwXhXfXhXiXwXqX1XX.( z G }.y.y r <.8.c + ,.,.z - r d 1.1.].dXdXiXfXfXdXdXdXiXdXdXsXiXdXsXyX9XsX9XwX5XwXwXwXtXqX0XeX0XqXqXqXsXsXyXyXyXwXyXwXyXyXyXyXyXtXwXtX5XyXyX5XqX0XqXqXqX0XwX3XwXsXdXdXfXyXdXwXyXdXdXiXsXsXfXgXfXfXvX&.( ( ( ( ( ( ( ( ( ( d 1 ^ B s ( ( ( z m $X1X5XyXhXMXjXwXqX0X0X*X(.} ] q #X*X*X%X3XwXwXm.O.| | | ! 2X1X<X*X1X*X<X%X%X$X'.9._.1X%X1XhXGXGXGXGXGXGXGXGXGXGXGXGXGXGXGXGXGXGXGXGXGXGX",
"GXGXGXGXGXGXGXGXGXGXGXGXGXGXGXGXGXGXGXGXGX,X%X$X&XM.B.=X&X1X1X&X1X<X<X<X,XpXaXaX3X1X3X1X0X4X1X(.>.+X,Xl.[ *X0XqX0X0XqXqXwXiXwXwX9X3X@.( l = z l M u 5.8.8.2 z ,.d : z 1.,.q.8XfXfXpXdXfXfXdXdXdXdXsXsXwXyXyXwXtXwXtXwXtXtXqXqXqX0X0XqX0X0XtX9XtXwXsXyXyXyXyXwXyXyXwXwXyXyXwXwXqXyX5XqX0XqX0X0XqX5XtXqXqXsXsXiXsXdXwXwXqXwXwXwXwX9XsXdXdXdXdXfXkX9Xt.( ( ( z ( ( ( ( ( ( d 1 # ( ( ( ( l f @X1X9XwXfXMXhXwX0X0X0X*X#XF.G.#X%X%X.X#.Q &.;XN.J | | Q ! 5X1X1X*X*X*X<X%X$XOX_.) %X<X1X1XVXGXGXGXGXGXGXGXGXGXGXGXGXGXGXGXGXGXGXGXGXGX",
"GXGXGXGXGXGXGXGXGXGXGXGXGXGXGXGXGXGXGXGXwX<X<X<X#Xd.$X&X*X*X&X1X&X<X%X%XiXpXpXpX).(.5XwXqX1X1X1X%X`.^.#X0X0X0X0X2XqXqX6XwXqX0X0X=XX.4.- y ,.8.5.<.5.8.5.5.= ' 2 r ,.<.a.$XdXdXhXfXfXiXdXdXsXiXyXsXwXyXyXwXtXwXqXwXqXqX0X5XtXeX3X0X0X0X0X0X5XtXyXwXwXyXyXyXtXyXyXyXyXtXtXyX5XtX9X0XtX0X0X0X3X0X0X3X3X0XeX0X0X0X0XwXwX0X0XqXwXwXqX5XsXsXiXdXdXdXdXsXjX@X) z s g.) ( z ( ( ( s d ( ( z ( z ( m @X1X0XwXdXbXhXwX0X#X#X#XXX%X%X#X^.%.Y Y | +.W./.H O.! ! |.%X<X*X%X1X<X*X*X%X{.S.z.1X&X<X3XSXGXGXGXGXGXGXGXGXGXGXGXGXGXGXGXGXGXGXGXGX",
"GXGXGXGXGXGXGXGXGXGXGXGXGXGXGXGXGXGXGXjXwX1X%X*X{ `.*X*X&X1X1X<X%X%XOXwXwXpXiX..:.qXwX4XwXpX0X0X4X1X0X0X0X0X0X0XwXwX0XqXqX1X0X#X7 1.,.J J 4.5.8.8.5.5.5.c 2 % u 1.1.v.dXdXfXdXdXsXdXsXiXiXyXyXwXyXqXwXqXwXqXqXqX3XqX0X0X0X0X3X3X8X0X3X3X3X1X&X{.J.5XwXwXtXwXwXwXyXyXtXwXtXtX$X`.&X1X3X8X3X3X3X1X1X*X0X*X0X1X0X0X0X0X0X0X0X0X0X0X9XyXyXyXiXsXsXwXsXfXfXkX^ 1 t L z.j.( ( ( ( l ( ( l ( z d : f ].*X0XqXfXbXfX0X%X#X%X*X%X#X(.&.| E Y O.O. .W.G.^ | #.&.1X<X1X<X*X*X*X*X%X$X{.w.{.&X&X#XfXGXGXGXGXGXGXGXGXGXGXGXGXGXGXGXGXGXGXGXGX",
"GXGXGXGXGXGXGXGXGXGXGXGXGXGXGXGXGXGXGXwX6X3X1X_.g.$X*X*X<X1X&X&X#X(.XXpXpXiX@.Z.wXwX;XXXXX|.iX0X0X3X0X0X0X,X0XqXiXiXwXqX1X1X*XV * 1.<.- ; l 1.5.5.5.5.5.= l + 1.5.].dXpXdXsXsXwXwXyXwXyXsXyXyXwXyXwXqXwX0XqX3XqXeX3X0X0X0X8X0X3X1X$XH.r.n ( z l z 1XqX0X0X3X0XqXwXwXwXwX5XyXV.: z d m w.v.}.=X1X*X1X=X0X1X0X0X0X0X0X*X0X0X0X0XqXsXyXyXwXwXyXyXsXfXdXdXfXlXz.( ( t s g.v.) ( l ( z ( 1 M 1 1 ( d `.0X0X0XwXvXiX0X%X%X%X#X#XG.E Y Y I C O.O.%...-.|  .%.&X*X1X1X*X<X*X*X<X$X$XJ.w.&X#X'.#XZXGXGXGXGXGXGXGXGXGXGXGXGXGXGXGXGXGXGXGX",
"GXGXGXGXGXGXGXGXGXGXGXGXGXGXGXGXGXGXwX4X3X1X&Xe.$X*X*X*X1X*X*X$XOX(.;XpXiX.XN.6XiX5X2X4XXX2XwX3X3X0X0X0X0XqXqXqXwXpXwX3X%X%XA % l c y.r y c t h.b.8.( z + u u q.8XdXdXsXwXwXwXqXwX5XwXwXwXwXwX5XqXqX0X0X0X0X3X3X8X0X0X1X1X`.z.K : d c t : x z z z <X5X3X3XtX0X0X0XqXtXwXwXtX~.t z d u l 9.* = H z.H.=X1X*X3X8X1X*X*X*X0X0X0X0XtXwXqXqX0XqXwXqXqXsXwXwXfXhXvX5X2.z ( f d K d.: j ( z r 3 r l 9.z 4 ^.&X1X4XqXvXyXqX*X%X%X#X(.Z E I #.[.} &.;.%.%.%. .| [.&X1X1X1X&X1X*X&X*X#X[.h.D.#X#X'.wXGXGXGXGXGXGXGXGXGXGXGXGXGXGXGXGXGXGXGX",
"GXGXGXGXGXGXGXGXGXGXGXGXGXGXGXGXGXnXwX5X1X*Xz.D.&X*X*X1X<X<X%X%X#X/.2XpXiX3X2X2XiX;X).XX.X,X%X1X3X0X4XqXwXqXwXwXqXiXwX1X#X7 % z l * d ,.z - l z t d.) : x r D.fXhXdXdXwXdXsXwX3X0X0XqX0XqXqXqXeXqX0X0X0X3X0X3X3X0X1X`.{ u z t * z z z t B d.v.n l <XyXyXwXtXtXqXqX0X0X0XqXqXD.t z ( r * + 3 3 d - d l G P.=X3X-X0X0X*XrX0X0X0X0XqXqXqX0X0X0X0X0X0XwXyXfXfXhXjXlXr.( z z z 1 ] * ( z z d z % % r = l '.*X*X<XyXMXdX3X%X#X#XOX} ! Y | qX%X>.@.&.%.O.%.| &X1X<X<X&X1X&X<X&X*X%X'._.q.$X#X'.#XbXGXGXGXGXGXGXGXGXGXGXGXGXGXGXGXGXGXGX",
"GXGXGXGXGXGXGXGXGXGXGXGXGXGXGXGXGXwX3X4X*X#XH =X*X*X<X<X1X<X%X%X#X(.:XpXwXwX2X2XW.&.8 :..X2XE.1X3X0X0XqXwXwXiX2XqXqXqX3XW - ( u = c ( u = c l r.( r y H 1 *.sXfXfXhXhXjXjXhXdXyXwXwXqX0X3XqX0XqX0X0X8X3X3X3X1X&Xz.n u @ d r - ( z y g.z d d t d.w.*XqXyXsXiXtX0X0X0XqX0X0X0XZ.t ( z % 3 - d r c r w.z = z ) j.].rX1X*X1X0X0X0X0X0X0X0X1X0X0X0X0X0X0XqXwXyXwXwXiXcX8Xw._ c z r z z z z d r C $ + d z l '.*X<X3XjXbXqX1X#X&X&XB.F Y | >.|.=.%.%.#.| | :.*X<X1X1X1X&X<X1X&X&X%X[.'.z.D.$X#X<X5XGXGXGXGXGXGXGXGXGXGXGXGXGXGXGXGXGXGX",
"GXGXGXGXGXGXGXGXGXGXGXGXGXGXGXGXaX1X1X&X&Xw.`.&X*X*X1X*X<X1X<X#X#X'.).wX6X2X2XXX....).,X,XXXV.1X3X5X5XqXpXpXiXqX3X1X&X*.+ 1.- r c y C y ,.( 3 % ,.c y m (.dXdXhXfXhXdXfXfXdXdXyXqXqX3X3X3X0X0X0X3X0X3X3X1XG.] d z z z u - t ( z d 7 s x.) l l d t *X0XyXyXyXwXqX0XqX0X0X0X0XJ.r t t - @ z z 1 z t % a y ) ( ( z ' H.=X1X0X=X0XeX0X1X1X1X0X*X1X*X1X0XyXsXsXyXdXiX9XfX+X; 1 z c z z z u = 1 d t + z z l m $X*X3XyXfXkX5X1X1X%X#XB.[ O.&.=.&.&.+.%. .+.&X1X1X1X&X<X1X&X*XqX3X%X#X'.`.9.].=X1X3XMXGXGXGXGXGXGXGXGXGXGXGXGXGXGXGXGXGX",
"GXGXGXGXGXGXGXGXGXGXGXGXGXGXGXGX4X1X<X*X^.j.&X*X*X1X*X1X1X<X*X%X%X&X(.o.O.&.=.[ +.Q.U.Q. X-./.3X0X0X0XwXiXwXdX0X1X&X+.* y <.. l * y 2 ,.c - r u <.' j 4XdXdXfXyXiXsXsXdXdXwX0X0X0X0X1X0X1X3X3X0X3X3X*XZ.m d d z d z r - z z l d z t t a n.L.t.d l %XwXyXtXqXqXyXqXqXwXyX3X3X_.* u @ r * z z 1 z r B d % L z z z z l z b.=X1X3X*X*X1X1X1X=X0X*X0X0X1XqXwXwXiXwXwX4X5XyX:Xl : f z ) y * d l r % l z l r * H =X=X@X*XfXfXwX5X1X4X<XN. .#.+.&.*.&. .C.<X&X1X1X<X1X&X<X0X2X/ 7X%X#X[.].H.w.1X3X1X5XSXGXGXGXGXGXGXGXGXGXGXGXGXGXGXGXGX",
"GXGXGXGXGXGXGXGXGXGXGXGXGXGXGXiX,X1X&X1Xe.#X&X1X*X*X*X1X*X*X<X%X,X<X&X'.u.} } >.:.%.| ! &.J 4X3X0X0XqXwXwXhXpXqX0XE.l $ ,.y = % ,.u z l = l <.<.,.,.+XdXfXiXwXwXwXqXtXyXwXwX0X3X0X1X0X1X3X3X0X3X3XZ.m u z d l l v - r z q.z l d z ( ( z d 1 @.L.w.%XqXqXqXyXqXtXyXsXyXqX9XyX`.* u + - u l z t u z z z C @ l z l l z z z ) j.=X8X*X1X1X1X0X*X0X1X0X0X0X0X0X0X0X0X9X3XqXsX9XB - - ; : l d - - c z d = - z d t.*X$X%X1XnXpXqX0X3X1X#Xo.&.&.>.O. .^.&X1X1X<X<X1X<X<X6XT.I Y Q '.#X#XOX#Xg.#X3X3X1XcXGXGXGXGXGXGXGXGXGXGXGXGXGXGXGXGX",
"GXGXGXGXGXGXGXGXGXGXGXGXGXGXGX4X1X<X<X'.z.*X&X&X<X*X1X<X*XR.|.5X1X1X<X&X*X*X#X| | &.>.-.J $X3X3X2XqXqXwXwXdXwX0X%Xx z % <.. * l ,.c t r ( <.<.,.p.*XpXwXdXqX0XqXwXtX3X3X3X0XtXyXqX0X0X1X3X1X*XB.H d d ; v d w.u - d ( - i d d d i ) d d d z d t - 1XqX0XqXtXqX0XqXqXyXyXsXsX@X- - - * d d z z r z z z u d l l z ] z z z z u y H.=X*XrX1X=X0X=X0X0X0X0X0X0X1X1X3X3XqXwXqXsX2Xc r ; d r * t z l t = u z z z t f.&X1X*X0XhXqX,X+X1X1X`.} %...+.OX*X1X1X,X1X1X1X6X;X| Y I Y I | &X<X*X<X$Xg.3X1X<X3XZXGXGXGXGXGXGXGXGXGXGXGXGXGXGXGX",
"GXGXGXGXGXGXGXGXGXGXGXGXGXGXpX1X1X<X&X] #X&X1X&X*X1X<X1X$XW.#.Q XX&X1X1X1X1X0X(.| &.-.K *X1X3X3X0XqXqX0XqX0X0X1X3 ,.% l x * . <.l = d <.<.,.( r.wXqXwXwXdXfXiXwXqXwXyXwXqX0XwXwXqX0X0X0X1X#XF d l l - 9.= % * 2 z z z 3 & d d t a X.v.g.d d d z = 1XqXeXqXqX0X0XqXqXqXtXyXtX Xr . t * z z d z F S.) d z l l l - % t d d r * d d ' K.rX0X0X*X0X0X0X0X0X0X1X0X1X1X3X1X1XqX5X3XdXH l r = z z u = = v ) z z d + @ _.*X#X0XqXfXOX1X0X0X1XB.u.K.1X,X*X1X1X1X<X0XoXY Y Y T | | Q W (.<X<X<X<Xh.{.1X%X<XfXGXGXGXGXGXGXGXGXGXGXGXGXGXGXGX",
"GXGXGXGXGXGXGXGXGXGXGXGXGXGX3X1X*X*XJ.h.=X1X&X1X1X*X1X1X(.2XW.~  .>.1X*X0X*X*X%XO.[ [ .X0X0X0X0X0X7X,X0X3X,X1XA t z . ,.2 = 2 c % ( ,.,.( ,.,.4XfXfXfXwXwXiXqXwXwXwXyXqX9XyXyXyXwX0X9XeXZ._ * ( d 2 2 t l p ; z l d z + ( d l z d z t F M.j.l d - 1X9XtXqX0XtX0X0X0XqXyXyXwX%X2 @ a t l l l l d 1 K z.r.d d d - 7 d C C - z l d g % i.*X1X0X0X0XrX0X3X0X1X3X1X1X3X1X0XqX3X1X3XfXA : ( l d * t u + = l d 1 F < ) #X%X1X3XfXsXtX1X1X1X,XOX0X1X1X1X*X0X1X4XY.Y P Y I I  .Y O.[.%X&X*X*X%X_.w.*X<X*X1XZXGXGXGXGXGXGXGXGXGXGXGXGXGXGX",
"GXGXGXGXGXGXGXGXGXGXGXGXGXpX1X,X*X*X_ #X&X&X1X&X*X<X1X%X.X.XR.|...=X1X1X0X*X0X,X[.(.%X0X0X7X0X0XwXqX0XwXwX3X>.l l 2 l z % + c ,.,.,.( ,.( 2.%XtXwXyXiXdXwXwXiXiXyXyXyXtXwXyX5XtXwXqX+XN * d d t - l z l d d d 0.z d r * d t.d d d d d d t f d.) t 4XtXtX0XeX0X0X0XtXyXyXqXqX$X* ; % u l r K g.g.m d s m g.C - d z r p = d z d r = g d m K.eXeX0X3X3X0X0X0XqX0X0X3X<X3X3X1X,X1X1X4X( t 1 * d u * a r d - 1 d d d x 0X4X<XqXkXwX%X1X1X1X0X0X,X,X1X*X+XY.Q Y Y P Y Y I  .^.%X*X*X*X&X&X&X#Xe._.*X*X1XlXGXGXGXGXGXGXGXGXGXGXGXGXGXGX",
"GXGXGXGXGXGXGXGXGXGXGXGXGX,X<X1X*XB.D.&X1X&X1X1X1X<X*XE.:.5 =.2X%X,X,X1X*X0X,X*X1X1X,X1X,X0X0X0X0XwX0X0XqX#Xu 2 = c y = t % ,.,.,.( ( ( z >XiXwXwX3X3XwXwXqX0XqXyXwXwXwXwXwXyXyX0XC.+ r z z - r z c d d d l - @ t d * u + * d d d d d d l d r v z sXdXsXqXqXqXqXqXyXyXyXyXyX*X: u - d : r l d t d.S.w.d d d ( d l d r l d d - r c l l d @ } 1XeX3X1X3X0XqXwX3X3X<X1X0X3X&X,X,X&X1X4X= r d r = d l r % r & i l l d g.1X3X1XwXnXwX0X,X*X*X#X*X,XOXU.#.| | #.| | T A ^.%X&X*X*X*X*X<X&X&X#X].) *X*X&X3XZXGXGXGXGXGXGXGXGXGXGXGXGXGX",
"GXGXGXGXGXGXGXGXGXGXGXGXwX<X1X&X*Xg.=X1X&X1X&X1X*X*XOXQ.;.~ &.#.;X0X*X0X0X*X*X0X1X0X0X,X0X0X0X0XqXpXwX7X3X7 = u c y 2 c - z ( ,.( ( ( z .XjXdXwXwXqX5XwXqXwXwXqX0X3X3XqXtX0X5X3X+.% d z l = t z i 9.l d l t i 3 d d @ d 7 * d d d d d 9.z d l i l iXdXyXdXsXyXyXsXdXyXyXyXdX8X- 2.u = d l l n d d 1 H z.b.l d d d d l l u * u z l x 2.d . r 9.1XtX3XtXqXtX3X1X&X1X0X3X<X<X*X<X<X&X4XE.u r - z d r = l r F * z z z d '.1X&XyXyXfX1X#X%X*X*XOX^.%.%.O.| | | | Z +.#X%X*X1X*X,X*X*X&X&X&X#XOXe._.*X1X<XbXGXGXGXGXGXGXGXGXGXGXGXGXGX",
"GXGXGXGXGXGXGXGXGXGXGXGX4X1X&X1X`.z.*X<X&X1X&X&X&X&X-.-.Q Q ;.;.).;XqX0X1X1X1X1X0X,X0X0X0X0X0X,XqXqX0X0X .& l l 2 u z 2 t ,.( ( ( ( t  XfXhXhXsX3X3X0X0XqXqXqXqXtXqX3X3XtX3XOX3 = l z t 2 l l r C = l l r r z l d r * d + f d d d d t : u l _ ^ E.dXdXdXdXdXdXsXdXdXdXyXsXyXyX*.n.p z ) 1 : _ g.g._ d t f K ) d d l d 2 - z l d u % = 2 * z f v J.5XtXwX0X0X0X0X0X0X*X0X1X1X*X+X%XOX3X-.y y } = r u - 2 t d d d d d v %X1X4X<XfX&X*X,X%X%X`.o.%.&.O.| | Z +.OX&X&X<X*X*X1X*X*X*X<X&X&X*X#X(.g.&X&X<XqXZXGXGXGXGXGXGXGXGXGXGXGXGX",
"GXGXGXGXGXGXGXGXGXGXGXjX%X<X1X&Xe.[.*X<X1X1X1X1X1X&X>.E E E %.E o | T T.wX0X1X0X1X0X0X1X0X0X0X7X0X0X0X:.g x r 2 c y = c ,.c r 0.z 1 U.hXdXfXjXfXsXiXwXqX3X3X0X0XqX0X0X3X5X].s d l l = r c l 2 r t ] d = d z 9.d d @ u r : d d d d z ) ~.9XkXkXjXhXdXdXdXdXdXsXsXsXdXyXyXyX9X3XyXfXjXfXsXf.z d d t L v.g.d 1 f d r C i t z d n d d ; y % - 3 l d u z.qXtXqX0X0X%X,X$X*X*X%X%X#X$X#X#X.XqXZ.j X g r % r M d - K l l d d H 1X1XqXwXzX,X$X#X*X%Xc.&. .T ..} (.*X,X*X*X1X*X*X*X*X*X,X*X*X&X%X&X[.e.#X1X%X&XnXGXGXGXGXGXGXGXGXGXGXGXGX",
"GXGXGXGXGXGXGXGXGXGXGX4X<X<X<X'.r.=X*X*X1X&X1X1X&X&X%XOX@.N I 0 | #.#.| $.;X0X1X0X0X,X*X0X2X1X2X0X0X,Xh ' = 2 k.y r ,.,.( 2   3 1 t.dXhXfXfXhXfXdXsXdXwXqXqX1X1X1X0X0X0X^.a z l l = l l l = u l y = = z z + i l t @ d + u d d ] .XdXlXjXjXjXjXjXfXdXdXdXiXdXiXyXqXwXeX0X0X0X9X3X0XyX9XfXcXnX9XA.d l t f z z s z i 3 r z d u 3 l t = u % r C - d u u c.0X0X0X0X%X0X*X1X,X*X$X%X#X%X<XOX#XwX_ = y - d - 3 1 ; @ d d l d t ^.1X1X1XfX0XOX#X*X#XOX} Y } F.=X*X*X1X,X*X1X&X,X,X1X*X*X1X*X&X*X%X#XF.f.1X&X<XqXGXGXGXGXGXGXGXGXGXGXGXGX",
"GXGXGXGXGXGXGXGXGXGXGX<X<X&X&Xh.].*X*X1X&X1X&X&X1X1X%X%X%X^.@.A | | =.=.|  .>.%X,X,X1X1X0X0X2X0X0X;X| k c + i % u ,.c ( ( l r i 9.5XhXdXfXdXdXiXiXqXqX3X1X3X1X1X*X8X3XV.v % z = 2 z 2 [ - z d l t p l z 2 F % l * r t - _ /.sXlXkXjXjXjXjXjXjXjXfXdXdXdXsXsXtXwXyXqX3X0X0X0X3XeX9XyXfXfXhXjXjXkXjX8XA.i ) d & F d r d d d r 3 t $ r - * @ = d d u u y [ ,XqX0X0X*X0X1X1X*X,X#X%X,X1X1X3X<X4X2 2 u = - r l d 1 l d d d d m &X<X3X0XpX*X,X1X%X$XF.x.OX$X0X<X1X*X*X,X*X1X*X*X*X*X*X&X*X<X&X&X%X'.2.[.<X&X<XNXGXGXGXGXGXGXGXGXGXGXGX",
"GXGXGXGXGXGXGXGXGXGX6X%X*X<X[.r.#X*X*X<X*X1X*X<X1X*X1X*X%X<X&X^.[ q 0  .| E N.&X&X#X%X,X2X*X0X1X1X/.1 x r y z r ( ( c c l ,.' ' 3XfXfXfXfXdXdXdX0X0X0X0X1X3X1X1X0X&Xl.t + ( t % z u A + z d d d z z d = r d z d + d g.9XhXfXhXhXjXjXjXzXhXzXzXhXdXdXsXyXyXyXyXqXqXtX0X0X0X0X0X0XtXsXdXdXfXdXdXiXyXfXlXvX5X] H @ l d d d d = r u . d . t . l d l n l d @ B 1X8X3X0X0X1X<X1X1X,XqX0X0X2X0X0X0X.Xy * - A d d d - d d d d d t d.$X%X%XdXsX0X3X1X1X1X*X*X,X1X1X1X<X1X,X*X*X,X*X*X*X*X1X&X1X&X&X=X#XM.h.*X%X%XdXGXGXGXGXGXGXGXGXGXGXGX",
"GXGXGXGXGXGXGXGXGXGX%X<X*X<XS.].&X<X*X<X1X<X*X1X<X*X&X<X1X%X<X*X#XG.D Y | [ [.<X<X%X#X%X#X1X0X0X1Xj ,.a u S z ,.( ( l - 3 c c >.aXfXfXfXfXfXiXsXqX1X=X1X1X0XrX*X=X} d * 2 l - - d d t u d d d d l d % t z d d t g.,XhXfXfXdXfXhXhXfXfXdXiXfXiXdXsXwXyXyXyXwXtXtXqX0X0X0X0X0X0X0XyXyXdXsXwXqXwXyXyXyXwXwXdXxX(.m d d d d d . u * - t + 2 % d u % k l d d f F *X3X1X3X<X0X0X0X0X0X1X1X1X%XXX0XpX| d p ; 1 9.d - d d u d d t t ].*X%X%XkX3X3X3X3X3X*X1X1X,X1X&X1X1X*X1X*X*X*X,X*X*X&X&X1X&X&X%X%X`.` &X1X<X4XZXGXGXGXGXGXGXGXGXGXGX",
"GXGXGXGXGXGXGXGXGXiX%X<X<X*Xg.&X*X*X<X1X1X*X*X1X<X1X<X1X&X<X1X<X,X%XOXF.} m.&X&X1X3X,XOX#X,X0X1XV.z ,.a ,.u Z z 2.n - c g ,.} 0XwXwXdXdXdXiXwXyXwX0X0X=X1X1X9X0X*.= z + d d $ d d d d l n m d u - - d z d d d.2XfXfXfXfXdXdXdXdXdXiXyXyXyXyXyXwXiXyXwXyXqXqX0XqXrX0X0X0X0X0X0X0XyXyXdXyXwXdXdXyXsXiXdXdXdXdXhXkX@Xl d d 2 + d . u = 2 $ t d t a 7 f.v.v * r n *X1X1X1X0X0X0X0X0X0X,X1X,X0X0X0XpXC 1 r - % r d d d - H d d u f 1X1X1XyXjX3X1X4X1X*X1X1X1X1X1X<X1X1X*X*X1X1X*X*X1X<X&X*X%X%X%X&X#Xz.J.*X%X%XnXGXGXGXGXGXGXGXGXGXGX",
"GXGXGXGXGXGXGXGXGX<X%X*X1X`.v.&X*X*X*X*X1X&X<X<X&X1X5X4XwX3X<X<X1X*X*X,X<X%X*X&XOX#X%X(.,X1X1X1X3 ( ( = o.2 4 2 % l l ` l 2.7X0XqXqXwXyXsXyXqXqXqXqX0X1X0X*X8XB.# d r % l u - l d d z d 2 f.j.* u l j.d m ,XfXdXsXdXsXsXdXsXsXyXwXwXyXyXwXyXtXyXtXwXeXqX0X0XtXqX0X0X0X0X0X0X0XyXyXyXwXsXdXdXyXdXyXwXsXwXsXdXdXfXhXlXA.d   t 2 * d + u + d d d d l t 1 - d u = L 3X0X3X0XqXqX3X4X0X0X0X0X0X7X0X0X5Xd d s i d v d d p   d m m d V.1X<X1XsXwX3X3X1X,X1X*X,X<X1X1X,X1X*X*X,X*X*X*X*X&X1X1X%X*X*X%X#X`.g.*X1X*X5XGXGXGXGXGXGXGXGXGXGX",
"GXGXGXGXGXGXGXGXGX%X%X<X<Xg.].*X<X*X<X1X*X*X<X%X!.-.=.E Y T.wX<X1X1X%X#X*X%X*X#XOXOXOX(.%X*X1X:.u ( c B . * 2 y V l = r ' C.0XqXqXqXqXiXsXyXqXqXqX3X0X1X3X3X_.t @ z $ r t % l d l l r * z d t z l = r z.wXfXdXdXsXsXsXsXyXyXyXwXyXyXtXtXqXqXqXqXqXqX0X0X0X0X0XtX0X0X0X0X0X0XqXtXwXyXyXyXwXyXdXwXtXyXyXyXwXyXyXsXfXfXkX5X% d % u t % 2 2 d d H z d u d l u = - t n.eX3XqXqX5X3X3X0X0X0X0X7X0XqXqXfXg.d d - * C d d - r u + - d v 0X1X%X*XiX<X1X1X1X,X1X1X1X1X*X,X*X,X*X*X*X*X*X*X1X*X*X*X1X&X&X&X#Xe.$X1X%X%XMXGXGXGXGXGXGXGXGXGX",
"GXGXGXGXGXGXGXGX6X%X%X1X=Xw.&X1X&X8X*X*X*X*X@X X+X! I Q I Y C.*X1X0X1X0X1X1X1X+X#X+X#XXX,X*X#Xy ( ( ( z g . ,.$ r ,.a z } 0X0XqXqXqX0XqXwXwXyXyXqX0X0XqX9X/.t - r d   l y C r l l - s ) l d d d u { %XdXdXdXdXdXsXsXyXyXyXyXyXtXwXwXqXqX0X0XeX0X0X0X0X0X0XeX0X0X0X0X0X0X0X0X0XtXtXtXwXqX0X0XwX0XqXeXqXqX0XqXeXtX9X5XtXyXfXE.@ d $ = = u d 2 3 w.d d u r = d u - - l.1X3X3X1X3X3X,X0X0X0X,X0X0XqX3XfXm d - F % d d d - t a 1 d t N.0X%X%XdXqX0X<X*X1X1X*X,X*X1X1X1X*X*X*X,X*X*X,X&X<X1X&X&X<X&X&X#XS.B.<X*X%XwXGXGXGXGXGXGXGXGXGX",
"GXGXGXGXGXGXGXGX<X<X<X&Xz.J.*X<X*X*X<X1X<X&X! I 9 9 I ! -.! S.4XoXdX0X,X,X1X4X0X,X.X(.%X%X%X*.c ( ( c ( 2 2 z . ( ( c l |.0X0X0X0XqX0X0X0XwXyXyXtX0X0XqX1X1 % t l = r l i.c c r * r & j d d l t } wXdXdXdXiXyXyX9XyX9XyX5XtX5XtXqX0X0X0X0X0X0X0X0X0X0X0X0X*X3X3X0X0X0X1XeX0X0XtX0X0X0X*X0X0X0X1X1X1X3XtXtX0X0X0X5X0X3X0X9XsX,Xd   t 8 r d r i f l.j.= 2 l y = t u % B.3X1X1X3X3X0X0X0X%X1X0X0X0X5X<X3Xm d u d t t.d - u - d d t y 1X<X*X0XdX0X<X,X1X*X1X1X*X1X*X,X1X,X*X1X*X1X&X<X<X&X&X&X&X&X&X$X'.9.*X*XOXOXGXGXGXGXGXGXGXGXGX",
"GXGXGXGXGXGXGXGX%X%X1X&Xt.$X*X*X*X*X<X*X*X(.%.~ I E A ~ I , ~ ! #.R.*X1X*X*XqXqX1X#X,X*X%X*Xk ' ( ( ( ,.+ z y r ( c 2 N 0X0X7X0X0X0X0X0X0X0XwXwXqXqXqX0XC % z d = d l - m M.j - c r F r d d t N.wXwXwXdXuXyXwXyXsXyXyX5XtXqXqXqX0X0X0X0X0X0X0X0X0XrX1X1X8X1X1X3X0X*X0X0X0X0XeX0X0X0X0X=X0XrX1X1X1X*X0X0X0X0X8X1X8X3X3X3X3X3XyX9X8 l d l w.l z d d 1 u u r = l u % r l &X1X3X1X*X%X%X%X0X0X0X0X0X3X1XyXL u r F % + r - z r d d u + Z.0X1X0XaXqX1X*X*X1X,X1X*X*X,X*X*X*X*X*X*X<X*X&X&X&X1X&X<X&X&X$XOXr.].$X'.'.kXGXGXGXGXGXGXGXGX",
"GXGXGXGXGXGXGX6X+X*X*X#Xg.&X*X*X*X*X<X<X*XV.I.0 E K ! ! ~ 3 I ;.| =.[.1X0XqXqXqX,X#X1X5X&XE.l c c ( ( z $ ,.% c ' 4 y OX0X0X0X0X0X0X0X0X0X0X0X0XqXtX0Xm.O z r * l l % l n z d l 2 2 r z y r N.yXwX0XqXwXwXwXyXwXqXwX0X0XqXrX0X0X0X0X0X0X1X0X0X1X8X1X1X1X3X1X1X1X1X8X3X3X0XeXeX9X0X0X1X1X1X0X1X*X1X1X1X1X8X3X8X3X3X1X1X1X1X1X3X3XdXH d = L z.j.v _ z u 2 2 l u = d d @ L 1X9X3X*X,X*X,X1X3XqXqX0X3X3X1X@Xt - & : B t - d d 2 d t A B 9X3X3XwXdX1X<X<X1X<X1X*X*X*X*X*X0X*XqX;X!.T.7XwX0X&X&X&X&X&X*X$XD.z.&X'.'.6XGXGXGXGXGXGXGXGX",
"GXGXGXGXGXGXGX%X%X*X<XB.].&X*X*X1X*X1X*XOX&.%.Y A A.9 I ! M.Q. X:.&.'.&X1X<X1X1XOX+X5XqX3Xa ( ,.c ,.' 2 u c % ,.4 ' J.0X0X0X0X0X0X0X0X,X0X,X0XqX9XwXOX1 C z   ( 2 2 l r f d.{ = u l u - t E.tX5X0X0XqXqXwXwXyXqXqX0X0X0X0X0X1X0X0X0X0X*X1XrX1X1X1X$X}.Z.M.z.f.d.j.z.f.+.z.x.z.f.k.+.o.X.f.j.j.j.r.g.X.d.d.j.h.j.r.^ } w.K J e.e.w.^ - d d d i 7 . B 2 t u = - l d t 3 < @.0X3X3X0X0X0X0XqXqXqXqX3X4X1XwX^ : - d - t t M m r u d - 1 '.0X3XqXhX1X<X<X1X<X,X1X*X*X*X*X2XI.P 5 U T Y Q Y.qX&X<X&X%X%X$X{.2.#X#X'.(.GXGXGXGXGXGXGXGX",
"GXGXGXGXGXGXGXOX$X<X*Xz.=X*X*X*X*X<X*X%XOX~ T -.W.@.-. X^ ^.XXU.|  .%X0X*X,X%X(./.OX#X1X:.} ,.c ( ( l = ' 2 2 ,.' h 1X0X0X2X0X0X0X0X0X0X0X,X0X0XqX3Xf 1 c w.e.) + l - t ( l u z l r - z (.tXwX3X0X0X0X0X0XwXqXqX0X0X0X0X0X1X0X1X1X0X-X0X&X[.k.} 1 d 1 @ d - - t z t * 1 d e.z r g M % % t d d l d 1 - r m v._ d - - d r * z d u : - l d d l d 1 - p u t * d u u r.d t t 1 ^.1X3X0X0X1X0XqXqXqXqX4X1X1X1XyX1 d d = d = i % - v.d t u L 0X0XqXtXyX,X*X*X,X1X*X*X,X+XY.5 o 5 P T U Y Q T #.wX%X&X&X#X#X'.g.`.[.`.^.zXGXGXGXGXGXGXGX",
"GXGXGXGXGXGX,X&X*X1X*Xj.&X*X*X1X&X*X1X<XOXO.#.#.I.W.+X.X^ -.U.~ P D #X*X*X%XOX/.^.(.#X*XF + c ,.c g = l l * z ` } $.3X0X0X0X0X0X2X0X0X0X0X0X0X1X3X@.t.( z z z w.2 % l c l d l l 2 r l ^.yX5XqX0X0X0X1X0X0X0X0XqX0X0X0X0X1X0X1X3X*X1X=Xl.x * y u * - * d l l z i j.= d d - % r z y t r i l d r A d d z l d r ^ p r d - 1 l d u * r d z d d l l z d r 2 * d l l % ; 9.z d d v 1X3X0X0X0X4XqXqXqX0X<X<X%X%X3Xn.t t r t t - t @ @ t d u 1 OX0X1X1XsX0X1X1X*X,X*X*X%X).6 5 5 P | T I Y | Y Y / 4X&X[.#X$X].H.z.=X(.G.5XGXGXGXGXGXGXGX",
"GXGXGXGXGXGX#X%X&X1X_.J.*X*X*X1X1X*X<X*X%XO.U.+X,X,X2X,XR.;.I.XX Xo.#X#X*X%XOX(.+X#X+XC.+ u ,.c 2 y c y 2 z y y ' ,X0X2X,X0X,X0X0X1X0X0X1X0X1X0X^.: p b.2.z z c g 2 l n l l y 2 u z ^.wXyX5XwX3X0X0X1X1X0X0X0X0X0X0X1X1X3X1X*X&XB.H t % u % d - % - d - V d t M . d d t i i d d i l d - c d r 3 f.j.9.d d l d d t = u l F a - d d d l d l d d l u - r l l d l a 1 J f.z.] u f.3X0X0X0X0XqXqX3X%X&X%X#XOX(.1Xv d d - d d d s * t t d d J 3X<X,XsX0X*X1X*X*X*X*X`.| o o 5 Y w 8 D D 0 Y Y I T %X[.#X#X'.`.r.&X[.E.^.GXGXGXGXGXGXGX",
"GXGXGXGXGXGXOX%X&X1Xr.$X*X*X*X*X&X1X*X*X%X/..X4X,XXX.X.X,X,X,X,X[ (.'.'.#X%X(.(.0X*X*XP - ,.( y 2 c $ l z 2 y c c.3X3X3X0X0X0X1X0X0X1X1X0X*X1X%Xm s 1 f g.H.9.y = z u = z d r z l E.sXsXdXsX9X3X1X0X1X0X0X1X0X0X0X3X0X0X1X&Xz.l t d * r r - t + * u d y 3 t d r u d 2 - z d u d - n d 1 m d d u d 1 F D.z.z u 2 1 l d 2 ; * z d l l l z l l d 2 = d n l d d d d l d t - W H.m '.0X0X0X0XqXqX,X*X%X#X%X+XOX%Xm.u d i l t t t d d t r L 1 OX1X1X3XiX1X*X,X*X,X#X>.o 5 5 0  .>.'.'.G.n 8 5 o 5 ^.[.'.OX`.`.e.&X$X_./.nXGXGXGXGXGXGX",
"GXGXGXGXGXGX%X%X<X&Xq.&X*X<X&X1X&X<X*X*X&X#XB.XX.X.XXX%XXX+X2X>.'.#X'.OXOXXX/.XX0X*X0XX z ' ,.$ c 2 2 c + d z k %X3X3X3X0X1X0X0X1X0X1X0X0X*X0Xc.c ( ( z z d F 2 l r = z z u i l d.wXyXyXsXyX0X0X0X1X*X0X=X1XrX0X1X0X*X*X`.m d d d d + d * r r % * d u % r l d l g = u l u d d l - 2.d d u d d d d d d t a f.* t z y r.d 3 d d d l 2 { l d u - - l - C t d d 2 H d d d d d : - v *X0X4X0X0X3X&X&X%X%X%X#X%X#X%Xu d t f.v.m t d t d 2 ; * n.1X<X1XdX1X=X*X*X*XOXW U 5 P  .OX#X#X%X#XG.k 6 U P ;.[.'.{.'.`.z.`.1X%X#XjXGXGXGXGXGXGX",
"GXGXGXGXGXXX%X%X<X`.v.*X1X&X*X*X1X*X<X%X&X&X[.m.[ #.:.XX,X/.f.N.'.#XOX#X0X%X(.#X0X1XU.  ,.' c $ <.. c r r g - >.3X2X3X1X3X1X1X0X0X1X0X1X0X0X%X] g.v.q.c z z l l 2 g z y { - l g.wXwXyXdXdXsXwXtX0X0X0X*X0X*X1X*X0X1X'.} l u d d y - d r * d + - - d u + u d d 2 - l l d d u u u r 3 v l C n d d d d d d d d l l u 8 + r ] l d l u a + r N 2 t l l p % u l r h C j.t.d d d d = y N.1X*X1X*X0X0X1X%X#XOX#X%X,X3XN.w.d s 1 K g.g.v - 1 - r i 1X<X1XqXwX<X&X,X#XG.A Y | T R.%X%X%X%X%X^.+.9 5 5 Y `.#X'.'.#XOXf.1X#XOX3XGXGXGXGXGXGX",
"GXGXGXGXGX#X&X%X1Xz.].*X*X1X*X*X<X<X&X&X&X%X%X[._.x.h.g.u.l.^.#X#X#X%X1X%X(.OX%X0X,Xp r ,.,.2 g g = ,.% = 2 2.%X1X4X1X0X,X0X1X1X,X0X1X1X1X1Xd.c z d K S.v.c s * z z z V . c ) iXyX9XtXyXdXsXsXwXyXyXqX0X1X3X1X1X1XF.l d d d l - 2 l 2 2 l 2 = + u u - % t u = u l d d u d d d d 1 F r d % 3 l d d u B.n d d d l = r 2 a   l d y % 1 d y 3 r l l d % z l d z r d 1 F M.z.z d * z v 8X8X3X0X*X1X*X*X%X#X*X1X<X4X>X1 g.z.) t t 1 i t d d - i '.1X<X1XdX<X%X%X%XZ.W | Y | (.%X%X%X%XOX`.OXw o 5 5 ^.OX'.%X*X=XH &X%X&X%XGXGXGXGXGXGX",
"GXGXGXGXGX.X%X&X1Xr.&X*X*X*X1X*X&X%X(.&X%X#X%X#X'.'.'.'.#X/.'.%X#X%X%X,X.X^.XX0X0X(.2 ' ,.,.% <.2 c ' % . <.k.,X1X3X4X1X0X0X0X0X0X1X1X0X3X%Xc ( ( ( ( l f L t z u A 2.d u z (.dXsXfXdXiXdXdXdXyXyXyX0X0XrX3X1X=X} l d d l u = u l = 2 l 2 r y % d u . r d @ d l u u u d l l d u d r d d C * l d 2 = t d.D.g.u % u l = r r u r * z l d d u n l d d * d n l d d z d d t a f.9.t y t Z.3X9X0X1X0X1X1X,X,X0X1X3X1XwXK t 1 ^ z._ t t d d t t s X.1X<X&XyX4X*X%X#XG.Z  .T Y #X%X%X*X%XOX#X*X8 5 5 6 `.#XOX%X#X=Xd.`.3X&XOXfXGXGXGXGXGX",
"GXGXGXGXwXOX%X&X#Xj.&X*X*X*X*X*X&X#XY I.1X&X%X&X'.(.%X<X<X%XOX1X5X%X.X(.^.N.^.OX%X .' ,.' l 2 ' % 1.2 % y ,.^.1X,X0X0X1X0X1X0X1X1X1X1X0X1Xm.,.' ( c ( z c c z z r 4 - p ( f.fXfXsXfXdXyXsXdXyXyXwXqXtX0X1X3X=XB u d d u 2 2 l y = l g - u u = u u t . u t % d u d u d t p g.g.w.d ] d d d r e.- t z d d t f - l r - u l t - r z d d d l - 3 a d r - * B u d d d d d l l d r d i d a 1X3X1X0X0X0X*X*X0X<X1X3X1X<X8Xw.d s 1 m d.g.f u t d t s *X<X1X1X3X*X%X%X'.C | | Y .X%X%X*X0X0X%X'.Z P o U #X%X%X#X=X&X'.u.0X%X^.6XGXGXGXGXGX",
"GXGXGXGX.X#X&X1X_.`.&X*X*X*X*X*X&XE.> , T 5X&X=X%X&X%X1X&X#X(.(.<X1X#X(.C.C./.OX#Xk ' ,.g = z g 2 ' . $ ,.' <X1X0X,X*X0X1X1X1X0X0X0X1X1X&Xn c z u J H.3.c z l r - r r C H dXfXsXyXsXdXsXyXyXyXwXqXrX0X0X3X'.f l d d d + u g = r l - - l y - l t d 2 - u % r d u d u - - d d t F X.: t d u 3 . d _ z.d d d d l * r u d 2 - d y 0.l d l t 2 8 t d @ u M $ d d l d d m ) d d r l = w.d Z.1X1X1X*X*X+X*X,X%X3X3X<X,X9X1 f.v._ d t 1 d t u H y @ C.<X*X<XwX%X%X%X'.J Y T P $.(.C.$.I U.OX[ P 5 U P =X#X'.%X*X&X#Xn 0X#X(.3XGXGXGXGXGX",
"GXGXGXGX'.%X&X1Xv.$X*X*X<X*X*X%X&X&.0 0 Q Q.wX<X#X%XOX%X3X#X#X%X,X&XOX+X(.(.(.%X^.l z y - c u = z y = % <.h.,X1X%X0X*X0X0X,X1X1X1X1X1X1XG.' z g * z d g.H.e.= r z 2 = t %XdXfXwXdXdXdXwX0XwXtXtXqX0XwX0XOXu d d d d t @ l % d t = u l 2 1 d d u 2 = u u + u u u l = t l d l l d y 4 r u d a - - - f z.S.m r % u d u - r l l 8 + d d t = d d d t @ d + u d d d l t @ - l l r u ; $ l [ 1X3X*X3X&X%X*X1X,X1X%X%X%X8Xf.t 1 K z.d d - d * @ : d J 1X%X<XqX*X%X%XOXM.Z  .T T I Y P P P J.F.[  .P %.=X[.'.#X[.1X#X} *X1X$X#XGXGXGXGXGX",
"GXGXGXGX(.%X&X&Xv.*X*X*X*X*X*X%X#X@.;.:.U.).XX2X6X#XOX#X&X<X,XOX*X0X1X(.^.*X%X%X*.g 2 u z 2 y z y 2 2 y 1.(.1X*X*X*X0X*X0X*X0X1X1X0X0X1Xk 4 p r ( c c z d t l u = g l h.wXiXdXdXdXsXdXwXqXqXyX0XtXtXqX%Xj d d d d l r r u * d % = V 2 t u u u d t 3 t = u n l 2 - u d u r K g.g.v t v d a ] = r r w.d f K r d d r - u l t = u y z 2 2 l n d d * r r * l d l l u = F r d d 2 l y 2 n u OX1X3X1X*X*X0X1X#XOX'.'.OX3X(.d d t * l d 3 _ r 3 t t - $X<X%X3X1X%XOX#X'.} Y Y I 0 U U 0 P >.#X`.>.V ^.'.(.'.%X*X0X1X>.'.1XOX(.kXGXGXGXGX",
"GXGXGX5XOX%X<X1Xz.*X*X<X*X*X=X<X&X#X>.:. XQ.#.Y #.2X<X<X3X<X1X,XOX1X,X(.(.0X0X0X8 = c g = z g * l z $ ' 0.%X,X1X0X,X0X0X,X*X0X1X1X1X1XN.2 h 2 l x.v.( z z l 2 - z z g #XwXwXiXiXdXdXyXsXyXtXtXtXtX0X&Xg d d d d u j.d u t b t % a 3 t u u d v v u d t M . 3 8 t d u u - 1 d u u f.F B d * + d t p   2 { l d d - r l d - - d u = 7 t z = C d u @ d * t u d l r * l t C d l r ] l @ = u F 0X*X1X1X0X4X*X#XOXOX$X1X4X8Xd d u t r d $ @ d d d t r R.*X%X<X3X%X%X#XOXF.D P P P  .T Y 6  .[.[.'.'.'.'.'.#X0X*X=X=X`.F.3XOX/.fXGXGXGXGX",
"GXGXGX.XOX%X1X&Xv.<X*X<X*X*X#X*X*X*X&XC.:. XW.&.Q #.7XsX3X4X3X3X3X%X,X/.XX0X0X%Xt c y 2 z g = z g = c 1.N.*X1X*X*X*X*X,X*X0X1X0X0X1X1X' z 2 y = d v z.H.n = u l l i W qX0XwXiXwXwXwXyXyXyXqXwXqXqX0XH u d d d d = $ t u d a 2 G u t d d l t C D.H.m u r 2 V r u d a % t d d z d d V * f s r t t & r B . z r % u l j.- r l d r { * d d G + d 1 - d % d z H - = d d 2 7 r d r & a a + + @ {.0X3X1X0X1X#XOX'.OX%X@X&X4X_ d d d 7 H i = u u t u t *.<X%X*XqX%X#X%XOX'.o.k P Y q Z ..C.^.#X#X}.'.(.[.`.%X0X1X0X*X=X>.8XOX^.5XGXGXGXGX",
"GXGXGX(.OX*X1XJ.].*X*X*X*X&X$X&X1X*X1X1X.X*.Q -.R.;.U.,XwX1X,X1X1X1X+X^.%X3X3XE.l % g z 2 r z r y 1.1.c OX,X,X1X0X*X*X*X1X1X1X0X3X1X'.u G a y y L z c z a l l l 2 g ,XqX0X0X0X0X0XrX0X0XeX0X8X3X0X^ d d d u d 2 a i z u d y d r ] l d d 2 r d t s f.z.z d r l g r - d d d r d.g.m t t d d d t 1 * l % u d * z d 3 + d d d d d t l r - r d d * t r - u * 3 t l u - - r d d t M * @ d 3 * l.1X1X&XOXOX'.'.'.OX#X#X&XOX^.t 3 * a * d d d t t t t M &X*X%X3X%XOX#X%X#XOXN.} >.G.`._.'.OX#X$X(.(.'.(.'.1X1X0X3X3X<Xh.0X&XOX1XGXGXGXGX",
"GXGXGX(.#X$X1Xv.@X*X*X*X*X*X#X$X%X=X&X*X&X#X*.I E O.=.%.:.#X%X1X*X(./.C.#X<X1X^ y y ,.$ y k.2 z 1.4.1.V %X*X*X1X%X%X0X0X1X0X*X0X3X1Xm.r e u c p 4 - 8 l z l r = x >.qXwX0X0X0X0X0X1X0X0X*X*X3X3XE.% d d d u = u l % C z d p g.r % - H m 1 l u d t d - ) z } {.L.n.M.n.m.D.N.n.n.-X8X].].m.A.A.n.V.n.n.A.n.n.A.C.A.A.A.A.A.A.A.C.C.D.Z.A.A.A.V.A.V.V.A.#XA.V.u = d l d d d d d - - u % d d 1X3X&X$XOX#XOX#X%X#X'.#X(.OXu 7 r - t u u d t d t - @ 1X<XOX*X1X%X#X%X#X#X#X#XOX#XOXOXOX'.#X#XOX'.[.'.1X0X0X1X0X&X'.g.0X3X%XOXnXGXGXGX",
"GXGXGX(.%X%X1Xb.&X-X1X*X1X1X$X{.'.E.>.*.! I ~ 5 P I , , Z `.(.#X,X#XC.^.+X&X1Xv * c x = e   c 1.,.<.<.+.%X%X,X,X*X,X0X*X1X0X0X*X1X3X9.l 2 ( c = - - B u l = t z [ %X0X,X1X0X0X0X0X0X1X0X1X1X3X$X@ - u i.h = l l u [ = d d % 3 * 3 - % - t X.j d l M.oXsXjXfXgXfXhXhXhXhXhXfXhXhXfXjXjXfXjXfXfXhXkXkXjXfXfXhXhXfXsXfXhXjXhXjXhXhXjXzXjXjXkXhXkXjXjXjXjXjXjXkX=.l d d d d d d d . u = 1 d u (.*X%X#X#X%X%X'.'.OX^.'.'.&XH t d d d d t d d d t + - ^.*XOXOX1X'.OX%X%X#X#X#X#XOXOXOXOX,X*XOX[.%X%X*X1X0X3X0X1X#X#XM.1X3X%X(.hXGXGXGX",
"GXGXGX(.#X<X*Xj.&X&X&X&X*X&X*X'.Q E 9 0 | #.P > > , , 9 S '.OX(.OX,XG.).#X<X#Xr = ,.% l v y 1.,.,.l l Z.,X*X&X1X*X0X*X1X*X1X*X0X3X#Xn ,.( ( z $ c = - c = 2 z 2 ..0X0X0X1X0X3X0X0X0X0X0X0XrX*XF X u - ; 2 d l y 2 t y u d a % = r - 7 u 3 u f.OXyXsXyXyXyXsXyXdXdXyXsXfXdXfXfXdXfXfXfXfXgXfXfXfXfXdXyXyXsXfXdXyXyXdXgXfXfXfXfXxXhXfXfXfXfXfXfXxXhXfXfXfXyXwXwXl d d d d d d r % u + l u r @.1X*X$X*X%X#X%X#X#X(.'.(.'.c.d d v t t d t t d r @ r ^ $X'.(.$X(.OX#X#X#XOXOX(.`.`.*X0X4X0X%X#X%X*X*X1X1X1X1X1X&X1X^.`.3X#X^.yXGXGXGX",
"GXGX>X'.OX*X$Xj.=X&X=X&X*X&X#X^.0 , , ~ I ! 5 > > > > E +.*X1X%X(.(.C.^.OX<X:.= z g * <.,.<.,.c y = = (.%X%X*X,X*X0X*X*X0X*X0X*X1X+.s c ( c u * z   l l . l l d ^.0X0X0X1X0X0X0X1X0X1X0X3X1XZ.@ * d t ; d l - r d d u u u d u + u % t d K 8XyXyX9XsXsXsXwXwXfXdXyXyXsXsXdXdXsXgXgXdXdXdXdXfXhXhXhXfXyXsXdXyXyXqXwXyXdXsXfXdXdXgXdXfXdXgXdXfXdXdXsXyXyXyX0X0X0X+.d d d d d d + t r * l + i m 1X1X0X*X%X'.'.(.^.(.^.(.#XG.t * B d d t u u t + r r 4 <X$X'.#X(.(.[.(.(./.`.`.OXXX$.I 0 P I.wX1X*X0X1X0X3X%X&X&X1X'.m.1X'.E.+XGXGXGX",
"GXGXR.'.'.$X_.S.#X&X&X&X*X*X#X*.| -.;.*.! 5 9 M a D { f.OX#X.X#X/.^.^.(.%X1X..c y 2 ,.,.,.,.c 2 2 c 2 #X%X,X*X*X*X,X*X0X*X0X*X0X1Xw.3 ( ,.c % u y + l r $ l u l %X0X0X0X0X1X0X0X1X*X1X0XtX8XH   t f d l u * u l d d d d u d - * u + u A.fXyXyXtXyXyXyXfXdXdXdXdXsXgXdXuXdXdXsXyXdXyXyXsXsXsXdXdXfXdXyXsXdXqXqXqXqXgXsXsXsXsXsXsXsXsXsXsXsXdXiXwX9X3X1X1X0X*X*X/.d d u d d u + d % t d C 3 r #X<X%X%X=X%X%X(.[.[.(.'.^.(.d F 7 v.] d u t * 1 t % * &X$X(.'.#X(.'.'.`.`.`.[.Y.T I P 5 I Y 5 oX0X0X1X1X*XOX1X1X1X#Xe.%X'.^.'.GXGXGX",
"GXGXC.^.'.1Xx.`.=X*X&X=X*X*X#X..%.@...J ..d.N.G.'.#X#XOX*X,X(.(.G.>.>.(.%X1Xw p g ,.,.,.c g 2 l ' c } %X%X%X,X*X,X*X*X0X0X*X0X*X$Xd l ( ( l   z $ y l = u l d d.*X0X*X0X0X1X0X-X0X*X-X0X1XZ.r + u d l 2 r z d d u d u u d u @ t t f @XyX9XdXdXyXyXdXgXdXgXdXyXyXdXdXyXyXyXyXyXyX9XyXyXyXyXyXyXyXtX9XtXtXqXqXyXqXyXsXyXsXyXyXyXyXyXyXyXyXyXwXwX0X3X&X&X&X%X=X%X0Xu d d d u * r u % d l * 7 - Z.1X%X0X0X%X#X%X%X%X#X/.^.^.w.1 t 1 B X.a = r r = r - /.&X#X^.%X(.^./.(.OX`.=.Y Y P P P U 0 U U 7X0X0X0X*X#X1X3X1X&Xw.3X#X(.OXGXGXGX",
"GXGXC.^.].&Xi.[.$X*X&X&X*X1XOXo.N.^.^.'.#X'.%XOX1X1X4X%X(.1X*XOXG.>.>./.&X&X  x ,.,.c 0.2 2 z g $ g N.%X%X*X*X*X*X%X0X%X=X0X*X0XV.a ( ( c 2 = l . l = 3 l d l (.0X*X0X1X0X0X0X1X0X0X*X=X*Xv * r d r % d d u d d d t d u u t % u F 1XwX9XyXdXsXdXsXsXsXsXyXdXyXyXdXdXdXyXtXtXqXtX9XyX9XyXtXtXtXtXqX3XyXtX0X0XtXyXsXyXwXyXqXtXqXtXqXqXqXqXqX0X3X<X&X[.#X*X#X%X%X0Xw.d u t @ d u * y u { u t t K *X,X*X*X*X,X*X%X#X(.^.Z.^.A.v d d t t r d - - t - % :.1X'.^.'.G.^.`.'.'.>.0 5 Y Y Y w 0 5 U P $.0X%X*X*X+X1X3X1X&Xw.1X%X'.(.GXGXGX",
"GXGX^.(.OX%Xr.#X=X&X&X*X*X3X%X'.OX#X/.'.%X'.'.#X%X1X3X3X,X1X*X(.G.+.>.^.#X(.g ' ,.( = = 2 b.y r z - ^.&X&X%X%X<X1X1X&X*X*X=X1X1XA - ( c l % l 2 - z v & l l b <X1X3X4X0X0X0X*X0X1X1X*X*X'.u + d d % y l u d l 2.z t d d d = r l 6XsXyXtX0XyXyXwXyXyXtXtXqXyXtXwXyXtXtX0XtXeX3X3X0X0XeX0X0X0X0X0X1X3X3XeXtXtXwXyXyXqXqXqXqX0X0X0X0X0X0X0X0X1X&X&X%X#X&X&X'.#X%X=XD.d - - u r = u t * r d t % a $X*X%X#X%X%X%XOX(.G.^.C.G.c.} x.' t u t = - t - * u W *X'.^./.C.^.^.#XG. .U o 5 0 o.o.` 8 5 U P =X%X*X%X#X1X*X1X%X} #X%X[.[.nXGXGX",
"GXGXZ.'.&X=Xr.=X&X=X&X*X&X&X1X1X#X#X'.^.`.^.OX<X%X4X<X1X<X<X1X,X/.>.C.(.#X:.2 } c 2.j 2 ; % u ,.,.; .X#X%X%X%X<X&X1X1X*X&X=X&X&Xu ( c t - g l = l n w.z l - +.<X1X1X1X1X1X0X0X0X3XeXeX0Xd.r % d u + d d u d % 3 d t d l 2 2 m ,XyXyXyXyXtXtXyXyXwXqX0X0X0X0X0X0X0X0X0XeX0X1X1XeXeX0X0X0X0X1X1XrX3X3X3X3XtXtXqXyXqXtXeX0X0X0X0X1X1X0X0X&X&X&X=X%X[.[.&X#X#X#X#X%X$Xd @ d - - t - 2 d H = - d 1 `.=X#X#X#X[.'.(.^.(.(.^.(.G.2 2  .d.a - t r = s d t i *X/.G._.C.G.(.'.G. .P 0 0 N.J.J.J.} 5 5 o >.%X$XOX#X0X*X%X'.k.J.#X%X(.fXGXGX",
"GXGXZ.#X1X*Xb.&X&X&X[.1XtX'.#X&X%X&X&XOX(.(.OX%X%X1X<X*X%X1X1X1XOXC.(.#X*X+.Z & - S z 9.a 2 ,.,.( F #X%X&X%X%X<X*X*X*X*X&X=X&X].z ( - r z y = z t = H z.* u (.<X1X1X3X3X1X0X1X0X3X3X0X3Xl + r u 2 % d d d d 8 - u d u = u l +XyXyXyXdXyXsXyXyXyXqX0X0X0X0X0X1X0X0X0X0X1X1X*X3X3X0X0X*X0X1X1X1X*X1X=X=X1X0X1XeX9X0X0X0X0X0X1X*X*X1X&X&X=X#X%X#X[.'.'.#X#X'.OX#X*X%Xt.- u . u % r g * @ u d u - n.*X#X#X#X[.(.^.'.(.G.).'.#Xu t t r r t - = d l y % @ $X`.^.'.^.^.#X#X(.8 U U P G.^.^.'.>.P U U | $X#X$X*X*X#X#X'.c.N.&X[.^.wXGXGX",
"GXGXN.OX*X#Xv.=X&X$XO.&.Y.wXG.-.E.#X1X3X1X%X#XOX%X4X1X3X%X*X4X1XOXG.XX#X%Xo.l g h ; r 3 d e.,.( ,.e.OX#X%X%X<X&X*X*X*X1X1X1X*XZ.c l % z * r z 2 - c 9.d z l %X1X1X1X1X1X1X1X*X0X0XeX3X'.t   d l = t d l c z   l d u % d u o.wXwXtXyXyXyXyXyXyXtX0XrX*X0X0X*X1X-X1X=X1X=X0XeX0XeX1X*X0X=X0X*X*X*X1X*X3X3X*X*X*X1X3X0X0X&X=X*X*X*X=X%X#X$X#X#X#X[.`.'.[.[.'.OX*X#X1XV.r r % u # r * - * d u = 1 K =X#X#X[.[.'.[.%X[.(.(.[.#X` u u u t % - d - & ; t : (.'.^.(.(.(.OX'.G.h 5 o U #X(.(.#X).5 U U | #XOX#X*X%X'.#X#X`.l.0X#X^.qXGXGX",
"GXQ C.^.*X`.S.=X=X>.#.! | =.>.5 > , %.I.!.T.;X;X;X:XiX1X*X%X*X*XOXC.%X%X1XK ( a z f r h = & u c ,.l..X#X%X%X%X<X&X*X1X*X=X8X8XN.' % g y $ z $ u l - m f.a C %X1X1X1X1X1X0X0X1X0XeX0X1X{ - - d = ; d d = B 2 = u t 1 - u * <XtXqXqXtXtXtXyXyXqX0XrX1X1X1X1X1X&X=X=X*X*X*X*X*X1X*X=X*X*X*X*X&X&X8X*X&X=X#X#X=X=X=X=X=X&X=X%X=X=X%X#X[.[.[.{.#X$X`.'.[.[.$XOX=X0X0X1X(.t @ r - * + d d d - - t d v *X%X#X%X=X%X*X*X#X/.OX#X%Xo.^ g.r * d u m - 7 - t 1 E.#X^.'.%X^.'.'.G.[ 5 0 P Y.;XXX|.| P P Y C.=XOX=X%X#X'.=X*X%Xe.1X#X'.1XGXGX",
"GXV.#X#X*X`.K.=X=XO.:.%.&.&.V 0 9 9 9 P 5 o o 9 0 5 /.#XOXOXOX#X^.^.%X%X1XG ( 2 3.y ( v d H = 2.c N.#X#X#X%X%X&X*X*X*X*X&X1X3Xl.c   z . g 2 * y = z l l d d.<X<X1X1X1X1X1X*XrX*X3X0X1Xl + u d p ; l y J % . u u d + u - @.0XqXqX0XqX0X0XtX0X0X0X1X1X1X*X*X&X=X&X=X=X=X=X=X=X&X=X=X=X=X=X=X&X*X1X=X$X#X'.{.&X&X&X=X%X=X#X$X[.[.[.[.[.[.$X#X#X[.[.[.[.*X*X$X0X*X0X3X3Xu @ d * % - d t * r d d d t *X*X*X%X(.[.#X(.^.^.#X#X#Xo.t - - d d + = d H u t t U.1X#X%X1X(.#X(.C.o.q 0 P P Y P P U P P Y =X=X*X*X*X#XOX=X1X$Xe.1X*X&X4XGXGX",
"GXE.%X<X8X`.$X1X*Xm.:.:.&. .8 o o > > > , > , , 5 6 o.#XOX#X#X(.C.G.%X%X1Xn ,.u n r 3.g ,.r n j c ^.#X#X#X%X%X&X*X*X&X$X&X=X1Xw.2 - z   c % = 2 ( l l l d V.<X1X1X1X1X0X1X0X0X1X3X8X].t + d d z l r - d r $ d u r % d @ %X1XeX0XeX0X0X0X0X0X1X1X1X*X&X&X=X&X$X{.[.{.[.{.].{.[.{.{.{.#X{.#X{.=X=X$X{.'.}.{.=X=X=X#X[.[.[.[.[.[.}.[.[.[.#X$X$X[.#X#X$X*X#X*X=X0X0X4X3Xm 1 u @ + t r * t d d d d t #X=X%X'.'.[.#XK.^.G.#X%XOXM.d t d u r h % + 2 t u u -.1X%X#X<X#X'.(.'.^.[ P P Y Y P o P P P =.*X0X%XOX%X#X(.#X*X'.w.0X1X&X4XGXGX",
"GXC.'.=X*XD.-X&X*X[.N.X.[ o.A w q 7 q Q Q Q 9 , 5 P [ (.(.#X[./.V.C.'.=X&Xr ( z v d n r 3.t d y z '.OXOXOX#X&X&X&X1X&X&X#X&X*XH + z 2 2 z .   l z l d u 2 m.*X&X*X1X1X1X0X0X0X0X3X9Xm.- - d m u = t l u = t d u % r r W *X1X1X0X0X0X0X0X0X*X0XrX1X*X*X_.d.n u d d r l u : : 1 v 9.l l u d d * t l r : * d l d d u d d l $ = 2 l y a v J K.$X=X=X&X$X*X$X0X0X0X*X1X<XL d - @ * d 1 d d d d d d u G.%X#X[.[.#X#X(.^.(.#X#XOXD.g.z u - - t - p @ u r * ! &X%XOX&XOXOX%X%X'.>.' 6 5 5 U U 5 5 | *X*X*X*X#X#X[.#X*X=X[.9.1X1X&X%XGXGX",
"GXC.`.&X0Xv.=X-X0X*X=X[.'.G.G.G.Z.B.z.d.X.] { G V Z [ '.(.#XOX/.>.C.`.#X%Xr ( ( a c j l b ( ( 2 m '.#X#X[.(.#X%X=X*X*X*X$X*X1Xc % c $ z 2 $ % l l l d   u C.'.#X=X*X0X*X=X1XrX0X1X1X` . d = M = l l 2 = l d u u + u * '.1X1X*X*X0X0X0X0X0X*X1X1X1X*Xc.g t d y l u y l u u d d t _ D.z.f r % d l l 3 $ l d u u d l u d d & r * u + u - - d #X*X*X=X&X=X*X1X1X3X1X1X1Xg.a % % u d d t l d d d F t.>.$X$X[.#X#X#X#X#X%XOXOX(.G.= @.* r u * - d u - % u  .*X#X#X*X[.'.(.'.(.^.N.} ' w 6 w  .R.*X0X*X1X%X#X&X&X%XOX=X#Xt.*X1X=XOXGXGX",
"GXm.^.%X0XH.1X1X*X=X*X[.`._.`._.E.Z.^.^.^.Z.G.Z.B.Z.(.&X#X(.OX^.N.^.#X&X'.l c ( v c a ( j c c 2 ` '.#XOX#X[.[.[.%X*X=X0X*X1X*X1 l l % c + + u l z l 2 = u ^.OX*X=X%X*X*X1X=X*X1X=X1Xj & d p ; l g 2 r l u d l 2 - l ; <X*X&X*X*X=X0X0X1X0X*X*XrX=Xo.t u u d a n d r ( u u d d d d d m d.- d d C H d r d u u t 3 b d m y 2 r t t + u + u t ^.1X*X&X&X1X3X0X0X3X3X1X%Xl.* u % d u t d d d t * 1 1 >.%X$X#X#X#X#X#XOX#X#X#X[.(.u t u r % r d t * - g x S *X#XOX#X(.^.(.OXOXG.OXOX).G.G.`.'.=X1X*X*X&X&X%X%X1X#X'.$X#Xd.*X*X$XOXGXGX",
"GXl.'.%X0XH.=X0X1X1X0X=X`.OX`.G.G.E.E.^.G.^.Z.^.G.^.^.'.OX#X(.^.>./.OX1X/.z ( c y v.r 2.y ,.c 2 M (.(.'.(.[.#X[.#X&X=X&X1X1X&Xl y - l u $ $ l z l l % u l ^.'.#X0X*X*X0X1X1X1X=X1X&X% y d d t r - u d u l g 2 2 d - ^ <X=X=X*X*X*X-X=X0X*X0X*X0XZ.u u g d d = C d r r.m d d d d d d d d d l r 3 = 2 H u d d - C - * N - d d l p y t % u t V.3X3X0X0X0X0XeX0X3X1X%X&XM.d - 1 d d d d d - - t d d +.=X%X%X%X%X1X$X%X#X#X#X#XOXu u - * u t - * r t % e D *X#X(.(.G.(.(.(.^.(.%X%X%X%X'.'.%X0X*X0X0X%X#X#X&X#X#X#X1X1Xn.&X3X#X'.GXGX",
"GX>.J.'.*XH.*X=XrX*X#X0X#X*XOX^.(.^.G.^.E.^._._.^.^.^.^.OX#X'./.+.^.#X,X:.z c ( 2 + - l.2 q.c l F (.#X#X[.#X#X#X&X1X3X1X3X3X*Xt r l y = r = z z l l $ l v ^.%X*X%X0X=X*X0X0X0X0X0X&X+ u g g.y - l d d l y = l g % t z.*X0X0X0X*X0X1X1X1X1X0X1X&Xv d u d d d C + d r + i d z d G H.w.d d d r % 1 y G % l d = 1 t d C % d d d u + z u d d d n.0X0X0X0XtX0X0X0X3X*X*X&XG.* u u d d d u * r d d d 9.l.0X*X$XOX=X1X*X&X#X#X[.#X'.z.= r u t - - d t - k % M *X%X(.'.J.^.^.^.'.%X*X,X*X%X%X%X*X%X0X%X%X#X[.%X%X#X#X#X1X1Xz.&X8XOX'.GXGX",
"GXC.%X=X0XH.0X=X1X0X*X1X'.=X#X/./.'.E.G.^.^.(.'.^.^.^.^.OXOX'.^.>.G.OX*X=.' ( ( v = - $ = @.2.c ] (.#X%X&X#X&X&X0X0X0X1X&X1X=Xu l - y l % g z z l u l l b %X'.OX%X1X0X1X0X1X1XrX0X'.- d 2 + r l d d l 2 2 l u = l u E.3X0X0X0X0X0X1X*X1X0X*X=X`.u d ` d d d d d d t Z y d u ; r d d.S.r.2 - l r * r u u * u l d u d u H d u r = u n d u d o.0X3X0X0XtXqXeX0X1X*X<X$XC.d d t % n H % u d d t = - ..&X&X%X#X1X&X&X%X#X#X#XOXOX- t d r % r d t * 1 d j J 1X#X'.(.'.(.(.[.#X=X*X*X%X#X%X%X*X*X,X%X%X&X&X1X&X#X#X%X1X&Xz.#X*X#X'.GXGX",
"GXC.%X0X0XL.rX0X1X1X1X0X*X$X*X/.^./.OX).|. XoX;X;X:XOX^.'.OX(.G.>.G.'.*X&.g e.( c c l a 2 4 u r C (.'.%X%X&X&X#X#X1X1X0X0X0X`.l - l g = v c z l 2 V - d 4 <X<XOX=X*X*X*X*X*X1X1X0X^.u d u i d u d y = t g 2 r l - 1 OXyXtXyXwXyX0X0X0XrX0X1X0Xl.u - C g.j.w.v 9.d u u i F - l d d d t f t g = r u l 2 - l l u u u d = 3 t d % u = i u d u } 3X0XqXqXqXtX0X3X1X%X*X&XZ.d d 1 + ; * d d u 2 = u l X.&X%X&X<X&X&X1X%X%X#X'.'.'.l t - * u H - * t d - 3 $ 1X%X(.(.(.'.#X%X%X(.Y.Y.T.Y.W.!.!.!.!.!.!.T.T.T.T.oX#X#X&X#Xz.].1X%X/.GXGX",
"GXN.#X*X0XL.eX0X1X0X=X=X0X*X$XG.Y > 9 ~ 5 > 9 I 0 Q $X`.'.OX'.E.o.G.OX*X&.3 D H.,.( c ,.l r c   { (.[.#X%X%X1X1X1X1X<X1X0X0X`.r z r 2 = 8 ,.z z l r l 2 w %X%X$X#X=X%X=X0X0X0X0X0X/.d d l z d d u % l r = l g = f g OX8X0X0XqXtXeX0X0X0X0X1X0Xu.= u d d t F i * d u r F % l w.b.z d l l y = g d u % t u p b u d d r p - d u * t M * d u u K 0XtXtXqXqXeX4X&X*X*X$X$XZ.d d d t 2 u d u % r d d u } *X1X0X*X1X&X<X&X%X#XOX'.'.l % 1 u + ; - u t t s 1 ; 1X%X'.(.(.(.OX#X(.N.6 o o U U P U o 5 5 5 o 5 5 o Y =X&X&X].M.OX1X'.^.GXGX",
"GXN.(.%X0XL.eX0X0X*X1X=X[.#X`.5 o o > o o > , 9 9 ~ z._.^.OX'.C.l.G.OX0X&.y 2 y m.H.n l c ,.l + w.[.#X#X&X&X<X0X3X0X1X0X0X0X`.a.= y z p 3 z.S.n l c l + A #X$X%X#X0X0X0X0X0X0XtX0X`.d d d d d u - - t + l = * l u - (.*X0X1X1XeXqX0X0X0XrX0X1X} d d d l d d B % u u t t 2 * t m B.H.n = - d l y = l l y B = d u 2 - l d u - - u @ d u d u H 3X0XqX0XqX0X1X*X*X<X%X$X^.d 2 d d d n r * d d d t = S %X0X*X<X1X<X1X%X&X'.'.#XOXv + d t a + d t t d t d i 1X%X(.K.G.(.(.[.G.o.o o 5 5 Y 5 5 5 o 5 5 o 5 o > 0 &X#X*X&XZ.OX1X'.Z.GXGX",
"GX>.$X*X0X{.0X0XeX*X3X1X%X&Xe o o > a w.} { e.d.o.+.V.G.^.G.F.l.o.N.'.<X:.z t F B.i.' z 2 2 z 2 C OX'.OXOXOXOX#X1X3X1X1X1X*X*Xz ( c c c y w.c z 1 2.t c v `.].%X&X*X0X0X0X0X0X0X9X1Xz d l u y * l y * l @ d t t u u ^.3X=X*X1X1X1X*XrX1X0X0X0XtXi d d d d d : C % u 8 r d - M * ; % z t * u m { = y d d 2 ; u l y G . d * 2 t % u z u = - d.rX0X3X1X1X1X*X*X*X%X%X#XB.2.u t d t r d u % 1 d d u f.qX0X0X3X3X1X1X%X%X#X%X#X(.* u u d t t = ..v.- : r p <X%X^.^.Z.C.G.(.^.+.l.h.o.o.o.F.F.G.J.N.G.G.G.N.N.'.0X1X*X*Xc.'.*X$X(.GXGX",
"GXG.%X*X0X}.rX0X0X0X0X1X1X1X5 o o , M.OX`.^./.^./.^.G.G.C.^.^.>.X.V.^.*X:.( ( ( d t c % u z 2 2 } OXOXOX'.#X*X#X1X0XrX3X*X1X1X( ( ( ( ( 3 s H.n d C y c l (.'.OX*X*X*X0XeX0XtXtXtX3Xd u [ a 2 l y = l u * u u u d d C.0X1X1X&X0X0X0X0X0X0X0X0X0XE.u d w.h.l d 1 t d u l d = - r 7 u t + l u @ % d d d d u r l u * t t u + u = r u M 8 t d f.0X1X1X3X0X*X1X*X%X%X%X#X>.= d t d d v e.* d d d l d f.qX0X3X3X3X&X*X&X%X%X&X#X^.r u d u r @ t t 1 1 d - ; 1X%X^.G.C.G.(.^.^.G.(.G.F.G.G.[.=X#X=X'.[.'.#X`.`.#X*X=X%X=Xc.OX0X*X(.GXGX",
"GXG.$X0X0X{.rX0X0X0X3X1X1X1X9 o o q '.(.'./.~.E.^.^.'.OX(.(.^.N.o.C.OX*XV.j.( c ( c g = c $ g g h #X%X*X*X1X0X1X1X0X3XtX8X3X3X4.c ( c c l r u } z j l 2 v `.G.`.[.%X*X0X0XqX0X0X3XeXz r 4 = B 3 C n 2 - d u u l u = d.3X0X0X1X=X1X0X0X0X0X0X0X0XsXH - 1 f g.g.9.H l d l u   u = 2 l - - l t F r d u u u l l - - u u d r * u % d 1 3 2 l y Z.3X3X0X*X*X*X*X&X&X&X$X#X>.u z d d d - @ d v m d l u V.0X0X3X1X*X$X%X%X#X#X'.'.^.% d t = - v t d t t 1 - B 1X#X^.M.V.^.^.G.^.^.G.G.G.J.(.%X%X%X#X`.[.[.(.'.'.[.*X*X%X%Xc.*X0X&XOXGXGX",
"GXN.#X0X0X=X0X0X1X0X0X3X1X1X&.> , , 6X%X#X'.@X.X<X3X4X#X%X#X(.N.+.G.'.*XQ.i m.D.q.c $ g y % c X j [.$X*X,X1X1X1X3X3XqXeXqXtXtX^ D.v.z j.c z z y z r ( - t '.(.(.[.[.=X0X0X0XeX0XeX3XH.l t r 8 * + 2 d u d d l y = l G 3X3X3X0X1X*X1X*X0X0XrX0X0X9XfX_ d d d t i % i u d 2 $ l . d d + d u d u l d u d d u % t d d u d % u t * u d u l 2 : OX8X1X*X0X1X*X&X*X*X%X#X#Xh.u L J.] - - l d * r d d r *.0X1X&X<X%X%X#X#X#X'.(.(.C.d r % 2 % y t t t - 1 t B 1X#X^.B.C.^.^.G.G.G.C.G.^.J.'.%X'.#X(.`.`.`.`.(.OX1X*X*X*X%Xc.$X*X#X[.GXGX",
"GXC.#X1X0X}.0X1XrX0X0X=X1X1X).Y Y I 5 R I.$.R / T T yXOX#X%X%X).o.C.'.&X^.z z t H c % c . l y = ; ^.(.%X*X,X1X1X1X0XqX0XqX3XtX) t u ^ : l z z r 2.2 2.- t _.'.`.[.[.&X*X1X0X0XeXqX3Xw.r u j.d y 8 t u u d g.r - l t 2 1X3X1X0X1X0XrX0X0XrX0X0X0X9XyXxXf.g d l t ; d d d % t t % d u * d d t l l w.z.z r * d l u u u u % d * r u d l 2 2 l =X1X0X0X*X1X*X*X*X&X$X#X#Xw.* d 1 3 r d d d + r d l = V.1X*X*X*X$X%X#XOXOX'.'.(.Z.9.% d - H % t t * t u t F <XOX^.Z.G.^.^.^.G.G.G.G.'.0X0X0X#X[.`.(.^.`.'.'.*X0X*X*X*X%Xz.&X&XOX/.GXGX",
"GXN.%X1X0X}.0X0X0X0X0X0X1X<X| o o 9 9 > , , > , o > Z.#X#XOX(.^.o.C.'.%X[.n c ( j z j c 2 c % z t ^.^.'.#X&X1X0X1X3X0XqXtXqXtXx.( z a ; z c z u m l l 1 t m.(.].#X%X[.&X1X1X*X0X3X0X(.d 2 = r d u z d d - % = ] - 2 u Z.3X0XrX0X0X0X0X1X0X0X0X0XqXqXtXfXqX(.N.z.r.w.g.w.N w.W S w.w.X.w.{ d.} w.J K D.L l : B l d u 2 - t + u d r - y d b =X0X*X0X*X1X*X*X%X%X%X#XOXm d d d d d d d u + t = 2 d ^.*X1X*X*X*X%X#X#XOX'.'.].M.- u * : 1 t - : t t t u A *X#X^.Z.G.C.C.G.^.(.^.|.$.Y P P $.|.*X`.'.*X*X0X*X0X,X*X*X=Xl.&X&X#X^.GXGX",
"GX>.%X1X0X-X0X0X=X0X0X0X0X1XQ , , , I U q U , > , > C `.'.OX'.C.o.N.(.&X&Xg.v.( u ( r 2.h z y c z ^.(.'.[.#X1X1X1X1X0X0XtXtXtX`.2.( z ( c c z z j z h l * f.'.'.[.[.[.#X=X&X*X1X1X1X-Xz f a l d - A l ` v = ; + d u u m &XeX3X3X0X0X*X0X3X1X0X0XqX0X3X0XwXuXhXzXhXhXhXhXhXfXdXdXfXfXhXhXfXfXfXfXfXfXdX.Xd F + l u d + t = - d r + l d u l.3X*X0X*X0X=X1X*X%X%X%X#X#Xw.u d d d d d d % r $ t d t OX1X*X*X$X$X%X#X#XOX'.'.].m.f.* r d t * 1 d t d u u ^ *XOXZ.m.G.^.^.G.^._.=.U U 0 U o 5 o T %X(.#X#X0X0X*X#X*X*X&Xr.1X&X#X^.GXGX",
"GX+.(.1X0X{.-X*X0X0X0X*X3X1XW 0 , > > P I 9 0 9 6 > B `.'.'.(.G.o.N.^.&X1X1 B e.y 3.2 ,.r 2.j c z Z.^.`.(.OX#X#X%X&X1X1X3X3XtXA.+.L.r.c 0.c z l s z g z : X.%X'._.[.[.#X&X3XrX8X1X1X1X9.d 3 d l 8 & - V d w.u i d u u r J.*X1X3XrX*X*X*X3XrX1X0X0X0X3XeXqXwXdXwXtX9XtXtXtXtXyXsXdXyXyX9XyXtXqX0X3X3X$Xs * t u j.z r % u + u d * - d d u ^.0X0X0X0X=X*X=X*X%X$X$X%X'.: d d d l d d l + u $ l d u &X1X1X*X*X%X%X#X#X'.'.'.'.X.1 t t r * t t t t t u t ! *X'.^.m.C.^.^.^.^.>.I 5 5 5 6 o o o o #.[.=X*X*X0X#X*X0X%X%Xr.1X&X'._.GXGX",
"GX..F.#X&X}.=X1X1X=X3X1X1X1X>.S ^ J D A J +.o.{ X.[ +.'.'.'.'.Z.+.>./.%X1Xn c j l b l m 2 2.t 2.l +.(.'.'.'.OX#X%X&X*X&X1X1X1X`.z d _ L 3 l z z - 2.a c u B #X%X[.%X%X#X#X*X0X0X3X0X0XB.l - z l d y p 3 - - r ] u l u u b #X&X1X1X1X0X*X1X0X1X1X0X*X0X0X0X0X0X0XtXeXtXyXyXyXdXyXyXyX0XeX0X0X0X0X1X&X+.1 d u : & r @ r r % d u . u d d d &X0X0X*X1X1X1X&X&X&X&X#X#XB.2 u - g.j.n d t % = 1 l d v 1X1X1X&X&X&X%X#X#X'.'.(.(.G u t - - d t d t t d u = O.*X(.^.m.>.C.G.G.N. .5 o o e o e 6 6 o 0 (.1X&X&X=X#X$X&X$X%Xr.1X&X'./.GXGX",
"GX..(.#X&X{.*X1X3X=X=X1X1X1X1X=XOX`.^.G.^.OX#X/.^.^.'.'.'.'.].Z.o.o.G.#X*X] c i c k z j l k u 2.l o.^.^.'.'.#X#X#X%X&X*X&X1X8X$X( ( z f ; z z z y n r 2.z l OX*X1X1X&X0X0X0X0X0X0XqXeX&Xd r m l d f d a a a ; @ 2 F n u + l.$X$X=X=X*X*X*X=X=X*X=X=X=X0X0X0XrX0X8X0XtXwXtXyXyXtXtX0X0X0X0X0X=X*X=X#Xu d d u & = t + u % t d r * d d l { 0X3X1X0X1X1X&X&X%X&X#X#XOXX.t * t d t X.u % u + d d d H 1X&X1X&X&X%X#X#X#X'.'.'.'.l y % t t 1 C z t t t t X :.&X'.G.N.G./.`./...I o o 8 N.F.o.h 5 5 5  .1X3X3X3X1XOX$X$X[.e.=X%X'.^.GXGX",
"GXO.'.<XeX{.=X*X&X&X'.#X*X1X=X1X1X'.Z.^.^.(.#X(.'./.'.'.'.'./.N.+.{ c.^.&X] z 2 2.y c j c j l C c } ^.'.'.'.'.#X#X%X*X=X1X1X3X*X) ( ( z z c z z u . u x z d G.*X&X1X0X0X0X0X1XrX1XrXtXdXv.z t l d y z y m a t j = 3 - t s y '.$X#X=X=X*X*X=X=X*X*X0X1X0X1X0X0X0X1XeX0X0XwXyXwXqXrX0X0X*X1X1X*X=X#X[ u u t d + d - - d % d u i l l u q.M.0XrX1X1X1X*X&X&X%X%X#X#XOXn = d r { l - r D % r d d u f.1X1X1X&X&X%X#X#X#X[.'.'.`.t * d d t * ; : d t H r . R.&X(.Z.C.^._.(.F.A 5 o o C.OX'.`.} e o 5 q =X&X&X1X1X#X=X$X[.r.&X&X/.^.GXGX",
"GXGXG.%X0X*X{.rX1X1X1X=X&X*X1X&X1X#X^.^.^.^.'.(./.^.^.`.(.'.`.^.h.[ l._.#XX.c 2 u 2 ` j c i ( a c ` ^.`.'.'.#X#X#X#X&X&X&X=X&X*X@.f.b.) c z c c % - u . d r o.'.[.&X&X0X*X0X*X0X0X0X0XqXA.d V 9.l r ) 2 c 2 c a d a d d t - H {.=X#X#X=X=X=X=X=X=X=X=X*X=X=X=X1X*X*X0X0X0X0X0X0X1X0X1X*X&X&X%X#Xf.t t d d - * d % u r * u 2 3 r l p @ OX0X1X3X1X1X*X=X%X%X#X#X#X^.r d d p % d t t r r u d d @ Z.0X&X&X%X&X#X#X#X#X(.'.(.Z.z = r t u * : t t * = . - (.#X^.Z.N.^.^.(.F.Z 6 o 5 [.#X'.J.o.5 6 U E #X{.%X*X$X%X*X1X&Xz.3X&X`.^.GXGX",
"GXGXN.[.=X0X}.*X*X=X3X3X1X1X&X#X1X1XOX#X'.^.(.'.`.'.OX^.^.'.'.^.l.[ l.^.&XB.c + z 2 2 2 u 2 2.2 ,.z ^.`.(.'.'.#X#X#X&X&X*X1X&X=Xg.z t f.H.D ` l   l = r l 3 w '.[.[.#X*X*X=X0X0XqXtXtXtX3Xd * % l t m d g 2 ( r ) - n u d y d ] [.=X=X#X=X=X*X#X=X=X1X=X*X*X=X0XrX0X*XrX0X*X0X*X*X*X*X*X$X$X#Xc.t u d u u % u t % u % t d d 1 l 2 1 B 3X0X0X1X1X1X&X&X&X#X#X#X#Xl.d u * 1 - d d i l d r u u r *X*X*X*X&X&X#X#X#XOX'.'.'.m.* t u d t 1 t t u 4 % + 1 %XOX^.N.N.^.(.'.G.{ 6 6 5 ,X(.J.C.>.U 5 5  .#X#X=X$X&X1X1X1X[.J.3X&X^./.GXGX",
"GXGXm.[.#X1X}.eX3X$X=X1X1X1X1X[.*X<X#XOXOX'.OX#XOXOX+X$X`._.'.Z.+.{ N.^.%X'.l $ c . z $ ( 2 - - ` r Z.(.^.'.'.#X#X%X%X&X*X0X0X1X].( ( z = M r 2 x l $ l l y r G.'.OX#X$X*X0X0XqXtXtXwXyXfX_ B r d u a z a d j r ) u l u u r d r i.#X[.=X*X*X*X0X=X0X*X0X=X=X=X=X0X0X0X0X1X=X*X1X*X=X=X#X$X$XG.m u u u d u % d = - u + u d l u % r l /.0X1X1X1X1X*X=X%X&X%X#X#X[.H u * d d l d d r d d 2 l l n 1X*X*X&X&X&X#X#X#X'.].(.(.O.t d t t l u t t d ; = : y *XOX^.N.C.F.G.G.G.U.> 5 5 U oX0X.X| 5 5 5 G.[.[.$X$X*X*X*X&XJ._.1X&X^.^.GXGX",
"GXGXC.%X1X0X}.eX3X1X1X3X3X1X1X&XOXOX).Q.I.I.I.T.>X1X#X#X'.N.`.^.>.{ m./.*X#X= t g * c % c $ l - 2 % l.^.^.'.'.#X#X#X&X%X&X1X3X0X8Xb.b.z H u l p $ * 2 z z { = h.'.'.[.$X=X0X0X0X9XtXtXyXyX<Xd d d d i z g l s d a d y u d r z d = [ [.#X=X=X*X1X0X=X0X0X0X*X-X1X*X-X0X0X=X&X=X=X=X$X$X$XOXh.% ; d d d d - = u + u = 2 t w.i 2 l u G *X0X0X=X1X&X=X&X&X%X#X#X'.^.1 - d d d d d d y e.d - l d m.3X1X*X&X&X%X#X#X'.'.'.(.`.K d d t t 3 r u 9.- 1 1 d A *X].G.N.N.N.C.^.^.E 5 5 5 6 0 5 o 6 5 6 q &.W.;X2X1X1X1X&X&XM.$X<XOX^.,XGXGX",
"GXGXN.=X*XeX}.eX3X3X3X=X#X(.:.Q U o > > , 9 5 9 , I.yX'.'._.G.^.N.o.l.^.&X3X- c = l y l x . (   z t F ^.^.(.'.'.[.#X%X=X&X*X*X1X9XL v f.* g z d z J = y % $ c g '.'.[.=X1X=X1X1X1X3X3X8X8XsXw.d d d = H.y z r n p z u d d - i.l l u ' K.#X=X*X*X*X0XrX*X=X0X1X0X0X0X=X=X=X=X=X%X$X$X'.'.} g 8 = u d ; C + u - % u + g 3 % - l t = >.0X0X*X0X1X1X&X=X%X%X#X[.[.+.u d d d d l l d = * t r } n +X0X*X*X&X%X#X#XOX'.'.'.(._.f d d t * p r @ @ - t u u %.*X^.N.+.N.N.G.^.l.6 9 9 5 5 5 U U 5 P 0 5 6 > , , ).1X1X&X$Xj.1X*XOX^.GXGXGX",
"GXGX>.#X&X0X-XeX0X0X0X'.0 0 5 , > o > , , w 6 9 , w / 9X_.'.^.Z.N.+.+.G.OX1X) c % ( r 2.r l l % c n n ^._.^.'.[.[.#X#X#X&X*X1X3XeX`.z r J y z l L.w.z t F r d t B.'.[.#X*X&X&X=X1X1X3X3X0X0X%Xd d d = + * D.- n 1 n a d u r 4 j l l u 2 H.&X&X*X1X&X&X=X*X1X0X0X1XrX8X1X1X&X$X$X[.[.G.3 a l   d d r V % + u + t 2 * u u ; u r = g 0X0X0X0X=X*X*X%X%X$X#X#X'.[.H d d d d d l d d j $ d r + 2 =X0X*X*X=X%X#X#X[.[.'./.^.G.* u u * - t d 1 < d t t r C.#XF.>.o.>.F.J.J.o.q Y 0 5 5 0 9 5 5 0 9 5 6 , 5 o R.3X1X*X&Xr.3X%X'.E.GXGXGX",
"GXGXo.[.&X0XeXeX0X0X0X=X9 9 9 > , , o > 6 9 , , 9 0 , Q.].'.OX(.^.>.o.F.'.<Xj.l 2 c l k r ` * g z : @ M.^.`.(.'.[.[.#X#X&X&X&X1X3X8Xv.) u z 2 2 d H j.v.r.l d d o.'.'.[.#X#X%X&X*X&X1X1X0X0XdXg.d d a 2 i % = S - 0.t n u r 7 r l = - l - G H.$X=X=X=X&X*X1X=X*X*X*X*X*X&X=X{.{.B.{ u M % - % a n r % + r t % d * u l m l = r d `.0X*X*X0X*X1X=X&X$X#X#X'.'.^.d d l d u t.H d d d u d t B [ *X&X1X=X%X#X#X[.[.(.'.^.^.l.t r * t t t t t s t.t d = '.^.N.>.o.N.(.^.`.F.>.} [ [ V V 4 8 w 0 0 5 5 , > o /.1X1X&X#Xj.3X#X'.Z.GXGXGX",
"GXGX:.'.1X0XtXrX0X0X1X*XI 9 5 5 5 , > 4 j H H V 7 6 0 9 `.J.(.^.^.m.o.m.`.$X_.* l c ,.j c a Z y c F * o.^.^.'.'.'.[.#X#X=X*X1X1X3X3XC f.H.= u c z l z t _ D.v.z l '.'.'.[.#X=X&X=X*X*X0X0X0X0XxXj.d d d t 1 - M = % 3 j.z l d u = u u ; y u t l i.K.$X=X=X=X=X=X=X*X*X*X=X`.j.v * d t + d . 2 4 % + - + d = r u % d t ; : d u f.0X0X0X*X=X0X=X=X$X$X#X[.'.'.} d d d u = - K S.z.v w.l d u C.rX0X1X&X%X#X[.OX[.`.^.^.^.9.r : d d d t d t % + t t w #X^.c.o.+.N.G.^.#XOX'.'.`.^.^.G.>.m.B.j.o.W Z w & > $X1X1X&X{.M.3X#X'.Z.GXGXGX",
"GXGXGX(.&X0XtXrX0X0X=X*X..5 w 8 V ] g.Z._.Z./.G.A , q , V.Z.^.`.G.N.} N._.#X&X: c c c = ( p u e 9.z ( w.^.`.^.'.`.'.'.'.&X=X&X3X8X8X].z d l z l o.L.9.l l d m M.t.l.`.'.[.{.#X&X*X*X*X=X&X1X3XyXtXz.z d d d d r r F $ + p l r * l u & l d u t u % t l { k.H.L.K.L.H.x.r.) t t @ i u = - r + u % r   - = u @ u 2 = d - h r d v 3X*X0XrX*X=X*X%X%X$X#X[.'.'.^.u d u u = u d d t f p % d d u &X=X1X*X&X%X#X[.OX'.`.^.^.Z.: r r ; v d d t 1 i @ d 1 W $X`.>.o.l.B._.`.OX'.OX'.'.(.G.G.G.^.OX%X&X#X%X%X'.[.1X1X=X&X_._.1X#X(.Z.GXGXGX",
"GXGXGXZ.'.&X0X-X*X*X1X=X`.m.`.OX$X#X'.^.`._.E._.@.> 0 9 A `.(.(.^.F.o.l.G.#X3X2.( ' c % c r v V J z.j.9.^._._.'.(.[.#X'.#X%X%X3X1XtX9Xv.) z t 2 d d r.f.H J c d t a `.`.[.[.#X=X=X&X=X=X=X1X0XtXgXn.X.g.H K d u d r t M r = - l = * * y d u u + t r = t u @ r l = = H d t d d p * d % u % r - - = = % u r % d + t d d t u d '.1X1XeX0XrX1X=X=X#X#X[.'.'.`.[ d u 2 - u l u w.d d p = d d { 0X0X*X*X%X#X#X[.'.'._.^.Z.m.u d - a * t t * - d d t @ :.%X`.c.+.+.N.G.^.(.(.[.'.'.'.'.'.'.$X*X1X<X1X1X&X%X%X*X*X=X&XD.&X1XOX^.Z.GXGXGX",
"GXGXGXm.(.&X0X-X1X1X0X=X*X*X3X1X&XOX*X%X%XOX'.OXV., 9 9 A _.(._.^.^.l.+.F.[.*Xx.( ,.2 r ( y n l c l d r N.^.^.^.^.[.%X`.[.%X=X3X3XtXyXL f.B r z z ) z d M < z d d u e.].'.[.[.#X%X=X$X$X&X&X1X0X8XdXm t M . d d d d u d d $ u 2 = 2 Z 2 u u - % t . l 2 * ` u % d 2 % B.n u d l d r + t y d . u   r % d r d y % u d d d d C.wXeX0X0X1X1X=X#X[.[.[.OX'.'.G.` u = u d l u : f m.v.m m m t ^.0X0X0X0X=X#X#X[.OX'._.G.^.K d * 1 r ] s * d d H t t   #X#XG.>.o.>.G.G.J.`.'.(.'.'.'.'.(.%X*X*X<X<X#X#X#X%X0X0X1X&X=Xx.1X&XOX^./.GXGXGX",
"GXGXGX+.^.%X1X-XrX0X*X0X1X1X3X3X1X'.OX%X%X<X$X%X-.0 9 9 M ].].`.(._.m.o.N.(.&X[.,.c . z ( z x ( ,.c ,.l o.J.^._.'.'.&X'._.%X=X&X3X9XeX{.z z z z * d.z z d r z l l d n ^.'.'.[.[.[.$X$X=X$X=X&X0X8XtX9Xz t t d d d u d u u $ d + t = * d d d . r 2 % d $ = A - l d d 3 r f.S.w.l d % - % + r $ r + = - u 1 n - l d d d u d.yXyXyXtX0X0X=X%X[.[.[.'.'.'.`. .8 = u d d y % d d d t d.* r j 1XeX0X0X%X#X#XOX'.'.`.^.G.N.z : r t 1 * @ d t # : d - & 1X%XG.>.o.F.G./.[.#X#X#X#X'.OX'.#X*X%X#X$X$X%X$X#X%X0X1X&X&X%XF.0X%X'.^.GXGXGXGX",
"GXGXGXo.^.#X1XeX=X0X0X1X0X3X0X1X3X<X%X*X%X<X+XU.0 , , 9 A /.(.`.^.^.N.} N.^.&X0X,.g $ ,.,.c a ( ,.,.' ,.` G.G.^.^.'.[.%X'.#X%X=X1X3X0XdX4.z ( d C ; z.z.2.l 2.z d d u e._.K._.}.`.{.[.$X#X$X=X1X3X3XyXdXM._ z u u d l u = y t . u . t d d r = u $ u r % p % t d t d u z d r v n d   u v 2 $ r % r . d d u u r n d u u f.yXyXyXtXqX0X0X=X#X`.#X{.'.J.G.c.g % d d u - - l d v z d 1 j r C.0X0X*X&X#X#X#XOX'.`./.G.C.f.: t d d 1 : t t - F * t + %.0X#XF.+.+.G.^.OX#X[.[.[.'.'.'.OXOX#X%X#XOX$X#X%X%X&X*X&X&X&X#XF.1X*X'.Z.GXGXGXGX",
"GXGXGX..^.#X*X0X-X*X1X1X1X0X*X0X1XOXQ.=.Y 5 , U 5 5 , 5 o.`.'.`.'.^.F.o.>.G.#X1Xi.$ l ,.,.' $ ,.,.,.,.,.( l.^.^.J.'.(.#X[.#X#X=X&X*X*X*X-X( ( z d z z d g.J L l l d l 2 F.J.J.`.[.=X#X#X[.#X%X=X&X1XeXtX8Xa.d u d d r = l y * u t % n n = r l 2 2 l % t d l d d d t r d.z d d u u a d l d + l + 1 * u d d i d y l d H yXyXyXtXeXqX0X0X=X#X[.$X_._.G.Z.v d l l t = u d d g 2 f.D.9.u m 1XqX3X=X%X=X#X#X'.(.`.^.G.G.[ u l t d t d d < 1 t d - + Q.[._.f.X.>.N.[.OX'.[.#XOX'.[.[.[.#X[.#X#X#X$X%X$X%X%X*X%X&X&X$XJ.1X&X'.C.GXGXGXGX",
"GXGXGXGXN.'.=X0XrX*X1X1X=X=X&. .T 5 > > > > , U 9 9 , 3 Z.'.'.(.`.(.^.c.} G.[.&XH.y ,.,.<.c * ,.,.,.' ,.,.9.G.G._._.'.#X[.#X#X%X&X*X8X*X9X_.v.( z z z z l C + l ` b = 2 { [._._.#X*X*X=X$X#X#X=X&X=X=X*X9X8Xm d d * - l r = l g * t % 3 v w.= 2 u - - d 2.z t d u d ; % z.l l y l y d d 2 u r % * m d u d % z y d { yXyXyXyXtXqXeX0X0X=X1X&X#X_.`.G.g.d u 3 ..= l d u y * u d t K d.+.3X3X1X&X#X'.'.[.(.`.^.G.N.>.k u d d d d t @ t d d t % * OX#XN.+.X.+.^.^.F.`.[.#X'.(.[.'.[.'.#X#X#X%X#X$X$X%X%X$X*X&X&X`.].1X#X`.C.GXGXGXGX",
"GXGXGXGX+.'.%X1X-X-X*X1X%X'.5 6 , 5 , , , > > , 5 0 V N.'.'.'.'.'.^.^.N.o.B.'.&X#X* ,.,.,.2 g ,.,.,.2 L 2.c F.^.G.^.`.'.[.[.#X%X&X*X*X$X<XQ.m f.r.C n z l d u u * 3 u l + B.[.[.#X{.&X1X*X=X*X*X*X*X*X8X1XtX9XH r . d + 2 l - - d 1 B * & & j { = u l - C H d t d d f y s X.c a l i l r 3 * = t r l d u u * d - f.yXyXyXtXqXtX3X0X1X1X=X=X'.G._.`.c.s z r C % d d u 2 2 d d d l d - <XeXrX1X&X=X[.'.'.K.G.G.N.N.+.d x n d u - - d d t d t + C $X^.l...X.l.F.N.^.#X#X#X'.'.'.[.'.OX#X#X#X$X%X$X%X&X*X$X<X&X$Xv.&X%X#X^.GXGXGXGXGX",
"GXGXGXGXX._.%X1XeXeX0X0X0X&XP > , , , > , , > w b e.(.'.'.'.[.(.'.'.^.F.o.l.^.#X1Xn <.<.2 j ' ,.,.,.h 7 +.l o.F.G._.`.^.[.[.#X#X&X*X8X*X*X9X( z 3 B t l z l l u p y z y * d _.#X%X=X=X=X*X&X=X0X0XeX<X*X*X3XyXdXp - r + d $ t j.l l l s B = 3 % l l v f * K S.g.d _ l l d : c r z - m l r u - m t y d d = 1 t M.5XtXyXtX0XeX0X0X0X1X&X$X`.^.^.`.G.k - n d r l d y * u d l d d l l g.wX0X3X1X&X&X#X[.^.G.G.^.G.G.G t 1 ^ g.@ 1 r t.d t d = * m.`.N.+.[ o.c.m.B._.`.OX[.'.OX'.'.#X#X#X%X#X%X$X$X*X%X$X*X%X*X$Xk.3X*X'.Z.GXGXGXGXGX",
"GXGXGXGXD ^.#X1XtXeX0X1X#X[.Z 6 6 > , w 8 j ] z._.'.'.'.'.[.'.'.'.'.^.Z.c.h.F.[.*XH.<.,.Z & c y h.<.c c z y C F.G.^.^.`.(.[.[.#X=X*X1X8X1XtXv.( d r c z z l z l d l y - n n w.[.#X%X=X#X#X[.%X*X1X3X*X*X8XeX0XtXxXM.* - u + % = z.z d l z d 2 u t C n l d d t F l.; t u u t a r ( r m d d d r z l i g.l + v @XtX0X0XeX3X1X1X&X1X&X=X%X'.^.`.G.G.o.s t A n t F V = d l d d l d d - 1X0X0X0X1X&X#X#X'.[.[.'.(.G.:.1 - d d 1 d d - # t d u % - OX'.N.+.[ o.c.F.^.(.#X=X[.[.#X[.[.#XOX#X$X%X$X@X=X%X%X%X*X&X&X#Xv.3X#X'.Z.GXGXGXGXGX",
"GXGXGXGXGXC.[.&X0XrX=X&X%X[.o.M [ } z.x.F.G.G.`.'.#X'.[.[.'.'.'.'.^.^.Z.m.h.N.^.&X&X<.,.l u ,.V B v.p.1.1.<.,.N.G.G.^.`.`.[.[.#X$X$X*X3X3X8XyX2.c c c c z l l c g - r t = s d X.[.[.$X#X'.[.[.=X=X=X$X=X*X&X&X1X1XdXoXm - 2 f 2 m j.j.w.{ z v l r V = u d w.u t 1 i u d d d y u a d t d u d d a l & = r e.*X0X3X0X0X1X1X1X&X&X=X$X#X[.^.G.G.G.d.d y 1 p - - 7 - d 9.z d l d w.d ..qX0X3X&X[.'.#X[.`.`.J.J.J.G.[ a f d d d t * s - m l t @ ^ 3XOXl.o...m.^.^.G.[.#X[.(.(.'.#X[.#X%X$X%X$X*X%X%X%X*X$X*X&X&XJ.].1XOX'.N.GXGXGXGXGX",
"GXGXGXGXGXl.'.%X0X-X=X&X=X%X[.J.'.[.[.[.^._.^.(.[.[.#X[.'.#X'.'.'./.^.^.B.o.m.^.{.3Xi.1.1.<.,.u l t F B.H.5.1.0.G.G.G.`.'.'.[.[.#X=X&X&X&X*X1X].( c c c z l = @.- z d r q y d @ k.'.}.[.}._.`.`.[.$X{.$X#X=X=X*X1X1X3XxX~.v d d d d d y % - ; G l r z d % i ) l d d d t u u - z p l y d u d l w F f H %X0X0X0X*X=X*X1X&X*X$X=X$X#X[.'.G.G.J.B.f d y d - l d - d 2 + r l d * 2 d *X0X0X*X#X[.&X[.[.`.(.`.^.J.N.2 * t d u r % t d * 3 t = *  X1XZ.+.S o.N.N._.[.[.[.(.(.[.OX[.#X#XOX$X$X%X$X%X&X=X&X%X&X&X&Xk.3X%XOX^.+XGXGXGXGXGX",
"GXGXGXGXGXo.J.#X1XrXeX*X=X*X#X(.'.`.[.&X^.'.#X'.'.#X'.#X[.#X'.'.'.'.^.G.N.f.h.F.'.&X'.<.7.1.7.,.4.1.1.l a m.b.' N.G.G.^.^.`.`.[.#X#X&X&X1X*X1XgXK.e.} c z l Z . z n z = - l d . * F.`.J.`.K.`._.}.{.[.[.$X#X$X&X*X1X3X1XyX9XH d r.t d u 3 - w.+ d - n l C : f.S.r.l n d u u - n y c a n d l t B d N.9X3X0X0X1X0X0X*X<X*X$X=X#X#X[.[.G.G.B._.G d d r m d l d l d - 8 r d d p < m.0X=X0X*X#X*X&X[.#X[.'.`.G.C.[ 2 M r u r * d d d 3 : t . y 1X].c.o.[ +.G.^.'.'.[.[.(.(.OX[.#X#X#X%X$X$X@X=X%X%X&X&X<X&X&X=Xx.0X&X'.Z.GXGXGXGXGXGX",
"GXGXGXGXGX=.^.'.0XqXuX0X=X=X%X[.[.[.%X&XOX`.`.OX`.OX[.#X'.[.'.'.'._.G.G.N.+.} N.^.$X0Xx.a.1.4.<.<.5.1.7.1.,.u : F F.^.^._.`.'.[.[.#X#X=X&X0X3X0X>X) < ( z z d u t ; v $ u d u C   i x.H.H._.K.K.K.'.'.'.[.#X#X=X=X*X1X0X0X0XgX1XG.h.x d d d 1 n d r v d d u d d H L M t d t t a - n d K K B t.E.0XqX0X0X1X0X1X1X*X&X&X=X%X#X[.[.[.`.F.F.N.w.v d d r z g l d l d % r d d d * F *X*X1X*X&X&X&X%X'.`.'.'.^.N.m.3 r r t - r d d d u + r 2 $ +.*XJ.>.[ o.N.^.^.^.'.#X[.[.(.[.#X#X#X#X#X%X#X#X%X$X$X*X%X*X&X&X'.`.3X#X`.V.GXGXGXGXGXGX",
"GXGXGXGXGXGXZ.'.=X0XuX0X*X0X0X$X&X&X*X0X%XOX(.`.(.`.#X'.#X'.[.'.(.G.C.N.N.+.} o.G.[.*Xm.f.{.v.r.3.7.6.1.6.1.w.2.,.M.F.^._.^.`.'.'.[.[.%X&X&X0XeXdXl.s ( z z l l y Z 2 $ l d d d r ; r x.F.H.H.G.J.K.}.`.'.}.[.[.=X$X#X0X0X0X0X0XwXjXxX].n r.r l z d F g.d d d d d a ; t d u d t d a z d *.<XyX9X1X0X0X*X1X=X1X&X*X=X&X%X#X[.[.[.'.G.G.N.B % = d z d r d d l l u + u e.l u - #X1X8X-X=X#X=X#X_.G._.^.^.N.m.X.d u r * d d d d d t + u + r OXOXF.o.X.m.^.(.(.'.#X#X[.'.[.[.[.#X#X#X#X$X%X*X%X%X%X%X*X%X&X&XH.1X1X[.G.l.GXGXGXGXGXGX",
"GXGXGXGXGXGXl.^.%X0XeXeX0X0XrX=X*X*X*X1X0X*X=X'.#X`.#X#X'.[.[.'.[._.G.V.>.+.o.[ B.'.&X[.<.( G $ u 1.6.,.,.l @ g 1.i.G.G.G._.^.'.`.`.`.].$X&X1X0XeXfX2.c ( z l ; t l = 2 l d l g = i t m H.H.G.F.J.K.K.`.`.'.'.[.{.#X#X=X*X*X=X0X0X0X0XfXgXV.m t d u y ` M.M.m d d t u u d t d = z o.OXyXtXeX9X3X0X0X0X1X*X1X*X=X=X=X#X#X[.[.[.'.`.G.Z.} y F = l d l y d l d l - = 2 $ t - f.3X1X1X=X'.{.[.'.G.F.`.'.'.G.M.l t = : d d d d d d - - u . C 0X^.>.o.+.N./.'.[.#X#X#X(.(.[.[.#X[.#X#X#X%X#X%X%X$X%X*X&X&X&X&XF.0X&X'.Z./.GXGXGXGXGXGX",
"GXGXGXGXGXGXX.^.#X*XuXeX0X0X0X0X,X*X*X0X*X*X0X#X[.J.`.'.'.[.[.'.(.(.^.G.N.>.X.[ l.G.[.0Xb.<.l C n 1.,.a } y 3 ,.1.3.B.G.G._._.J.`.J.J.K._.[.$X&X3X9X1Xc ) y - z l r = l l l r 2 d l d u x F.F.F.J.K.K.K.K.K.'.}.}.[.#X=X=X1X1X0X0X0X0X0X5XtXdXyX,XOXE.l.g.L M.S.z.{ K g.A./.OX1XyXyX9X8X0X1X3X1X1X1X=X1X*X=X=X&X%X#X[.[.}.[.`._._.B.{ r z - z y d l = g.d l l % l = 3 u i $X1X3X*X$X$X#X[.^.^.G.G.G.G.Z.o.r - u d d d d d d d % d = = ).%X^.F.[ +.G.[.'.'.#XOX'.'.[.[.[.#X#X#X#X#X$X%X$X*X$X*X%X&X&X&X%XK.1X&X(.V.GXGXGXGXGXGXGX",
"GXGXGXGXGXGX#.Z.OX=X0XuX0X0X0X0X*X%X%X*X%X[.#X#X#X(.G.(.'.#X'.'.'.'._.G.C.l.+.X.o.F.'.&X*X1.<.,.1.1.l Z % 2 g 1.1.,.w.B.F.G.G.'.[._._._._.`.[.[.3XeXdX~.C t c l = u c l l = t l l d d d % t k.B.H.K.K.J.J.K.K.`.'.'.#X#X#X=X0X*X*X0X1XrX3X1X0X1X1X0X1XeXuXdXdXuXfXdXyXyXeX0X0X0X0X0X*X0X1X0X*X*X1X&X&X&X=X=X#X#X[.[.[.'.'.`._._.G.b f r z t 2 r l l 3 $ r l t % l + u s %X*X0X0X*X=X&X#X'.`._._.'.^.G.c.= = d l = L d d d d t % d + C 1X'.G.>.o.N.`.OX'.OX#X'.'.(.(.OX[.[.#X#X%X%X%X$X%X#X*X=X%X&X&X&X`.$X1X#X^.l.GXGXGXGXGXGXGX",
"GXGXGXGXGXGXGXl.`.%X0XtX1X0X0X0X0X#XOX$X$XOX[.'.'.^.J.^.'.'.#X'.'.'.`.^.F.N.N.f.} N.G.#X0Xq.<.<.' g = r c . <.7.,.' l z.F.G._.[.[.#X#X[.`.`.`.[.&X3X3XgXL c u = l l z y * l l d l z l d + l l h.H.F.J.H.J.L.K.'.'.'.'.[.#X1X1X1X*X*X1X0X1X3X0X1X0X1X0X0X0X0X0X0X9X8X0X0X0X0X0X0X1X1X0X0X1X*X*X*X=X=X=X&X%X#X#X[.[.[.[.'.`.K._.G.H l a u y l l = n l y = l d = 2 t . d OX0XrX0X0X$X&X$X=X$X[.'.'.G.G.^.S r d d d p % d d v H = 2 t % C.&X'.>.o.>.G.OX'.'.'.'.'.'.'.[.[.#X[.#X#X#X#X#X#X*X*X%X%X*X&X&X=Xx.3X&XOXF.R.GXGXGXGXGXGXGX",
"GXGXGXGXGXGXGX{ J.#X0XeXrX0X0X0X0X1X*X%X*X$X$X#X[.K.^.G.J.[.[.[.(.[.'.`.^.C.Z.m.h.h.F.(.*X{.,.( y y ,.,.y 2 4.1.t ; m v N.G.G.^.[.#X#X&X&X&X=X&X&X*X1X1XgXj 1 z z g 2 2 i.z l l r 7 l z y l l % u.F.F.J.J.J.`.}.}.[.[.}.}.#X=X=X*X*X*X*X*X*X*X1X1X0X1X0X0X0X0X0X3XrX0X0X0X0X1X0X-X0X1X1X&X&X*X=X=X%X#X=X#X[.[.'.[.}.'.`.K._.c.g - m 2 l s l l - [ z l l u 2 - g % - >.*X=X0X=X*X*X*X*X&X#X{.`.`.`.^.m.= d r H u + r d t & = . u * i <X#XG.>.o.>./.'._.`.^.'.`.(.'.[.[.OX[.#X#X#X$X%X$X%X%X%X*X%X&X&X%Xv.0X%X`.c.GXGXGXGXGXGXGXGX",
"GXGXGXGXGXGXGXGXN.[.=XtXuX=X0X1X$X*X%X%X*X$X$XOX[.'.G.G.G.G.'.(.'.'.'.[.^.^.^.Z.m.e.c.^.%X0XS.= z ,.,.c $ ' 1.<.z s r * { B.G.G._.[.[.#X&X&X&X&X&X&X*X1X3X8X( z g = l = + y l l 2 Z l l g z g y g ` G.K.'.L.[.[.K.`.`.'.'.'.#X#X=X=X*X*X=X*X*X*X1X1X1X1X1X0X1X0X3X1X3X3X*X*X-X*X*X=X*X*X&X&X=X=X#X=X[.[.[.[.'.'.`.`.J._.J.} g l r d.- z 2 n d r 3 = l y * t d = r ] 1X0X*X0X0X0X*X*X=X{.'.'.`.(.G.N.3 = t 3 $ r . v z u < % * d   V.*X`.F.o.>.F.G.^.G.(.`.^.'.'.(.[.[.[.#X#X#X%X#X%X$X%X$X*X%X*X&X&XL.%X&X[.G.>.GXGXGXGXGXGXGXGX",
"GXGXGXGXGXGXGXGXl.`.%X1XuXeX*X=X*X*X=X%X*X*X*X=X=X[.G.G.G.G.G.(.'.`.'.`.'.`.`._.N.e.j.F.'.*X_.( <.,.z 2 2 ,.<.c } 3.<.<.n c.F.F.G.'.#X[.%X#X#X$X=X=X*X&X1XtX=Xt 2 z l h ; l x = r d l l j l + - z 2 v H.'.`.[.[.`.J.K.K.`.'.[.#X%X$X=X=X=X=X=X=X1X0X*X0X*X0X*X1X1X0X*X0X1X=X#X{.#X#X=X$X$X$X$X$X[.[.[.[.}.'.`.`.J.K._.B.n d l d 2 % * +.2 n l t 3 u r * u y % r b <X&X1X0X*X0X*X&X&X&X#X'.'._.G.Z.o.O t u & - % = % p r = . t - + @XOXG.m.X.l.Z.^.^.`.`.'.`.'.'.[.[.[.[.[.#X%X%X#X=X%X#X*X%X*X%X&X&Xv.3X%X'.Z.V.GXGXGXGXGXGXGXGX",
"GXGXGXGXGXGXGXGXX.^.#X1XuXtX*X0X*X*X%X*X*X*X=X#X#X#X(.K.J.G.J.^.'.'.'.(.'.`.(.^.G.l.} m.G.#X9Xy.c g 2 g ,.,.,.2 4 y <.<.<.9.B.F.G.H._.`.'.[.[.[.#X%X&X*X*X1XyX.Xz 2 2 l l r - 2 J l l d r ) B r - & - - { L.`.'.[.[.`.'.}.[.[.[.[.[.[.#X#X#X&X&X&X*X*X=X0X*X1X0X1X1X*X*X#X[.}.'.'.}.}.#X$XOX[.[.[.[.'.`.`.`.`._.G.G.d.l d l z l t i - ; = q v l u - r u 2 2 d H 0X0X0X0X0X*X*X*X&X&X#X[.'.`.G.Z.m.: r d - @ u   t 3 = $ 2 % d % *.<X'.N.o.l.m.^.^.^.(.`.`.'.'.'.'.[.OX[.#X#X[.%X%X#X%X=X%X%X*X*X&X#XK.3X&X_.V.GXGXGXGXGXGXGXGXGX",
"GXGXGXGXGXGXGXGXGXF.'.&X0XuXrX*X*X%X%X%X%X0X1X1X1X%X%X#X(.J.G.G.^.'.'.`.`.`.`.^.G.N.o.u.N.].*X*Xy 2 ,.,.z j.,.= = ' <.<.<.,.h.F.G.G.G._._.'.'.[.#X#X=X&X&X1X1XqXW.d z g = r l C & l l l u m z l t i = 4 = = i.H.'.[.K.K.G.J.`.}.`.L.K.`.[.#X#X%X&X*X=X1X1X1X*X0XrX*X=X[.#X[.'.K.K.`.}.'.}.[.`.'.`.J.H.F.H.J.J.G.j.x d l d r { d l l d r - L - r % u u % p m z 4XqX0X*X0X*X#X*X*X&X%X#X].^._.Z.B.C C . d . r - % t % u + * r t ; 1XOXG.c.o.m.F.^.^.`.`.(.'.'.'.'.[.[.#X#X#X#X%X=X%X%X%X=X%X*X=X*X&XL.1X1X'.^.+.GXGXGXGXGXGXGXGXGX",
"GXGXGXGXGXGXGXGXGXl._.%X0XuXtX*X*X*X*X=X%X*X1X*X1X#X(.#XOX^.G.G.G.`.^.'.(.`.^.`.G.F.h.e.c.G.#XqXj.' ,.,.* e z . z ,.,.<.,.,.( c.F.G.G.G.K._.'.'.[.#X#X#X&X&X&X1XdX`.e.2 l z - r t z z l l j z d d d u i u   u m x.}.`.`.`.F.F.F.K.'.'.}.}.[.[.[.&X=X%X*X*X*X*X*X*X=X#X[.[.[.'.K.K.`.`.J.J.K.F.F.J.F.F.B.F.F.k.' u d l l l 3 p v.n l l l d - l % r r % - 3 f %XwX0X0X*X#X[.%X=X=X=X[.'.^.^.G.B.f.t r r r . d $ t % - = 2 % u r *.*X`.N.f.+.N.^.^.^.'.^.`./.`.'.'.[.[.OX[.#X#X%X#X%X=X%X%X%X*X%X%X&XJ.3X*X'.N.V.GXGXGXGXGXGXGXGXGX",
"GXGXGXGXGXGXGXGXGX{ _.[.1XqXuX*X*X*X*X*X%X*X0X1X0X%X'.'.OX#X'.J.G.G.^.'.`.`.^.`._.G.m.} h.N.'.&X$X( ( ( B & g + g u.,.,.,.<.,.] B.G.F.G.^._.`.'.[.#X$X=X%X=X*X&X1XfX^ z f * a i.z w.2.l l a l l l d l l 2 % d d g a F.K.[.`.`.K.G.`.[.[.`.}.[.[.$X%X=X=X*X=X*X1X*X*X#X[.}.'.`.K.`.K.K.K.J.F.K.K.K.F.F.F.x.n @ r d d 2 [ d f - t +.M.n u l l u + l * t r s  XeX3X1X%X#X[.=X%X=X%X#X`.G.G.Z.B.M.v d d d = = - i u   u . r % d u &X%XG.c.} c.G._._.`.^.'.`.`.(.OX'.[.[.[.#X#X#X#X%X#X%X%X=X%X%X#X[.'.}.1X%X^.l.GXGXGXGXGXGXGXGXGXGX",
"GXGXGXGXGXGXGXGXGXGXm.'.&X0XuX0X*X*X*X*X*X%X*X1X=X*X'.'.(.K.'.(.^.^.`.'.'.`.'.^._.G.G.k.] h.F.[.9Xg.} c . z 2 y q * ,.,.,.,.,.z h.B.G.G.G.K.K.'.'.'.[.#X#X#X&X*X*X1XdXV.- z 3 + r & r l 2.r 2.l d d d u i l d d 2 . d x o.H.K.K.K.F.F.F.F.G.`.}.#X#X#X%X&X*X=X=X=X*X=X#X[.`.K.K.K.K.K.J.F.F.F.F.D.x.} H * 1 + d a ` p p g.g.m d d t 3 d l l 2 - d + d s ].1X&X#X[.[.[.&X&X[.%X#X'.G.G.F.B.N.j K d.l d + u 3 % - % r = % r u C.%X_.N.o.+.N.G._.^.^.^.`.'.`.`.'.'.[.OX[.#X#X%X#X#X#X%X%X*X%X*X[.'.v.&X&X'.Z.+.GXGXGXGXGXGXGXGXGXGX",
"GXGXGXGXGXGXGXGXGXGXo._.#X1XyXtX1X*X*X*X*X%X*X*X*X'.^.^.%X(.J.^.G.G.^.`.^._.^.`._.^.F.N.} u.N._.&X9X- t 2 ,.$ c X l ,.,.,.,.y % = k.B.G.G.K._.'.`.'.[.[.#X#X=X&X=X*X<XgX_.: 1 t z a l % 3 = d.z d l l - & y l d . r d d 2 l 2.k.K.F.B.H.H.F.J.K.}.[.[.[.$X#X%X=X=X#X#X#X}.`.`.[.K.K.F.J.F.F.F.k.` l @ u + - - l 8 + t t t s f.S.9.d d l l 2 - l r = m %X1X*X#X{.[.[.'.%X_.'.[.'.^.^.G.Z.N.{ d u - m u = d u t . t % r + u } 1X[.G.+.} >.G.G.^._.^.'._.'.(.'.'.'.(.[.[.#X#X%X%X#X=X%X%X%X*X#X[.}.S.&X#X_.m.GXGXGXGXGXGXGXGXGXGXGX",
"GXGXGXGXGXGXGXGXGXGX*.G.[.&X0XxX0X*X*X%X%X*X*X*X*X%X#XJ.'.#XG.J.G.G.F.^.F.F.G._.^._.G.N.l.` h.F.'.3X}.* l l * y = ' ,.c ' ,.2 V u n B.F.G.G.G.^.`.'.`.[.#X#X#X#X$X*X*X<XdX#Xr.l l r ` C 2 3 & u d l d u 2 l l u . d d l s d d u z 3.p.k.F.F.H.F.J.K.K.'.[.`.}.%X=X#X}.'.'.'.#X[.}.K.H.x.i.3.c x d d % 2 = % d d r u l l l d t t K d.d u * 2 u - - n 3X1X&X*X#X[.'._.L.J.G.[.K.F.G.F.Z.B.l.a d d t t u r d u t @ d % - - f %X%X_.N.o.+.N.G.^.^._.`.^.`._.'.'.`.[.[.[.#X#X%X#X%X%X%X*X%X=X#X(.[.F.$X&X`.G.o.GXGXGXGXGXGXGXGXGXGXGX",
"GXGXGXGXGXGXGXGXGXGXGXl._.%X1XgX0X*X=X=X#X[.#X=X#X#X%X%X'.(.K.J.G.G.F.G.F.C.B.B.G.F.G.G.c.d.0.l.G.&XtX[ c * u + l ( y C 2.( c d z = ] B.F.G.G.J.`.`.`.'.'.'.'.'.OX$X*X*X1XtX,Xn t.r ` d u d u d d l d l l l l = = l d l $ t l l d d u l n 2.0.i.P.K.K.'.K.[.}.{.#X[.'.'.}.#X[.F.j.9.z z i d d l d - 2 + u % d l r z l - [ l d d d t d % u r - t w.1X1X&X&X#X[.'._.J.G.F.G._.F.F.G.G.B.l.j i g.g.d s u i d t % - r = - d m.&X'.Z.+.} l.F.^._.G.`.`.(.`.(.(.[.[.'.'.OX#X#X#X%X%X$X#X&X&X#X'.'.}.v.&X[.G.m.V.GXGXGXGXGXGXGXGXGXGXGX",
"GXGXGXGXGXGXGXGXGXGXGX>.G.[.*XqXxX1X*X#X[.[.#X#X#XK.`.#X[.`.^.J.G.F.G.G.^.B.B.B.B.B.B.Z.F.l.0.h.M.].*X8Xc . g $ c ( i V D.}.q.g * l l { B.G.G.G.J.`.`.`._.`.`._.].OX$X%X&X1X3XfXg.d v z j z l d d l d d d d u i l d d d . d d d l z l d d d d d $ x.K.`.`.'.'.`.K.`.K.'.#X#X} g d d d 2 ; d l n r = r = 2 r l l l y l C 3 B.z.l l d r = l . l E.3X1X*X&X&X[.[.[.'.G.G.F.H.G.N.F.H.B.c.u d u t : z 2 l t t t B * - d t B <XOXF.f.D o.N.G.^.^.^.`.`.`.'.'.`.[.[.'.#X#X#X#X$X#X$X%X&X&X&X[.'.'.H.$X&X_.m.o.GXGXGXGXGXGXGXGXGXGXGXGX",
"GXGXGXGXGXGXGXGXGXGXGXGXN._.%X1XdXtX*X=X#X[.#X#X'.`.K.`.[.K.(.J.Z.G.G.F.G.G.G.B.c.B.m.B.B.c.u.3.l.H.[.0Xf.= - t ( c z r ( z l.- c c 2 2 w.F.G.G.J.^.^.^.G.^.`.^.`.OX$X%X%X&X1X1XfXD.m z a z d l d z d l d l % & z u d - * d d d r S m l d d d t y c.J.J.K.{.[.`.K.`.J.'.[.'.c.0.n l d d 1 d % 8 2 l = t 2 d l d l i d t u t a M.v.d % r 1 f OX3X1X&X=X=X=X#X'._.G.G.J.J.'.F.c.F.B.D.H K v d d 1 u - x r d d t d - d z OX#XB.>.[ [ l.B.G.F._._./.^._.`.`.`.(.[.[.#X#X#X#X%X#X$X*X&X#X[.'.'.'.S.&X[.G.c.G GXGXGXGXGXGXGXGXGXGXGXGX",
"GXGXGXGXGXGXGXGXGXGXGXGX} G.'.1XtXuX0X*X=X#X[.#X#X#X'.`.#X'.[.`.F.Z.Z.Z.`.J.G.B.B.B.c.c.c.c.h.] 0.c.G.$XtXj.* c ( n 9.( ( ( ( z g 2 u z r } F.H.J.J.G.G.G.G.^.^.^.'.$X$X&X=X&X&X1XyX8X_ r 2.d d d 8 n z l l v 2 l l r p u d z z y 4 X.j.H l d d u c.H.J.K.K.K.K.K.K.'.`.L.L.o.3 - d d d f u C * z g % l - n l d d - n l z n d d r d 2 d ^ <X1X1X&X&X&X$X#X'.'._.G.^.'.[.G.G.G.F.B.G i < - d t d r r a r d d d t t r Z.%X^.l.o.G o.B.^.^.N._.^._.`.'.'.(.[.[.(.[.#X'.#X#X$X$X%X$X#X'.[.[.`.`.`.&X#XG.+.GXGXGXGXGXGXGXGXGXGXGXGXGX",
"GXGXGXGXGXGXGXGXGXGXGXGXGXc.'.&X0XgXqX0X*X*X=X*X*X[.1X%X[.'.#X[.G.G.B.B.G._.Z.C.B.B.c.c.c.z.c.e.` e.c.`.*XyXq.( ( % G ( ,.c c y 2 c c = r l j.G.G.G.G.C.G.G.G.^.`.'.[.#X%X=X&X&X*X*X8XhXf.a.c d - L - u e.z d z d d p & u u z.d d t d r J D.g.l u x.H.G.J.J.`.'.`.J.'.'.J.J.X.= l d d d d d u l u * v x u a l l d - ..v % F d d : z i ].9X*X*X*X&X%X$X#X[.[.[._.G.^.`.'.K.^.^.G.{ d t - d u d u r d y t y d u d u [ *X`.m.o.G [ l.G._.G.^.'.F.B.G.G.`.'.'.^._._.`.#X#X$X#X$X$X&X'.[.#X#X$X`.eX1X#XG...GXGXGXGXGXGXGXGXGXGXGXGXGX",
"GXGXGXGXGXGXGXGXGXGXGXGXGXe.G.[.=XuXuXrX1X*X#X{.[.'.(.*X1X*X*X#X`.G.F.Z.B.G.B.B.F.M.B.F.x.c.l.h.} 3.h.F.OX1X].c c F 8 Z.v.z 2 y z g = x l 2 y c.G.F.F.F.G.G.G.^.`.'.[.[.[.#X#X&X&X*X*X1XfX8X_ d d u z ; @ d d d d l d 2 l 3 2 B.z d d d u 1 F M.9.F._.K.L.L.J.`.`.'.}.[.`.K.+.l l d d d l l d y - d & v d t l d d 2 3 * H M B.9.t g.3X3X&X*X*X&X=X#X#X[.[.'.^.G.F.F._.J.G.G.G.l.g.m d d d d d d y u 3 u y u d d r OXOXF.d.[ [ o.B.G.G.B.G.^.Z.^.G.G.'.^._.G.'.^.'.&X#X#X&X&X%X%X#X%X%X#X#X{.1X=X'.l.GXGXGXGXGXGXGXGXGXGXGXGXGXGX",
"GXGXGXGXGXGXGXGXGXGXGXGXGXGXc.'.#X0XgXuX1X0X=X#X'.[.`.'.*X#X[.[.'.G.Z.Z.B.F.F.F.B.M.B.c.c.c.z.j.o.` ` c._.#XtXS.) z c d j s l z 2 2 l g = g z ' c.G.G.G.G.J.J.J.`.'.].'.[.#X#X=X$X$X*X*X1X3XsX~.z t 2.f j l d d d l d l d v - y g.f.h.z d d d u 1 ^.=X[.[.[.}.%X#X=X'.H.`.`.h.g d d d d r e.- r d t 3 - d y l d d d i d r d r w.@X3X*X*X*X&X=X=X[.[.[.`.'.G.G.N.m.B.M.c.F.G.o.2 d g.h.] H d u u 1 l : z y g.{ v E.'.F.o.{ D [ l.B.G.G._.^.^._.F.G.[.'._._.^.[.[.[.#X'.#X&X#X&X#X&X&X[.'.H.1X#X'.G.o.GXGXGXGXGXGXGXGXGXGXGXGXGXGX",
"GXGXGXGXGXGXGXGXGXGXGXGXGXGX[ G.#X*XyXxX0X0X0XrX#X=X%X#X=X*X*X=X'.G.G.F.B.B.B.G.B.c.B.N.F.M.c.l.h.u.` u.z._.$XyX-XH.n x.c c z = z c 2 2 ' y h.c ' k.F.G.G.G.J.G.G._.`.'.'.[.[.$X$X$X=X&X*X1X<X9XfXf.n z v z d d w.n d d u d d d t 1 i f.D.n d u u (.=X=X%X&X&X&X=X=X[.[.`.K.H.e.o.z d d M . d x l y % d d 3 j.d d d d d n ) _.3X&X*X*X&X&X$X#X[.[.[.[.'.'.J.G.G.F.N.c.F.B.{ u u d d t 3 & - d d r l r u u t 1 Q.#XF.+.o.G [ >._.'.`.[.[._.G.C.^.#X[.[.#X#X'.[.&X&X#X].'.#X#X#X'.1X=X[.`.=X&X^.F.+.GXGXGXGXGXGXGXGXGXGXGXGXGXGXGX",
"GXGXGXGXGXGXGXGXGXGXGXGXGXGXGXF.'.*X0XzXuX0X1X0X%X#X#X*X%X#X=X*X1X'.G.G.B.B.F.B.B.N.N.G.G.F.F.N.l.h.} 3.h.N.'.&XtXs M + 2 f.= z x = g ,.c a 3 k.( ( z.D.H.G.F.N.N.G.G.`.`.'.[.[.#X#X#X=X&X&X*X1X3XdXyXj.f z d r < g.l d d d d d d d u t t f.S.w.t '.&X*X=X&X=X=X&X&X#X'.`.'.B.1 & 1 d d u - d 3 G - r u d p   f 9.d d f {.tX1X&X$X=X=XOX[.[.[.[.`.[.`.`._.G.G.F.N.l.B.F.K g.r.f t d d t : u d d u ; u r d u ] 0X(.N.o.[ [ +.G.G._.'.'._.G._.^.[.OX`.'.'.`.'.<X1X&X&X&X&X#X[.[.%X&X#X#X].eX%XF.m.[ GXGXGXGXGXGXGXGXGXGXGXGXGXGXGX",
"GXGXGXGXGXGXGXGXGXGXGXGXGXGXGXh.K.=XtXyXxX0X0X0X0X*X*X#X=X[.#X%X1X&X#X[.Z.G.J.M.Z.B.B.B.B.m.F.M.c.h.u.] ` k.F.[.1X1Xa i p + c r r z z 2.3.f r m f.9.z g.F.M.m.l.N.N.G.G.`.'.'.[.OX#X#X=X#X&X&X&X&X&X3XyX9X_.c t i _ M.S.g.n ) d d d d d v n 1 f k [.&X&X&X=X[.$X%X=X[.[.#X$X`.d i d u d d l r p = + u d d d - : t d. XtXqX0X=X=X&X&X'.`._.K._.'.`.`._.K.G.G.G.B.B.c.c.G d t m g.g.w.d d d d d u r . d = d b &X#XB.+.D G h.N.C.F.J.'.'._.'.'.[.^.'.'.#X`.'.#X*X#X%X&X&X=X%X[.#X[.'.=X$X=X1X'.c...GXGXGXGXGXGXGXGXGXGXGXGXGXGXGXGX",
"GXGXGXGXGXGXGXGXGXGXGXGXGXGXGXGXF.#X0XtXzXxXtX0X0X*X0X0X*X*X#X*X1X&X*X=X'.G.'.Z.N.B.`.G.c.c.c.c.c.k.+.} } 3.c.F.[.1X-X( t x = u ' ( y $ w.) ( ( ( d 1 < ] c.c.l.+.c.c.F.K.`.`.'.'.'.{.[.#X#X=X#X&X&X&X1X<XtXfX#X_ z l d _ ; i d t d d t @ : u d y '.=X#X#X[.%X#X#X#X[.[.#X{.`.d l d d d l 2 - d - * d d l d z D.8XtX8X*X0X=X0X1X*X=X[.`.K.G.J.K.K._.K.G.G.B.M.c.c.m.{ x.) d d d t m M.j.z G m d * - u + b *X#XG.>.[ D o.F.N.F.G.^.'.'.'.[.'.^.G._.[.`.^.`.'.$X#X%X$X%X#X#X&X1X&X[.'.L.&X'.F.>.J GXGXGXGXGXGXGXGXGXGXGXGXGXGXGXGX",
"GXGXGXGXGXGXGXGXGXGXGXGXGXGXGXGX} ^.*XtXdXmXyX0X0X0X0X1X*X=X*X*X1X&X*X=X[._.'.`.Z.Z.K.'.G.l.c.k.c.c.c.h.u.` 0.j.M.`.qX=Xu = z ( ,.( d A F J.K.3.( ( ( d * H h.+.l.l.c.N.J.`.`.`.`.{.'.[.{.#X#X$X=X&X&X&X*X*X8X9XjX9XM.d t N 1 d d z b.t J * d t g '.#X#X`.}.#X[.[.}.`.[.{.{.`.b.d l l d * d d d % t d d F ].yXtX&X3X1X{.*X*X*X&X#X[.[._.G.G._.K.K.K.G.G.G.B.B.B.N.m d d f.D._ d d d t f f.- i u * d = : @X*X'.N.o.G [ l.G.C.G.^.[.[.#X#X[.[.^.`.#X'.^.`.'.OX#X%X#X$X$X%X%X*X&X[.$X`.=X%X^.m.o.GXGXGXGXGXGXGXGXGXGXGXGXGXGXGXGXGX",
"GXGXGXGXGXGXGXGXGXGXGXGXGXGXGXGXGXx.'.1XwXlXzXqX0X0X1X1X0X0X*X%X&X1X1X*X%X`.#XOXZ.B.G.F.`.F.l.c.c.c.l.h.u.} 7.} h.F.&XwXE.( 2.,.( ( z ( ( ( ) j.B.D.( z r l n d.l.c.l.c.F.G._.`._.'.'.'.'.[.[.{.$X$X$X=X&X&X*X*X1X1XtXsX1X~.w.d d i + r % d u u g `.[.[.'.[.}.#X[.`.'.[.[.[.'.; t - A - d d z 1 n f.(.9XsX8X*X*X#X$X[.[.[.[.[.'.`.J.H.G.G.K.'.K.G.G.F.F.N.N.z.g.v g.m d d d _ M.j._ d d 1 i - * * t 2 E.&X'.G.+.[ [ +.N.G.N.J.[.#X#X'.`.'.G.G._.^.G.'.`.#X*X%X$X#X=X=X%X=X&X&X&X$X=X0X#XZ.l.@.GXGXGXGXGXGXGXGXGXGXGXGXGXGXGXGXGX",
"GXGXGXGXGXGXGXGXGXGXGXGXGXGXGXGXGX>.F.'.*X0XmXuX0X0X0X0X0X1X0X=X&X%X&X&X1X%X`.[.`.N.G._.G.G.N.c.l.h.c.c.h.h.` 3.0.h.J.&XyXD.K ( ,.t e.z ( ( ( z z l 9.c - 2.l * } c.l.l.F.F.G.J.K._.K.'.'.'.[.[.[.[.[.$X$X&X&X&X*X*X*X*X*X3XdXhX9X~.H * u d d v ` `.[.[.#X=X%X[.#X[.#X[.}.`.Z.- u C : z z v.@XyXfXsXqX8X3X=X=X=X#X$X{.$X=X[.}.[.`.`.G.G.G.`._.H.F.F.F.F.B.c.F s - f f.S.w.d d d f _ D.g.v _ d a ; * E.&X'.G.+.} [ +.F.`.'.'.[.[.'.'.^.`.'.'.(._.`.'.'.`.&X*X#X#X&X#X%X%X[.'.#X#X].0X&X'.m...GXGXGXGXGXGXGXGXGXGXGXGXGXGXGXGXGXGX",
"GXGXGXGXGXGXGXGXGXGXGXGXGXGXGXGXGXGXk.G.#X0XyXxXrX0X0X*X*X1X1X*X1X=X*X*X1X*X#X_.'.B.B.J.F.F.F.h.l.k.h.l.k.h.} 0.3.u.B._.1XgXf.( c 3 M L.q.( ( ( ( l b c u v z d y u.l.c.B.F.G.J.J.J._._.`.'.}.'.{.[.#X{.#X$X$X$X$X&X*X*X*X*X*X1X1XtXfXgX9X+XA.^ g (.[.[.#X=X=X%X#X#X#X[.`.`.`.} C.~.8X9XdXtX9X1XtXeX0X3X$X#X=X#X{.{.'.{._.`.$X`.'.'.'.J._.}.G.B.F.G.F.B.h.z j.h.d d l d _ D.j.d f d d f * * d d d C.1XOXJ.c.o.} o.m.^.'.(.[.#X[.'.^.`.`.`.^.^.^._.#X%X%X&X=X#X#X%X&X&X%X#X%X&X#X[.&X`.B.o.J GXGXGXGXGXGXGXGXGXGXGXGXGXGXGXGXGXGX",
"GXGXGXGXGXGXGXGXGXGXGXGXGXGXGXGXGXGXV F.'.*X0XxXtX0X1X*X1X1X*X=X&X3X%X*X1X<X&X&X&XOX`.^.`.^.G.F.>.c.k.>.c.c.k.o.} <.h.M.'.3XdXH.c d y d { f.v.t.c z k c z v c c l = x j.N.F.F.J.G.J.J.K.K._._.'.`.'.'.'.{.{.#X$X$X$X$X$X&X&X*X*X*X&X8X<X*X*X1X3X0X#X[.[.[.[.#X#X[.}.`.`.'.'.*X0X1X*X3X1X<X*X*X1X1X3X1X$X*X1X$X`.`.`.`.`.[.[.`.L.`.L._._._.`.F.c.G.F.c.e.g u d v h.g.g.l d d ) g.g.w.d t v r u u Z.1X#XG.m.o.} h.N._.`.'.[.[.[.^.`.^.`.`.'.^.'.^.'.#X[.&X&X#X%X#X=X%X&X&X=X&X1X{.1X#XF.+.[ GXGXGXGXGXGXGXGXGXGXGXGXGXGXGXGXGXGXGX",
"GXGXGXGXGXGXGXGXGXGXGXGXGXGXGXGXGXGXGXi.^.[.&XqXmX0X=X0X*X0X0X=X`.=X1X[.%X&X1X&X=X=X%X[.(.[.#X'.F.>.x.F.^.N.m.c.h.9.3.} F.#X&XgXS.( ( ( ,.( t d.D.c v z z ; } c = = t z u.B.F.B.B.G.G.J.K.J.`.`.`.'.`.'.'.}.'.[.[.#X#X#X#X=X#X=X*X*X*X*X#X#X{.{.[.[.[.[.'.[.'.J.`.}.'.'.'.#X=X*X1X*X1X1X0X0X0X=X=X{.'.#X*X=X[.[.[.$X=X$X$X`.G.L.K.H._.B.G.F.B.G.B.j.v g.] d d l d d v M.D.) d d d m M.S.' y = >.1X'._.M.o.} +.F.G.G.^.J.(._.(._.`.`.`.`.'.'.#X[.%X(.#X&X[.%X#X#X=X%X&X%X[.1X{.0X3X(.N.o.GXGXGXGXGXGXGXGXGXGXGXGXGXGXGXGXGXGXGXGX",
"GXGXGXGXGXGXGXGXGXGXGXGXGXGXGXGXGXGXGXGXB.^.%X3XfXgX1X*X0X0X*X1X#X[.#X#X=X&X#X#X'.[.#X'.[.[.#X#X`.^.F.G.^.F.B.c.N.l.} 3.l.G.'.&XsXL.,.( ( ( ( c a c j c l M + c v & z l r y x.B.F.F.H.G.J.J.J.J.J.K.K.`.`.'.'.'.}.[.[.#X#X#X#X#X#X#X#X#X=X#X[.[.[.[.[.[.[.}.[.}.K.K.F.K.'.'.}.#X*X1X*X0X*X=X#X#X[.K.'.[.$XK.K.`.[.$X#X[.[.[.`._.G.F.F.c.G.B.B.B.e.t : d d.H.g.d.d d H z d h.D.e.d d d d +.2 ).0X#X_.N.d.} c.F.F.G.G.^.J.J.^._.`._._.'.'.'.'.[.#X'.[.#X#X%X=X%X%X&X=X&X#X[.#X{.qX&XG.>.[ GXGXGXGXGXGXGXGXGXGXGXGXGXGXGXGXGXGXGXGX",
"GXGXGXGXGXGXGXGXGXGXGXGXGXGXGXGXGXGXGXGX} F.'.&XeXlXuX0X0X1X1X0X1X=X#X#X'.[.'.[.#X[.[.J.J.J.'.(.G.>.>.F.J.G.^.B.c.c.j.0.0.k.B.`.&XtX`.( c r.( c - 3.r x.,.t z z l l l 2 2 l 2 ] z.B.F.G.F.G.G.J.G.K.K.`.`.`.`.`.(.'.'.{.[.[.{.#X#X#X#X#X}.'.}.'.'.[.}.[.[.'.'.`.K.J.'.K.'.}.#X#X=X=X*X#X'.'.K.K.J.K.J.'.'.'.[.#X{.#X[.[.[.`.`._.K.G.F.F.B.l.w.a F H d t t t t & t t ; - d d u H g.j.9.d l ^.1X'.G.B.h.} >.c.G.G.^.^._.^._.^._.`._.'.'.'.'.[.'.^.G.'.#X#X#X[.#X#X#X#X#X[.#X}.&X=X^.l.[ GXGXGXGXGXGXGXGXGXGXGXGXGXGXGXGXGXGXGXGXGX",
"GXGXGXGXGXGXGXGXGXGXGXGXGXGXGXGXGXGXGXGXGXh.G.[.0XdXlXeX0X1X=X1X0X1X#X[.'.'._.H.`.#X#X'.G.F.G.G.F.G.F.F.m.Z.Z.F.c.c.M.c.} 0.j.F.`.#XtX$X= % ( ,.r ] r & y c c ( } ] = u l l % t + } B.F.F.F.F.J.G.G.J.J.J.J.`.K.'.K.'.K.'.'.}.'.[.}.'.'.'.'.'.'.'.}.'.'.'.}.'.K.#X%X#X#X#X#X=X#X=X#XK.[.=X#X[.`.[.[.`.K.`.#X[.[.[.[.[.'.`.K.J.^.G.G.z.l.h.u u a * K S.z.z d t 2 t * i u d d d u d d K B.#X&X'.G.m.o.} l.G.G._._._._._.`.`.`.`.'.'.'.'.'.[.[.[._.'.[.%X=X%X=X=X#X[.[.[.#X&X].&X'.N.o.] GXGXGXGXGXGXGXGXGXGXGXGXGXGXGXGXGXGXGXGXGX",
"GXGXGXGXGXGXGXGXGXGXGXGXGXGXGXGXGXGXGXGXGX] c.`.=X0XmXxX0X0X0X0X1X*X&X=X}.'._._.K.#X#X(.J.J.F.G.F.N.m.c.B.F.F.^.B.N.N.F.k.u.3.k.N.'.#XqXtXp ,.,.z k f 3 z c c u $ * z z l = r $ * = i i.x.F.F.F.G.H.G.J.J.J.J.K.K.J.K.K.K.`.(.'.'.'.'.}.'.'.'.'.'.'.'.'.}.'.'.K.[.#X#X#X#X#X#X#X=X}.`.`.'.K.[.[.[.[.[.K.K.H.J.J.`.`.G.G.F.F.B.B.F.F.l.b u t t u d t t f l.D.m r * u l d d d l l d f _ 1X=X'.G.c.h.} >.B.G._._._.`.^.`.`.`.'.`.'.'.'.[.'.'.'.].(.%X%X&X#X&X1X0X*X$X&X=X1X].0X[.G.l.[ GXGXGXGXGXGXGXGXGXGXGXGXGXGXGXGXGXGXGXGXGXGX",
"GXGXGXGXGXGXGXGXGXGXGXGXGXGXGXGXGXGXGXGXGXGX} G.'.=XtXvXuX0X1X=X$X#X[.[.#X'.'.^.[.'.`.F.G.`.J.J.N.c.c.c.c.m.B.G.F.N.F.G.F.l.u.0.k.B.J.#XeX9Xx.c c p 3.2 N z r.g V l l y = l l X l t d t s } c.F.F.G.F.F.G.G.J.J.J.K.K.K.K.K.J.K.K.'.K.K.K.'.K.'.K.'.`.'.K.'.'.[.[.'.#X{.'.[.#X{.#X'.`.K.H.`.`.'.[.[.'.`.F.B.H.J.L.F.F.F.c.l.j.k.i.b % t u d i d d d d d d u F 1 d d d d d d v z._ _ <X@X(.F.c.o.} c.F.G.^._._.^._.(.`.`.'.`.`.'.'.'.[.[.[.#X'.OX&X[.[.'.[.%X=X#X#X&X1X=XyX3X^.l.X.GXGXGXGXGXGXGXGXGXGXGXGXGXGXGXGXGXGXGXGXGXGXGX",
"GXGXGXGXGXGXGXGXGXGXGXGXGXGXGXGXGXGXGXGXGXGXGXj.G.#X1XiXlX1X*X=X$X[.'.[.%X*X'.G.G.[.'.J.J.'.'.^.G.G.F.F.F.m.B.Z.B.C.G.G.F.F.c.u.3.k.B.H.[.tXgXk.( + A p 7 = $ y l x.2 r c l y = l d l l r u u w.x.F.F.F.F.G.F.G.J.J.J.J.K.F.F.J.F.K.K.K.K.'.'.K.`.`.`.`.'.K.`.'.'.K.'.K.}.#X#X[.'.K.'.'.K.J.K.G.F.K.K.`.J.J.G.L.H.F.B.x.c.j.w.x u r + u u d - t d d d d d d d d d d d l u - t t z.*X]._.F.l.} } c.F.^._.G.^.`.`.`.`.(.`.'.`.'.'.[.'.[.[.#X#X#X$X*X1X&X%X%X#X#X#X$X1X*X9XwXOXB.+.V.GXGXGXGXGXGXGXGXGXGXGXGXGXGXGXGXGXGXGXGXGXGXGX",
"GXGXGXGXGXGXGXGXGXGXGXGXGXGXGXGXGXGXGXGXGXGXGX:.B.`.&X0XzXzXeXrX=X*X#X%X}.[.#X[.#X(.[.J.^.*X%X'.`.OX/.^._.G.F.G.G.G.G.G.G.J.F.c.i.3.j.c.J.'.*XdXv.B : . r s w l 2 . y c l y 2 l l l g l z l - % g p.k.B.x.H.H.J.F.G.F.F.F.F.F.x.F.G.J.F.K.K.K.K.K.K.K.K.K.K.J.`.K.K.K.'.[.{.[.[.'.K.'.J.J.J.J._.J.K.J.J.F.G.F.F.F.F.x.c.r.b u u d * 2 d d d @ t u t d d d d d d d d j } * t d -.<X=X`.B.o.} } c.B.G.^.G._.`.^.`.`.(.`.`.'.'.'.'.'.[.[.[.[.#X#X#X%X=X<X0X0X0X0X=X&X3X}.3X%X^.c.[ GXGXGXGXGXGXGXGXGXGXGXGXGXGXGXGXGXGXGXGXGXGXGXGX",
"GXGXGXGXGXGXGXGXGXGXGXGXGXGXGXGXGXGXGXGXGXGXGXGX} G.(.*XwXmXzX0XeX0X0X*X=X#X[.[.$X*X1X$X(.#X#X#X(.[.'.^.'./.G.G.G.G.G.^.J.G.J.G.c.h.6.u.c.F.`.&XtX Xj + ( % d ' v r z g - r z l l l l l u 2 G z l t d v { k.x.B.F.F.F.x.v.x.x.x.x.x.x.H.H.J.F.K.J.H.J.K.J.L.G.L.J.J.K.K.J.J.J.K.K.K._.G._.`._.J.K.J.F.c.c.F.F.F.c.u.H v u u d d - - u d d r % u u u u ] v d d d d l 3 + d _ +X<X%XK.F.o.} } c.N.G.^.J.^.^.^.`.`.`.(.`.'.`.'.'.[.'.#X[.[.#X#X%X$X$X$X$X<X1X1X3X8X*X{.1X#X_.N...GXGXGXGXGXGXGXGXGXGXGXGXGXGXGXGXGXGXGXGXGXGXGXGXGX",
"GXGXGXGXGXGXGXGXGXGXGXGXGXGXGXGXGXGXGXGXGXGXGXGXGXi.G.#X0XyXBXgXqX0XeX0X0X*X1X0X0X*X0X0X*X'.[.`.`.[.(.[.`.G.N.F.F.F.^.J._.G.J.G.F.F.h.0.6.k.F.J.'.=X9X{ c % c c c l u - c l z l z z z 2 r 2 $ r u d l % . * i r.k.c.c.k.k.k.x.k.c.k.x.H.F.G.F.K.G.G.G.H.G.F.G.F.F.F.F.F.F.J.F.F.F.G.G.K.J.L.L.G.J.F.F.k.k.B.k.0.l u d ` n d d l 3 3 d d u r r d l d r % h.l d d d d 1 d M.1X&X'.G.c.} [ o.h.F.F.J.J.^.J._.`.`.`.'.'.'.'.'.'.'.[.[.[.#X#X#X#X$X%X%X*X%X$X*X*X*X*X=X8X=X`.B.o.+.GXGXGXGXGXGXGXGXGXGXGXGXGXGXGXGXGXGXGXGXGXGXGXGXGX",
"GXGXGXGXGXGXGXGXGXGXGXGXGXGXGXGXGXGXGXGXGXGXGXGXGX>.k.^.=XqXfXmXtXtX0XtX0X0X*X0X0X1X*X1X*X*X#X`.^.G.G.G.^.G.F.G.G.G.^.^.J._._.G.J.G.F.h.u.3.j.c.`.`.#XuX_.r ' c x 2 2 z z z r.3.z l * u l - 8 l l l r C 2 d t d k ' 0.i.i.u.k.k.k.k.z.k.x.F.F.F.F.F.F.F.F.F.H.F.F.F.F.F.F.F.F.F.F.F.F.H.F.F.B.F.F.F.o.} ] u % l d d u + 2 d m l u r d d * = t l n d t 7 i f.S._ d d n '.3X=X_.B.h.} } h.c.F.G.^.^.J._.(.`.`.'.`.`.`.'.'.'.'.[.[.'.#X#X#X#X#X&X$X$X%X$X*X*X*X*X=X&X&X'.B.l.[ GXGXGXGXGXGXGXGXGXGXGXGXGXGXGXGXGXGXGXGXGXGXGXGXGXGX",
"GXGXGXGXGXGXGXGXGXGXGXGXGXGXGXGXGXGXGXGXGXGXGXGXGXGX] c.[.1XwXlXmXtXtX0X0X0X0X0X0X0X1X*X*X=X*X'._._.[.`.`.#X`.G.G.G._._._._.G.`.G.G.G.F.c.u.3.p.j.j.H.`.9X<X] e 3 l c z z - f f.[ 2 l l d % 2 z l - r d l d d u g y y t x g ` i.p.i.j.j.x.F.x.x.H.x.x.F.F.x.B.S.F.F.x.F.x.F.x.F.F.x.x.x.k.k.j.} ` ' g u d 1 g p n d t m t r p u d d d d a ; t = L v d d d u r L j.z.%X*X'.G.M.l.} } o.c.F.G.G.^.^.^.^._.`._.`.`.'.'.'.'.'.[.[.'.#X#X#X#X=X#X$X$X$X*X&X*X*X*X$X=X0X#X^.M.} GXGXGXGXGXGXGXGXGXGXGXGXGXGXGXGXGXGXGXGXGXGXGXGXGXGXGX",
"GXGXGXGXGXGXGXGXGXGXGXGXGXGXGXGXGXGXGXGXGXGXGXGXGXGXGX] F.(.&XwXmXlXwX0XqX0X0X*X1X1X1X1X1X1X1X*X'._.^.#X[.(.`.G.G.G._.J.`._._.J.G.`.G.G.F.c.u.3.y.u.h.x.K.=XdXOXx c z u ; l z z z l l d d X d y % l l d l r.z d u d u u u + r - % d 2 v ` y.k.x.k.k.c.x.x.x.x.x.S.B.x.x.x.k.k.k.i.i.2.n z t # r r h.u d d d p C * d d r n r p d d d d d d d d C * @.D.t.l d d ] &X1X#X_.B.c.e.] } h.N.G.G.^.J.J.`.^.(.`.`.`.`.`.'.'.[.[.#X'.#X#XOX$X#X#X$X$X$X&X*X*X*X*X&X*X{.3X&X`.^.+.GXGXGXGXGXGXGXGXGXGXGXGXGXGXGXGXGXGXGXGXGXGXGXGXGXGXGXGX",
"GXGXGXGXGXGXGXGXGXGXGXGXGXGXGXGXGXGXGXGXGXGXGXGXGXGXGXGXi.G.[.1XyXBXxXeXtX0X0X0X0X*X*X1X1X*X*X*X#X_.G._.J.G.G.G.G.G.`.`._._.J._.K.^.G.G.F.c.i.u.4.3.y.j.x.K.#X0XtXr.y - i.c z z l l l l 2 % = - l l d d 2 : e.l d u u g g % l % 2 - + 8 . t t 1 2 2 t z i l n n s ( z r g x g g t t t - L * u u ; + r r h.l 1 - u z l r n d a l d d l d d d d d d t r L B.w.g.1X&X[.G.B.c.e.` o.c.F.G.J.J.^.J.G.J.^.`.`.`.`.'.`.'.'.'.'.[.[.[.#X$XOX$X#X$X=X&X&X%X<X*X*X&X=XtXeX&X^.l.f.GXGXGXGXGXGXGXGXGXGXGXGXGXGXGXGXGXGXGXGXGXGXGXGXGXGXGXGX",
"GXGXGXGXGXGXGXGXGXGXGXGXGXGXGXGXGXGXGXGXGXGXGXGXGXGXGXGXGXz.G.[.0XwXmXyX0X0X0X0X1X*X*X=X0X0X1X*X&X[.^.G.[.#X'.^.^.G.`.`.`.`.`._.`.J.J.J.F.F.F.k.u.u.7.3.p.x.J.'.$XtX>XJ ; z z z l l l l $ t % l d d d l f ; _ z.v.H l 2 2 l r % u + 2 t r m d d r t y y r d 2 = u u = r l l y u u d d p % d d d & - d 3 & r d y 9.% C u j l a d d u B n d d d d d d d d g.+X1X#X_.F.c.u.} } h.m.F.G.G.^.^.^.J.(.K.K.`.`.K.'.(.'.'.'.[.[.[.#X#X#X#X$X$X$X$X%X&X&X*X*X*X<X=X3X3X&X^.m.} GXGXGXGXGXGXGXGXGXGXGXGXGXGXGXGXGXGXGXGXGXGXGXGXGXGXGXGXGX",
"GXGXGXGXGXGXGXGXGXGXGXGXGXGXGXGXGXGXGXGXGXGXGXGXGXGXGXGXGXh.B._.[.*XyXmXuX0X0X=X=X0X0X0X=X*X=X=X%X&X#X`.[.%X#X#X`.^.`.`.`.`.`._._.J.J.G.F.F.F._.G.k.e.3.6.o.k.F._.`.].tX%X9.n v.' z z l + = = l l d d l 9.z l l t d.3 u l - y l r - d l l i m.H.H b.l l g = r l y = d r } u d u u u d t t d d u + l l d s r y 3 + { % l i l y n l r A m.H.2.l l z z g.<X3X#X_.G.c.l.] } } h.F.G.G.G.G.^.^.K.K.(.`.'.(.`.'.'.'.'.'.}.[.[.[.[.#X#X#X%X$X$XOX$X&X&X&X*X*X$X3X0X%XG.l.[ GXGXGXGXGXGXGXGXGXGXGXGXGXGXGXGXGXGXGXGXGXGXGXGXGXGXGXGXGXGX",
"GXGXGXGXGXGXGXGXGXGXGXGXGXGXGXGXGXGXGXGXGXGXGXGXGXGXGXGXGXGX] F._.#X0XfXmX0X*X0X*X=X*X0X0X=X#X&X&X*X*X#X'.%X[.`.`.G.J.J._.`.J.`.J.J.G.F.J.J.c.J.J.K.c.p.} 7.p.k.k.B.F.'.*XyX~.a n.S.l d g . t l d d d - C c d u d l z g = u u = y l l u % u t 1 p % = o.% t g - - d d ; i f.l d d d u d d d d - 2 t [ u r = - ; 2 r j d = H.r n d d - d m B.K.m j.@XyX3X[.J.l.j.u.' } o.c.F.G.G.G.J.J.^.J.(.(.K.`.`.'.'.'.'.'.'.[.[.[.[.[.#X#X#X#X=X=X'.'.[.=X&X=X=X=X8X9X&X^.m.} GXGXGXGXGXGXGXGXGXGXGXGXGXGXGXGXGXGXGXGXGXGXGXGXGXGXGXGXGXGXGX",
"GXGXGXGXGXGXGXGXGXGXGXGXGXGXGXGXGXGXGXGXGXGXGXGXGXGXGXGXGXGXGX0.F.K.#X0XgXmX0X0X0X0X0X0X0X0X1X0X0X&X#X'.^.`.'.(.`.G.G.F.F.G.G.F.F.F.G.F.G.J.F.c.x.c.F.c.k.o.6.7.0.j.B.F.`.OX5XyX XX.r ; = % l l l l d a B l.z.g.l l r 2 l r 2 d l l 2 2 l l d d a 2 4 % l g - u d x n d i f d.f.g.d d d d d d % u 2 3 r - . r % l u y d : & r F 9.l d d l l w.@X3X1X[._.B.l.h.] } } c.F.G.G.G.G.G.J.^.J.J.K.K.(.`.`.(.(.'.'.}.'.'.[.[.[.#X#X#X%X#X%X#X'.'.#X%X'.'.{.$X3X#XG.m.} GXGXGXGXGXGXGXGXGXGXGXGXGXGXGXGXGXGXGXGXGXGXGXGXGXGXGXGXGXGXGXGX",
"GXGXGXGXGXGXGXGXGXGXGXGXGXGXGXGXGXGXGXGXGXGXGXGXGXGXGXGXGXGXGXGX} F.(.&X0XfXmXeX*X*X[.#X&X0X0X=X%X0X1X*X$XOX[.^.'.`.G.G.G.F.F.G.J.G.G.J.F.G.G.c.F.G.J.F.F.F.x.+.y.3.i.z.z.B.[.1X8XtX<Xd.y ` z l 2 e.l d d d d m V.= t g = y l l g = t l d d u d u l t r 2 = d u d . H n d d t t f n.v.z d d t = d % = l r = + t l d i l t ; u + ; d l c M.3X0X%X{.J.B.z.h.0.` u.l.c.G.G.G.G.J.J.J.^.(.K.`.(.`.'.'.'.`.'.'.'.'.[.'.'.[.#X[.#X#X#X#X#X[.[.#X=X[.[.$X=X&X[.J.M.} GXGXGXGXGXGXGXGXGXGXGXGXGXGXGXGXGXGXGXGXGXGXGXGXGXGXGXGXGXGXGXGXGX",
"GXGXGXGXGXGXGXGXGXGXGXGXGXGXGXGXGXGXGXGXGXGXGXGXGXGXGXGXGXGXGXGXGXu.F.[.=X0XvXbXqXqX0X0X*X0X*X[.#X%X%X&X&X[.[.`.[.[.G.G.J.`.`.[.#X'.`.J.J.J.J.G.J.F.J.J.J.J.K.F.l.i.3.y.h.j.c._.{.].$XtX3Xz.z l M A L.3.z d d d u l u = u z j.g = l d d u d d u l l l = r l d d u B F J.D.) l d u d f d d l = 2 l . d l % - + l d l - c d l t K * c M.3XqX&X}.G.Z.z.z.e.` } h.c.G.G.G.G.G.K.(.J.J.(.^.K.K.`.`.K.`.'.'.'.'.[.'.[.[._.'.[.[.'.'.(.`.'.'.'.[.[.{.$X=X0X#X'.G.o.+.GXGXGXGXGXGXGXGXGXGXGXGXGXGXGXGXGXGXGXGXGXGXGXGXGXGXGXGXGXGXGXGXGX",
"GXGXGXGXGXGXGXGXGXGXGXGXGXGXGXGXGXGXGXGXGXGXGXGXGXGXGXGXGXGXGXGXGXGXj.J.`.*X0XzXmXyXeX0X0X0X1X=X[.`.K.`.`.K.`.J.K.'.G.G.G.G.`.`.`.`.'.K.K.'.K.F.F.`.`.J.(.`.K.J.F.m.z.i.3.6.h.j.z.J.'.=X*XwXtX].L f d w.z.v.t.z d r r z l - & 2 l d d l d d d l l 2 - l c d d d l d d l m z.M.v.n l r n l 2 3 d 2 % l u . - r l l l r m d l m g.].4X1X&X#XK.B.c.j.u.` } h.c.F.F.G.(.G.J.^.J.^.J.K.(.K.(.`.'.'.'.'.'.'.'.}.[.[.[.'.[.#X^.^._.`.[.[.'.`.[.[.'.*X1XqX1X`.G.o.h.GXGXGXGXGXGXGXGXGXGXGXGXGXGXGXGXGXGXGXGXGXGXGXGXGXGXGXGXGXGXGXGXGXGX",
"GXGXGXGXGXGXGXGXGXGXGXGXGXGXGXGXGXGXGXGXGXGXGXGXGXGXGXGXGXGXGXGXGXGXGXk.G.'.%X0XzXlXeX0X1X=X&X%X'.`.'.`.`.J.`._.`.'.'.J.G.G.G.F.G.J.`.#X#X[.`.'.J.'.`.J.J.'.`.K.F.F.F.F.c.u.6.6.i.z.c.B.J.[.#X1XyXtX].t.z t d.f.* d l ] t.v = l l l l F 9.l l l = t z 3 [ l u y [ n d d d d l v 3.d r n l V $ d . u l = - * d l l l d K J.].8X3X$X[.`.G.c.l.i.} ` } k.c.F.G.G.G.G.G.K.G.^.J.`._.(.K.K.'.`.`.K.'.'.'.[.[.OX[.#X[.(.[.#X[.[.`.&X=X[.`.[.#X&X=X{.tX0X%X^.m.` GXGXGXGXGXGXGXGXGXGXGXGXGXGXGXGXGXGXGXGXGXGXGXGXGXGXGXGXGXGXGXGXGXGXGX",
"GXGXGXGXGXGXGXGXGXGXGXGXGXGXGXGXGXGXGXGXGXGXGXGXGXGXGXGXGXGXGXGXGXGXGX+.k.G.[.*X0XmXlX0X=X*X0X*X=X`.`.`.`.`.`._.J.`.`.J.'.^.G.'.#X#X#X#X#X[.'.'.'.(.`.'.K.(.'.'.'.G.G.G.F.B.j.p.6.6.i.k.c.F.G.[.$X*X3XsX8XD._ d l z r $ = ] 9.l l l r e = r f.= u l l C . l d 2 & v.) f d d d d a z u j l u r t . l d   = g l l c t._.1X9X*X=X'.`.G.x.z.h.0.' u.j.c.F.G.G.G.G.J.J.K.^.K.J.^._.`.K.`.`.'.(.'.'.'.'.'.'.[.[.[.[.#X#X#X[.[.^.[.[.#X[.'.{.&X-X*XeX&X[.^.m.` GXGXGXGXGXGXGXGXGXGXGXGXGXGXGXGXGXGXGXGXGXGXGXGXGXGXGXGXGXGXGXGXGXGXGXGX",
"GXGXGXGXGXGXGXGXGXGXGXGXGXGXGXGXGXGXGXGXGXGXGXGXGXGXGXGXGXGXGXGXGXGXGXGXh.c.G.[.*X0XmXxX0X0X=X#X#X#X'.[.#X[.`.`.'.`.`.#X&X#X#X#X#X%X=X=X#X#X[.'.#XOX'.[.'.'.'.K.`._.J.G.F.F.B.z.h.0.6.6.p.k.k.F.`.].&X$X8XtXsX8X].r.y Z - . r z l g = i l 8   l l l l @ u d l t ; t f.D.e.d z d a d d a l l g 2 r l r + 3 - g.].3X5X1X$X'.`.J.B.z.z.j.2.3.0.h.k.x.F.G.G._.J._._.K.G.(.^.`.`.`.K.(.K.(.(.[.'.'.'.[.'.[.'.[.[.#X#X#X[.[.[.[.[.[.'.[.'.].$X*XtX1X'.J.m.} GXGXGXGXGXGXGXGXGXGXGXGXGXGXGXGXGXGXGXGXGXGXGXGXGXGXGXGXGXGXGXGXGXGXGXGXGX",
"GXGXGXGXGXGXGXGXGXGXGXGXGXGXGXGXGXGXGXGXGXGXGXGXGXGXGXGXGXGXGXGXGXGXGXGXGXG.c.G.[.&X0XvXlXeX0X=X$X[.'.`.`.`.'.$X=X*X=X%X*XOXOX$X#X[.[.#X#X{.#X(.'.'.[.'.J.F.F.G.G.J.G.G.J.H.G.F.F.c.k.} p.6.p.p.j.x.F.H.F._.'.[.1X0X3X#X(._.K ) y - l z d u r c z l r * z l l d d z d t m f.z.n r n l = } z t a n e.N./.<X8X3X&X#X[.`.G.B.c.j.j.u.6.` u.o.k.c.F.G.G.J.^.^.J.^.^.^.`.K.^.`.`.`.`.`.`.'.'.'.[.[.[.'.[.[.[.#X#X#X#X'.(.K.(.'.[.[.'.`.'.{.=X0X0X1X[.F.} GXGXGXGXGXGXGXGXGXGXGXGXGXGXGXGXGXGXGXGXGXGXGXGXGXGXGXGXGXGXGXGXGXGXGXGXGXGX",
"GXGXGXGXGXGXGXGXGXGXGXGXGXGXGXGXGXGXGXGXGXGXGXGXGXGXGXGXGXGXGXGXGXGXGXGXGXGXk.z.G.[.&XqXmXBXtX0X0X0X$X[.'.'.'.OX%X0X*X%X0X#X#X'.'.'.'.'.#X#X#X#X'.`.`.'.'.'.'.`.J.G.J.G.G.G.G.G.F.G.F.c.k.k.} 6.5.6.y.u.u.j.c.F._.[.=X{.[.1XyXdXtX8X].M.0.n i d.d d % r 3 X.l l d d d d d d - ( 1 4.2.L *.].*X9XsXyX1X$X#X'.`.J.F.B.z.k.j.y.3.3.u.u.k.c.F.G.G.G.G.J.J.J.K.^.K.`.^.K.`.`._.`.`.'.'.`.'.'.'.'.[.[.[.[.[.[.#X#X#X[.[.[.'.`.`.'.'.[.[.=X*XeX*X%X'.M.] GXGXGXGXGXGXGXGXGXGXGXGXGXGXGXGXGXGXGXGXGXGXGXGXGXGXGXGXGXGXGXGXGXGXGXGXGXGXGX",
"GXGXGXGXGXGXGXGXGXGXGXGXGXGXGXGXGXGXGXGXGXGXGXGXGXGXGXGXGXGXGXGXGXGXGXGXGXGXGX+.c.G.'.*XwXlXmXqX0X0X0XOX[.*X*X$X$X*X%X0X0X*X$X'.[.[.[.'.'.'.#X#X`.`.`._.'.[.'.J.F.G.J.G.J.J.G.H.G.F.F.G.F.F.k.u.i.3.7.1.6.p.p.j.c.B.G.`.'.K.[.=X&X=X=X3XyXuXtX0X8X&X X~.Q.n.J.D.D._.D.~.].@X%X1X3X9XyXtX3X1X$X$X=X`.'._.J.D.x.x.k.h.u.3.3.3.u.j.k.c.F.G.G.G.G.J.J.J.J._.J.K.^.(.`.`.`.`.`.`.'.(.`.'.'.'.'.[.[.[.[.[.[.[.#X#X#X[.[.[.'.'.}.[.[.{.=X8XeX1X[.G.B.} GXGXGXGXGXGXGXGXGXGXGXGXGXGXGXGXGXGXGXGXGXGXGXGXGXGXGXGXGXGXGXGXGXGXGXGXGXGXGXGX",
"GXGXGXGXGXGXGXGXGXGXGXGXGXGXGXGXGXGXGXGXGXGXGXGXGXGXGXGXGXGXGXGXGXGXGXGXGXGXGXGXF.c.F.[.=X0XzXBXyXqX0X0X*X$X*X%X$X*X%X*X#X=X$X#X[.[.[.[.[.'.}.'.'.`.`.`.K.'.'.'.`.J.G.`.J.J.J.J.G.J.J.F.F.F.c.k.k.i.p.3.3.7.6.3.p.a.j.k.k.F.G.G.B.B.D.].'.%X=X&X$X&X1X1X&X&X*X*X<X<X*X&X*X&X%X#X[.[.'.`.J.H.B.D.F.c.k.k.j.j.y.0.3.3.0.u.j.j.S.J.[.[.}.F.F.G.G.G.J.J._._.`.`.`.`.`.`.`.K.`.`.`.'.'.}.'.'.'.[.[.[.#X[.#X=X#X#X=X#X#X#X#X=X#X[.#X1X8X0X=X'.F.l.] GXGXGXGXGXGXGXGXGXGXGXGXGXGXGXGXGXGXGXGXGXGXGXGXGXGXGXGXGXGXGXGXGXGXGXGXGXGXGXGXGX",
"GXGXGXGXGXGXGXGXGXGXGXGXGXGXGXGXGXGXGXGXGXGXGXGXGXGXGXGXGXGXGXGXGXGXGXGXGXGXGXGXGXGXj.G.'.#X0XdXVXyXtX0X0X=X0X0X1X0X0X$X#X$X#X#X#X[.[.[.[.[.}.'.'.'.K.`.K.[.[.`.'.K.G.J._._.J.K.K.J.J.G.F.x.>.'.#XH.j.j.j.i.i.y.6.7.7.7.7.p.j.k.k.j.k.F.F.G._._.J.J.K.K.`.K.J.K.`.H.J.J.J.H.G.F.F.F.z.k.j.j.k.i.i.i.y.3.7.3.0.u.j.k.x.v.{.OXW.-...+.Y.2X0X`.G.J.^.J.`.J.`.`.`.`.`.`.`.'.K.'.'.'.'.'.}.'.[.[.[.[.#X#X#X#X#X*X#X#X#X%X#X#X[.{.=X0X3X'.G.l.h.' GXGXGXGXGXGXGXGXGXGXGXGXGXGXGXGXGXGXGXGXGXGXGXGXGXGXGXGXGXGXGXGXGXGXGXGXGXGXGXGXGXGX",
"GXGXGXGXGXGXGXGXGXGXGXGXGXGXGXGXGXGXGXGXGXGXGXGXGXGXGXGXGXGXGXGXGXGXGXGXGXGXGXGXGXGXGXj.F.'.=X0XxXVXgXeX0X1X=X0X0X*X#X$X#X$X#X#X[.[.[.[.[.[.[.'.'.'.'.'.'.'.`.K.`.(.J.J._.J.J.^.^.J.G.F.c.x.o.Z O.|.$X`.F.F.x.z.i.0.0.u.0.6.7.6.8.p.p.j.j.k.k.k.x.x.x.x.c.z.x.x.v.x.x.x.c.k.k.k.i.i.i.i.p.y.6.6.6.6.0.i.u.k.x.c.c.x.H.).E M M 7 A V Z Z  .Y.F.G.J.J.`.`.`.`.`.`.'.'.(.'.'.'.'.'.'.'.'.'.[.#X#X#X#X#X=X#X=X%X%X'.0X=X=X#X#XrXuXwX'.B.l.} ' GXGXGXGXGXGXGXGXGXGXGXGXGXGXGXGXGXGXGXGXGXGXGXGXGXGXGXGXGXGXGXGXGXGXGXGXGXGXGXGXGXGXGX",
"GXGXGXGXGXGXGXGXGXGXGXGXGXGXGXGXGXGXGXGXGXGXGXGXGXGXGXGXGXGXGXGXGXGXGXGXGXGXGXGXGXGXGXGXi.F.`.=X0XhXBXlX0X1X%X$X#X*X=X%X%X$X$X#X#X#X#X[.#X[.'.[.[.[.}.'.'.K.'.[.`.K.'._.`.K.`.J._.J.J.J.F.x.+.A Z q M m.G.F.F.F.c.k.k.k.z.k.j.i.i.j.i.6.6.p.p.y.a.p.p.a.p.p.p.p.6.y.6.6.6.y.6.6.6.3.6.6.y.y.j.k.k.k.x.c.B.B.F.F.F.Z.O.Z  .S Z A S q h h 4 8 G.J.`.`.`.`.`.'.'.'.K.}.'.'.'.'.[.[.[.'.`.'.#X[.[.#X#X=X%X%X%X*X*X0X*X%X%X1X0XfXdX1XG.h.[ d.GXGXGXGXGXGXGXGXGXGXGXGXGXGXGXGXGXGXGXGXGXGXGXGXGXGXGXGXGXGXGXGXGXGXGXGXGXGXGXGXGXGXGXGX",
"GXGXGXGXGXGXGXGXGXGXGXGXGXGXGXGXGXGXGXGXGXGXGXGXGXGXGXGXGXGXGXGXGXGXGXGXGXGXGXGXGXGXGXGXGX0.B.'.0XwXdXmXMXqX0X0X*X%X*X%X*X%X%X=X#X#X#X#X#X[.[.[.'.'.'.'.'.'.'.(.`.`.'.`._.`.J.`.J.J.J.G.J.F.Z Z Z Z M B.G.B.x.x.x.c.M.'.{.K.H.G.F.F.F.B.c.k.z.k.j.j.i.j.k.i.y.i.u.i.i.j.i.u.j.j.i.i.j.j.j.k.x.c.B.F.F.F.F.F.F.B.O.W ..^ S  . ...W Z q V w +.J.`.J.`.`.`.`.(.'.'.'.'.'.'.[.'.'.[.'.'.'.$X#X[.%X%X=X#X%X=X=X%X%X*X*X*X0XqXfXyX0X'.m.[ GXGXGXGXGXGXGXGXGXGXGXGXGXGXGXGXGXGXGXGXGXGXGXGXGXGXGXGXGXGXGXGXGXGXGXGXGXGXGXGXGXGXGXGXGXGX",
"GXGXGXGXGXGXGXGXGXGXGXGXGXGXGXGXGXGXGXGXGXGXGXGXGXGXGXGXGXGXGXGXGXGXGXGXGXGXGXGXGXGXGXGXGXGXp.G.'.1XqXdXbXVXuX1X*X*X*X=X&X&X&X&X$X$X%X$X#X#X'.'.`.'.`.`.'.[.[.[.`.`.`.`.'.`.K.`.K.J.F.F.F...h h V Z A c.G.F.G.J.J.K.+.C &.XX&X}.J.H._.H.B.F.F.F.S.x.x.c.x.c.k.z.z.z.c.x.x.x.x.H.`.[.*X=X].L.v.B.B.B.J.F.B.F.F.>.Z Z ..Z S S q D { k 8 q D G.`.J.`.].`.`.`.[.}.[.'.[.[.'.[.'.J.`.`._.'.[.[.%X%X#X=X&X&X&X=X*X&X=X1XeXyXiXwX<X^.+.[ GXGXGXGXGXGXGXGXGXGXGXGXGXGXGXGXGXGXGXGXGXGXGXGXGXGXGXGXGXGXGXGXGXGXGXGXGXGXGXGXGXGXGXGXGXGXGX",
"GXGXGXGXGXGXGXGXGXGXGXGXGXGXGXGXGXGXGXGXGXGXGXGXGXGXGXGXGXGXGXGXGXGXGXGXGXGXGXGXGXGXGXGXGXGXGX} c._.=X0XyXfXmXgX0X1X*X*X&X&X&X&X%X$X$X#X$X#X#X$X&X[.`.J._.`._._.'.}.`.`.`.`.`.`.`.[.`.J.J. .4 k 8 h j G.G.F.G.`.`.F.[ j j Z Z >.G.G.F.'./.E.Y.W.W.W.(.%X*XH.G.F.c.M.C.Z.C.Q.Q.Q.=. ... .%.Y..X*XL.B.B.B.F.F.o.W M Z Z Z M S h.c.B.c.h.H M._.`.`.`.`.`.`.'.`.(.[.'.[.[.[.`.J.`.G._.J.J._.`.'.#X#X$X&X&X*X1X&X1X0XrXdXyXqX&XG.l.] GXGXGXGXGXGXGXGXGXGXGXGXGXGXGXGXGXGXGXGXGXGXGXGXGXGXGXGXGXGXGXGXGXGXGXGXGXGXGXGXGXGXGXGXGXGXGXGX",
"GXGXGXGXGXGXGXGXGXGXGXGXGXGXGXGXGXGXGXGXGXGXGXGXGXGXGXGXGXGXGXGXGXGXGXGXGXGXGXGXGXGXGXGXGXGXGXGXu.u.c.'.#X1XqXmXmXeX*X=X1X&X=X%X$X%X$X$X$X$X#X#X[.[.'.K._.G.G.J.`.[.[.'.}.`.'.`.'.K.'.[.K.8 8 h 8 j [ [.[.`.G.F.G.G.V M 8 Z V N._.B.>.~ Z W A W S N 8 Z @.;X&XB...Z Z Z W Z W Z  .Z A Z Z Z C Z >X*Xx.x.c.h.V 7 7 V M Z +.G.G._.J.J.J.J._.`.`.`.'.`.`.'.'.[.'.[.[.[.'.`.G.^._._.^.#X[.}.'.`.}.[.$X<X*X*X&X1XeXeXyXqX=XOXF.+.] GXGXGXGXGXGXGXGXGXGXGXGXGXGXGXGXGXGXGXGXGXGXGXGXGXGXGXGXGXGXGXGXGXGXGXGXGXGXGXGXGXGXGXGXGXGXGXGXGX",
"GXGXGXGXGXGXGXGXGXGXGXGXGXGXGXGXGXGXGXGXGXGXGXGXGXGXGXGXGXGXGXGXGXGXGXGXGXGXGXGXGXGXGXGXGXGXGXGXGXGXp.c.J._.%X0XfXBXtX0X1X&X1X&X*X*X%X&X$X%X$X%X[.[.[._.J.J.^._.^.[.'.'.`.[.`.`.(.K.'.[.C.8 h 8 4 M h.[.'.'.L.F.F.N.Z q 8 V j c.x. .N W A S S W S Z M k k h  .j...Z W  .W Z Z Z Z Z Z V W q Z q Z Q.#XB.F.o.V Z q q q [ J.K._._._._._.`.'.eX6XtX`.`.'.'.[.[.[.[.[.[._.G.`.$X#X$X#X<X#X[.`.'.[.#X&X1X*X*X1XeXyXqX0X=X[.G.+.] GXGXGXGXGXGXGXGXGXGXGXGXGXGXGXGXGXGXGXGXGXGXGXGXGXGXGXGXGXGXGXGXGXGXGXGXGXGXGXGXGXGXGXGXGXGXGXGXGXGX",
"GXGXGXGXGXGXGXGXGXGXGXGXGXGXGXGXGXGXGXGXGXGXGXGXGXGXGXGXGXGXGXGXGXGXGXGXGXGXGXGXGXGXGXGXGXGXGXGXGXGXGX0.c.F.J.%X3XdXmXlXeX1X&X*X&X&X*X$X=X%X=X$X&X[.'.#X[.'.`.`.`.'.[.'.[.'.'.'.'.K.`.'...p h p V h c.F.F.G.F.F.F.+.q 8 8 h M F.J q 8 Z A Z Z 8 N 8 V b j 8 Z M.+.Z S W W W S Z Z A q M h q Z A W W :.J._.[ A Z Z q 8 M._._.`.`.`._.l.%.$.q 0 |.].[.'.[.[.'.[.[.'.'.`.'.$X%X#X$X=X1X%X%X=X0X1X&X1X&X1X8XtXtXqX&X[._.N.h.GXGXGXGXGXGXGXGXGXGXGXGXGXGXGXGXGXGXGXGXGXGXGXGXGXGXGXGXGXGXGXGXGXGXGXGXGXGXGXGXGXGXGXGXGXGXGXGXGXGXGXGX",
"GXGXGXGXGXGXGXGXGXGXGXGXGXGXGXGXGXGXGXGXGXGXGXGXGXGXGXGXGXGXGXGXGXGXGXGXGXGXGXGXGXGXGXGXGXGXGXGXGXGXGXGXb k.F.`.[.*XtXhXmXdX1X1X*X*X*X&X&X&X%X%X#X#X#XOX*X1X&X$X[.OX[.[.[.[.'.'.'.(.(.K.[ k p h k C H.F.F.J.`.'.K.A 8 Z q M S x.8 Z 8 V C j ` 3.` b j k k 8 [ F.o.Z Z Z S Z Z S } } p.} ` q Z N N Z Z N.'.G h w 7 j j J._.`.`.`.`.`.l.8 N q Z  .$X[.'.[.[.[.[.'.'.`.'.$X$X*X*X0X0X0X0X*X0XtXeX0X1X8XeXtXwX1X=X'.G.l.` GXGXGXGXGXGXGXGXGXGXGXGXGXGXGXGXGXGXGXGXGXGXGXGXGXGXGXGXGXGXGXGXGXGXGXGXGXGXGXGXGXGXGXGXGXGXGXGXGXGXGXGXGX",
"GXGXGXGXGXGXGXGXGXGXGXGXGXGXGXGXGXGXGXGXGXGXGXGXGXGXGXGXGXGXGXGXGXGXGXGXGXGXGXGXGXGXGXGXGXGXGXGXGXGXGXGXGXGXi.F.H.[.&X0XdXmXlXeX1X*X*X*X&X&X&X&X=X#X{.=X1X=X$X'.`.'.[.[.[.`.J.J.'.'.`.J.p h h h j ..[.J.`.'.[.[.G.j 8 Z N q ..o.7 Z Z h V X.F.G.F.c.u.` ' h M.G.+.q V k V h o.F.F.G.G.F.N.] M 8 M N V D B.G x p 4 j h `.`.`.`.'.'.`.G.V N q Z q B.[.[.[.[._.K._.K.#X1X*X%X*X0X0X1X0X1X0XqX0XqX0XeXeXuXwX1X%X^.F.l.6.GXGXGXGXGXGXGXGXGXGXGXGXGXGXGXGXGXGXGXGXGXGXGXGXGXGXGXGXGXGXGXGXGXGXGXGXGXGXGXGXGXGXGXGXGXGXGXGXGXGXGXGXGXGX",
"GXGXGXGXGXGXGXGXGXGXGXGXGXGXGXGXGXGXGXGXGXGXGXGXGXGXGXGXGXGXGXGXGXGXGXGXGXGXGXGXGXGXGXGXGXGXGXGXGXGXGXGXGXGXGX} k.G.`.#X3XqXxXmXgX1X1X*X*X*X&X=X#X#X`.'.'.`.`._.K.K.J.J.G.J.J.J.`.[.'.c.k k h h h +.[.[.'.'.#X[.@.M 8 q 8 j c.o.j h Z M 8 '.J.J.J.J.G.B.h.i.G.G.l.8 h k b k ..G.G.G.F.F.G.F.} j V p h h ..C M k 7 V M J.'.`.`.'.`.'._.[ q Z 8 Z Z [.[.#X`.'.'.&X*X'.OXOX#X*X0X=X&X1X1X1X0X0XeXtXuXtX3X&X[.G.N.u.GXGXGXGXGXGXGXGXGXGXGXGXGXGXGXGXGXGXGXGXGXGXGXGXGXGXGXGXGXGXGXGXGXGXGXGXGXGXGXGXGXGXGXGXGXGXGXGXGXGXGXGXGXGXGXGX",
"GXGXGXGXGXGXGXGXGXGXGXGXGXGXGXGXGXGXGXGXGXGXGXGXGXGXGXGXGXGXGXGXGXGXGXGXGXGXGXGXGXGXGXGXGXGXGXGXGXGXGXGXGXGXGXGXGXj.F.G.[.&X1XwXvXmXuX1X*X*X&X#X[.[.[.`.`.[.`._.`.`.`.G.K.G.G.`.'.[.'.+.8 h h 4 7 G.#X%X#X[.[.[.' h 8 8 h k G.x.k h V j j S %X3X=XG._._.J._._.G.B.k g k k j [ ^.J.J._.F.G.^.G.h Z 8 8 p M [ Z q q q N F.'.`.'.[.[.'._.o.Z w w 8 , G.#X#X#X&X&X=X*X=X'.'.1X&X&X&X*X&X=X1XtXeXuXuX0X1X#X_.F.l.` GXGXGXGXGXGXGXGXGXGXGXGXGXGXGXGXGXGXGXGXGXGXGXGXGXGXGXGXGXGXGXGXGXGXGXGXGXGXGXGXGXGXGXGXGXGXGXGXGXGXGXGXGXGXGXGXGX",
"GXGXGXGXGXGXGXGXGXGXGXGXGXGXGXGXGXGXGXGXGXGXGXGXGXGXGXGXGXGXGXGXGXGXGXGXGXGXGXGXGXGXGXGXGXGXGXGXGXGXGXGXGXGXGXGXGXGXy.x.G.`.#X1XqXdXbXlXeX*X$X$X{.`.[._.`.}.`.`.'.`.`.'.}.'.'.'.`.'.#X..8 h h 7 w [.#X[.%X[.`.`.3 j 8 k x [ J.G.x j j h V k x D N.,XeX'.K.`._.J.F.j q V ' g D J.`.^.`.`._.K.G.[ 8 7 7 p 8 } 7 w 3 8 8 +.[.[.'.[.[.[.'.c.8 e w w w m.#X#X#X1X&X%X#XOX'.$X&X=X&X&X=X&X#X3XeXsXyX0X#X'.G.B.e.l.GXGXGXGXGXGXGXGXGXGXGXGXGXGXGXGXGXGXGXGXGXGXGXGXGXGXGXGXGXGXGXGXGXGXGXGXGXGXGXGXGXGXGXGXGXGXGXGXGXGXGXGXGXGXGXGXGXGX",
"GXGXGXGXGXGXGXGXGXGXGXGXGXGXGXGXGXGXGXGXGXGXGXGXGXGXGXGXGXGXGXGXGXGXGXGXGXGXGXGXGXGXGXGXGXGXGXGXGXGXGXGXGXGXGXGXGXGXGXGXi.F.J.[.&X1XtXfXmXxXtX1X&X$X'.'.'.'.[.'.*X0X*X[.#X#X#X'.`.'.[.o.q 8 8 8 w '.#X%X#X#X[.>.h k j x ' } J.J.h.h 8 M V j k k k k ` ^.1X[.].J.G.k c k k k ` G.K.(.#X#X[.'.[.S V 8 q q 8 M.p w V h 8 N  X0X[.[.[.[.[.N.Z q 8 q , W #X#X%X#X[.[.'.'.'.#X[.[.&X=X&X3XuXdXdXqX%X[.^.B.h.j.GXGXGXGXGXGXGXGXGXGXGXGXGXGXGXGXGXGXGXGXGXGXGXGXGXGXGXGXGXGXGXGXGXGXGXGXGXGXGXGXGXGXGXGXGXGXGXGXGXGXGXGXGXGXGXGXGXGXGXGX",
"GXGXGXGXGXGXGXGXGXGXGXGXGXGXGXGXGXGXGXGXGXGXGXGXGXGXGXGXGXGXGXGXGXGXGXGXGXGXGXGXGXGXGXGXGXGXGXGXGXGXGXGXGXGXGXGXGXGXGXGXGX3.k.F._.[.=X0XtXlXVXxX1X&X#X'.'.`.[.$XOX$X$X[.#X*X%X'.`.`.`.c.q 4 I q h J.`.`.'.'.K.D 8 h j x g >.G.F.F.j.k 8 h k x j j j k k x '.].].^.` x x ' ' ] `.`.`.`.`.'.#X[. .Z Z Z Z q G.e.q N N q 8 q O.%X0X0XXX-.q p 6 6 4 & +.=X[.`.`.'.'.'.'.[.[.[.[.%X=XtXuXyXtX1X#X_.F.c.3.GXGXGXGXGXGXGXGXGXGXGXGXGXGXGXGXGXGXGXGXGXGXGXGXGXGXGXGXGXGXGXGXGXGXGXGXGXGXGXGXGXGXGXGXGXGXGXGXGXGXGXGXGXGXGXGXGXGXGXGXGXGX",
"GXGXGXGXGXGXGXGXGXGXGXGXGXGXGXGXGXGXGXGXGXGXGXGXGXGXGXGXGXGXGXGXGXGXGXGXGXGXGXGXGXGXGXGXGXGXGXGXGXGXGXGXGXGXGXGXGXGXGXGXGXGXGXp.F.J.'.#X=X0XyXbXBXgX=X[.[.[.[.`.`.`.`.`.[.[.`.K.J.J.^.F.4 q 8 h j (.{.J.G.G.m.M k x x k g B.F.G.G.B.B.0.c k c ' x j j j j j C.`.`.} ' ' ' ' ] OX'.'.'.`.'.'.`.M q q q M Z G.G.` N q 8 8 p x x k 3 h D h j h 3 w Z '.%X&X%X=X[.[.'.[.=X#X#X=X0XuXuXyX0X#X'.G.c.u.k.GXGXGXGXGXGXGXGXGXGXGXGXGXGXGXGXGXGXGXGXGXGXGXGXGXGXGXGXGXGXGXGXGXGXGXGXGXGXGXGXGXGXGXGXGXGXGXGXGXGXGXGXGXGXGXGXGXGXGXGXGXGXGX",
"GXGXGXGXGXGXGXGXGXGXGXGXGXGXGXGXGXGXGXGXGXGXGXGXGXGXGXGXGXGXGXGXGXGXGXGXGXGXGXGXGXGXGXGXGXGXGXGXGXGXGXGXGXGXGXGXGXGXGXGXGXGXGXGXN.i.B.G.`.#X=X&XuXlXmXgX&X#X'.`.'.'.[.[.[.'.'.`.`.K.J.J.[ h h ' k V V..XOX^.Z 8 k x x j [ J.G._.H.G._.G.F.c.} ` h q q g 8 8 Z G.`.} ' ' ' x ` [.'.'.'.`.'.`.o.j 7 Z q 8 ..[.'.G.D w 7 4 8 8 M h h j ' x h h 8 ..[.&X&X&X1X1X%X#X*X0X0X0XeXuXqX0X*X*X#X_.N.u.k.GXGXGXGXGXGXGXGXGXGXGXGXGXGXGXGXGXGXGXGXGXGXGXGXGXGXGXGXGXGXGXGXGXGXGXGXGXGXGXGXGXGXGXGXGXGXGXGXGXGXGXGXGXGXGXGXGXGXGXGXGXGXGXGXGX",
"GXGXGXGXGXGXGXGXGXGXGXGXGXGXGXGXGXGXGXGXGXGXGXGXGXGXGXGXGXGXGXGXGXGXGXGXGXGXGXGXGXGXGXGXGXGXGXGXGXGXGXGXGXGXGXGXGXGXGXGXGXGXGXGXGXGXk.i.B.G.'.'.=X0XqXvXVXxX=X[.[.#X$X#X#X#X[.'.'.`.J.J.k.j h M 8 8 j h j h h x ' c k h F.`.'.[.%X3X[.#X[.[.`.^.m.D 8 8 8 8 8 Z.'.o.h h 3 x ' %XK.'.`.`.}.G.N 8 q 8 7 q G.#X[.[.G.D 7 q q 8 7 8 7 j h x k h N.=X&X&X&X&X&X1X1X3X0XwXgXdXyXuX0X*X#X`.H.j.3.GXGXGXGXGXGXGXGXGXGXGXGXGXGXGXGXGXGXGXGXGXGXGXGXGXGXGXGXGXGXGXGXGXGXGXGXGXGXGXGXGXGXGXGXGXGXGXGXGXGXGXGXGXGXGXGXGXGXGXGXGXGXGXGXGXGXGX",
"GXGXGXGXGXGXGXGXGXGXGXGXGXGXGXGXGXGXGXGXGXGXGXGXGXGXGXGXGXGXGXGXGXGXGXGXGXGXGXGXGXGXGXGXGXGXGXGXGXGXGXGXGXGXGXGXGXGXGXGXGXGXGXGXGXGXGXGX3.k.F.F.'.&X0XqXuXlXVXzX0X=X$X[.#X*X%X[.'.'.`.J.G.} 8 8 q 8 j k x k j x ' x j m.`.'.#X'.S ..1X0X[.'.[.[.`.o.8 8 q 8 8 B.'.h.4 V h k 8 1X=X0X0X=XG.M 7 8 8 7 j [ [.[.[.[.[._.d.j 8 0 7 q e 7 w j o.`.%X&X&X&X&X&X=X*X0XuXgXxXxXwXqX*X=XOXJ.M.i.GXGXGXGXGXGXGXGXGXGXGXGXGXGXGXGXGXGXGXGXGXGXGXGXGXGXGXGXGXGXGXGXGXGXGXGXGXGXGXGXGXGXGXGXGXGXGXGXGXGXGXGXGXGXGXGXGXGXGXGXGXGXGXGXGXGXGXGXGX",
"GXGXGXGXGXGXGXGXGXGXGXGXGXGXGXGXGXGXGXGXGXGXGXGXGXGXGXGXGXGXGXGXGXGXGXGXGXGXGXGXGXGXGXGXGXGXGXGXGXGXGXGXGXGXGXGXGXGXGXGXGXGXGXGXGXGXGXGXGXGXk.k.G.'.#X=X0XqXwXfXmXlXgX1X[.[.%X=X*XOX`._._.G.h.b h k x x k j j ' x k N.'.K.[.'.S M h x +.).%X&X1X'.[ h q q M 8 _.'.>.8 h M h M &.&.| Z 8 h c h B p 7 Z '.OX#X#X#X#X'.'.'.B.j.d.o.o.+.G.'.$X$X&X&X*X*X*X1X0XuXgXfXfXyXqX%X#X`.B.c.p.GXGXGXGXGXGXGXGXGXGXGXGXGXGXGXGXGXGXGXGXGXGXGXGXGXGXGXGXGXGXGXGXGXGXGXGXGXGXGXGXGXGXGXGXGXGXGXGXGXGXGXGXGXGXGXGXGXGXGXGXGXGXGXGXGXGXGXGXGXGXGX",
"GXGXGXGXGXGXGXGXGXGXGXGXGXGXGXGXGXGXGXGXGXGXGXGXGXGXGXGXGXGXGXGXGXGXGXGXGXGXGXGXGXGXGXGXGXGXGXGXGXGXGXGXGXGXGXGXGXGXGXGXGXGXGXGXGXGXGXGXGXGXGXGX6.k.G.J.J.#X*X&X*XqXjXBXxXeX#X[.#X$X'.}._._._.G.j.` ' ' x ' x ' } G.#X=X&X[.o.h 4 j h 8 h ' ' ' ' k 8 j x x G [.[.F.p 8 8 w 8 8 8 7 h j x ' h 7 8 V _.[.#X%X$X$X#X$X$X#X#X#X#X#X#X$X=X%X*X<X*X1X1X8XtXuXgXsX0X1X*X%X^.G.G.z.3.GXGXGXGXGXGXGXGXGXGXGXGXGXGXGXGXGXGXGXGXGXGXGXGXGXGXGXGXGXGXGXGXGXGXGXGXGXGXGXGXGXGXGXGXGXGXGXGXGXGXGXGXGXGXGXGXGXGXGXGXGXGXGXGXGXGXGXGXGXGXGXGXGX",
"GXGXGXGXGXGXGXGXGXGXGXGXGXGXGXGXGXGXGXGXGXGXGXGXGXGXGXGXGXGXGXGXGXGXGXGXGXGXGXGXGXGXGXGXGXGXGXGXGXGXGXGXGXGXGXGXGXGXGXGXGXGXGXGXGXGXGXGXGXGXGXGXGXGX6.k.N._.}.[.`.[.1X1XfXmXmXuX=X&X1X*X'.`._.J._.G.F.k.i.k.b.H._.K.#X0X0X%Xl.h k k 3 h j x ' ' ' x c ' b x N.[.[.K.M 8 w 8 8 j k j j k x k k k [ `.#X%X%X$X$X$X&X&X$X%X%X&X&X=X*X*X=X=X*X*X1XeXeXgXgXyX0X&X#XG.G.B.c.u.p.u.GXGXGXGXGXGXGXGXGXGXGXGXGXGXGXGXGXGXGXGXGXGXGXGXGXGXGXGXGXGXGXGXGXGXGXGXGXGXGXGXGXGXGXGXGXGXGXGXGXGXGXGXGXGXGXGXGXGXGXGXGXGXGXGXGXGXGXGXGXGXGXGXGXGX",
"GXGXGXGXGXGXGXGXGXGXGXGXGXGXGXGXGXGXGXGXGXGXGXGXGXGXGXGXGXGXGXGXGXGXGXGXGXGXGXGXGXGXGXGXGXGXGXGXGXGXGXGXGXGXGXGXGXGXGXGXGXGXGXGXGXGXGXGXGXGXGXGXGXGXGXGXk.p.k.x.B.F.`.&X=X&XyXzXmXvXdX9X=X=X'.`.'.'._._.K._.'._.'.`.#X%X*X&X[.B.] j x k x k k x k h x ' ' l.#X#X[.'.h q w 8 8 M h j h ' ' ` u.Z.#X$X$X%X$X$X*X&X&X#X&X*X&X&X&X&X&X&X1X8XeXyXgXuXdXtX8X*X#X`.B.c.k.0.3.GXGXGXGXGXGXGXGXGXGXGXGXGXGXGXGXGXGXGXGXGXGXGXGXGXGXGXGXGXGXGXGXGXGXGXGXGXGXGXGXGXGXGXGXGXGXGXGXGXGXGXGXGXGXGXGXGXGXGXGXGXGXGXGXGXGXGXGXGXGXGXGXGXGXGXGXGX",
"GXGXGXGXGXGXGXGXGXGXGXGXGXGXGXGXGXGXGXGXGXGXGXGXGXGXGXGXGXGXGXGXGXGXGXGXGXGXGXGXGXGXGXGXGXGXGXGXGXGXGXGXGXGXGXGXGXGXGXGXGXGXGXGXGXGXGXGXGXGXGXGXGXGXGXGXGXGXGX6.p.i.h.F.'.[.1XqXtXtXlXmXmXgXeX=X[.'.`.`.`.`.[.[.[.[.=X&X#X#X'._.J.J.c.] c x h 8 7 h x h.`.%X#X#X$X[.' h 4 j h D ] } P.F.`.#X#X=X%X=X&X&X&X&X&X&X&X&X&X&X1X&X1X1X0XtXuXgXgXiXqX0X*X=X'._.F.m.h.y.3.GXGXGXGXGXGXGXGXGXGXGXGXGXGXGXGXGXGXGXGXGXGXGXGXGXGXGXGXGXGXGXGXGXGXGXGXGXGXGXGXGXGXGXGXGXGXGXGXGXGXGXGXGXGXGXGXGXGXGXGXGXGXGXGXGXGXGXGXGXGXGXGXGXGXGXGXGXGXGX",
"GXGXGXGXGXGXGXGXGXGXGXGXGXGXGXGXGXGXGXGXGXGXGXGXGXGXGXGXGXGXGXGXGXGXGXGXGXGXGXGXGXGXGXGXGXGXGXGXGXGXGXGXGXGXGXGXGXGXGXGXGXGXGXGXGXGXGXGXGXGXGXGXGXGXGXGXGXGXGXGXGX6.3.u.c.J.'.#X&X8XqXeXtXhXlXmXgXeX=X[.[.{.[.{.#X&X1X3X1X=X}.'.'.[.[.J.F.H.v.v.F.J.'.#X%X=X=X$X$XOXF.c.H.`.'.[.#X$X$X$X&X=X&X&X%X=X*X=X&X&X*X&X&X&X1X1X3XeXtXuXgXdXdXtX0X1X&X[.`.J.F.N.h.y.k.GXGXGXGXGXGXGXGXGXGXGXGXGXGXGXGXGXGXGXGXGXGXGXGXGXGXGXGXGXGXGXGXGXGXGXGXGXGXGXGXGXGXGXGXGXGXGXGXGXGXGXGXGXGXGXGXGXGXGXGXGXGXGXGXGXGXGXGXGXGXGXGXGXGXGXGXGXGXGXGXGX",
"GXGXGXGXGXGXGXGXGXGXGXGXGXGXGXGXGXGXGXGXGXGXGXGXGXGXGXGXGXGXGXGXGXGXGXGXGXGXGXGXGXGXGXGXGXGXGXGXGXGXGXGXGXGXGXGXGXGXGXGXGXGXGXGXGXGXGXGXGXGXGXGXGXGXGXGXGXGXGXGXGXGXGXGX6.p.j.B.G.`.`._.`.#X&XqXgXzXlXzXxXgXtX1X1X*X=X%X=X[.[.'.(.[.'.'.'.#X=X$X%X&X%X&X#X[.[.%X&X%X#X$X=X%X%X%X%X%X=X%X&X*X1X&X&X&X1X*X1X&X1X*X1XeXuXuXgXgXgXyX0X0X*X%X[.'.K.F.l.i.p.k.GXGXGXGXGXGXGXGXGXGXGXGXGXGXGXGXGXGXGXGXGXGXGXGXGXGXGXGXGXGXGXGXGXGXGXGXGXGXGXGXGXGXGXGXGXGXGXGXGXGXGXGXGXGXGXGXGXGXGXGXGXGXGXGXGXGXGXGXGXGXGXGXGXGXGXGXGXGXGXGXGXGXGXGX",
"GXGXGXGXGXGXGXGXGXGXGXGXGXGXGXGXGXGXGXGXGXGXGXGXGXGXGXGXGXGXGXGXGXGXGXGXGXGXGXGXGXGXGXGXGXGXGXGXGXGXGXGXGXGXGXGXGXGXGXGXGXGXGXGXGXGXGXGXGXGXGXGXGXGXGXGXGXGXGXGXGXGXGXGXGXGXj.6.a.k.x.c.z.c.F.'.%X&X0X0XyXhXlXmXmXzXgXtX1X#X[.#X[.}.'.'.&X&X&X*X=X*X=X#X[.[.'.[.#X*X&X&X%X#X#X%X=X*X*X=X&X&X1X&X1X1X0XtXuXuXgXuXuXdXyXwX0X0X&X&X#X[.`.G.F.c.u.p.5.GXGXGXGXGXGXGXGXGXGXGXGXGXGXGXGXGXGXGXGXGXGXGXGXGXGXGXGXGXGXGXGXGXGXGXGXGXGXGXGXGXGXGXGXGXGXGXGXGXGXGXGXGXGXGXGXGXGXGXGXGXGXGXGXGXGXGXGXGXGXGXGXGXGXGXGXGXGXGXGXGXGXGXGXGXGXGX",
"GXGXGXGXGXGXGXGXGXGXGXGXGXGXGXGXGXGXGXGXGXGXGXGXGXGXGXGXGXGXGXGXGXGXGXGXGXGXGXGXGXGXGXGXGXGXGXGXGXGXGXGXGXGXGXGXGXGXGXGXGXGXGXGXGXGXGXGXGXGXGXGXGXGXGXGXGXGXGXGXGXGXGXGXGXGXGXGXGXs.p.p.c.k.l.F.G.G.`.[.[.0XqX0XtXuXhXlXmXmXzXgXdXeX8X*X=X*X*X*X=X*X#X[.[.[.#X#X#X%X=X&X1X=X=X&X1X*X1X0XeXtXyXuXgXxXxXxXfXdXqX3X1X<X&X=X&X#X[._.K.F.N.k.p.6.GXGXGXGXGXGXGXGXGXGXGXGXGXGXGXGXGXGXGXGXGXGXGXGXGXGXGXGXGXGXGXGXGXGXGXGXGXGXGXGXGXGXGXGXGXGXGXGXGXGXGXGXGXGXGXGXGXGXGXGXGXGXGXGXGXGXGXGXGXGXGXGXGXGXGXGXGXGXGXGXGXGXGXGXGXGXGXGXGXGX",
"GXGXGXGXGXGXGXGXGXGXGXGXGXGXGXGXGXGXGXGXGXGXGXGXGXGXGXGXGXGXGXGXGXGXGXGXGXGXGXGXGXGXGXGXGXGXGXGXGXGXGXGXGXGXGXGXGXGXGXGXGXGXGXGXGXGXGXGXGXGXGXGXGXGXGXGXGXGXGXGXGXGXGXGXGXGXGXGXGXGXGXGXGXy.y.i.c.F.F.G.J.#X=X=X%X&X1X<X0X0XtXyXsXgXgXzXzXzXzXzXzXgXxXxXgXgXgXgXuXdXgXgXgXfXgXgXxXhXxXzXgXgXgXsXyXqXqX3X3X1X&X[.'.'.'.'.G.G.F.k.k.a.L.GXGXGXGXGXGXGXGXGXGXGXGXGXGXGXGXGXGXGXGXGXGXGXGXGXGXGXGXGXGXGXGXGXGXGXGXGXGXGXGXGXGXGXGXGXGXGXGXGXGXGXGXGXGXGXGXGXGXGXGXGXGXGXGXGXGXGXGXGXGXGXGXGXGXGXGXGXGXGXGXGXGXGXGXGXGXGXGXGXGXGXGXGX",
"GXGXGXGXGXGXGXGXGXGXGXGXGXGXGXGXGXGXGXGXGXGXGXGXGXGXGXGXGXGXGXGXGXGXGXGXGXGXGXGXGXGXGXGXGXGXGXGXGXGXGXGXGXGXGXGXGXGXGXGXGXGXGXGXGXGXGXGXGXGXGXGXGXGXGXGXGXGXGXGXGXGXGXGXGXGXGXGXGXGXGXGXGXGXGXGX` 6.a.p.h.k.x.F.F.z.F.F.G.#X&X[.'.[.#X&X8X0X0X3X0X0XqXwXwXyXwXwXfXdXyXtXtXdXfXdXwXqXqX0X0X1X1X<X%X&X#X[.[.'.'.G.B.F.B.x.i.s.p.GXGXGXGXGXGXGXGXGXGXGXGXGXGXGXGXGXGXGXGXGXGXGXGXGXGXGXGXGXGXGXGXGXGXGXGXGXGXGXGXGXGXGXGXGXGXGXGXGXGXGXGXGXGXGXGXGXGXGXGXGXGXGXGXGXGXGXGXGXGXGXGXGXGXGXGXGXGXGXGXGXGXGXGXGXGXGXGXGXGXGXGXGXGXGXGXGX",
"GXGXGXGXGXGXGXGXGXGXGXGXGXGXGXGXGXGXGXGXGXGXGXGXGXGXGXGXGXGXGXGXGXGXGXGXGXGXGXGXGXGXGXGXGXGXGXGXGXGXGXGXGXGXGXGXGXGXGXGXGXGXGXGXGXGXGXGXGXGXGXGXGXGXGXGXGXGXGXGXGXGXGXGXGXGXGXGXGXGXGXGXGXGXGXGXGXGXGXGX` 7.p.i.z.c.j.j.k.B.F.F.G.`.`.K._.`.`.[.[.[.=X*X*X=X#X%X=X%X[.#X=X3X1X&X&X#X#X#X[.'.'.`.`._.G.G.F.B.x.x.k.a.6.GXGXGXGXGXGXGXGXGXGXGXGXGXGXGXGXGXGXGXGXGXGXGXGXGXGXGXGXGXGXGXGXGXGXGXGXGXGXGXGXGXGXGXGXGXGXGXGXGXGXGXGXGXGXGXGXGXGXGXGXGXGXGXGXGXGXGXGXGXGXGXGXGXGXGXGXGXGXGXGXGXGXGXGXGXGXGXGXGXGXGXGXGXGXGXGXGXGXGXGXGX",
"GXGXGXGXGXGXGXGXGXGXGXGXGXGXGXGXGXGXGXGXGXGXGXGXGXGXGXGXGXGXGXGXGXGXGXGXGXGXGXGXGXGXGXGXGXGXGXGXGXGXGXGXGXGXGXGXGXGXGXGXGXGXGXGXGXGXGXGXGXGXGXGXGXGXGXGXGXGXGXGXGXGXGXGXGXGXGXGXGXGXGXGXGXGXGXGXGXGXGXGXGXGXGXGXGXGX6.p.p.a.k.k.x.F.x.k.k.c.B.F.F.F.J.G.G.F.F.F.F.F.J.`.'.`._.J.K.J.G.G.F.F.F.F.x.k.s.a.s.}.GXGXGXGXGXGXGXGXGXGXGXGXGXGXGXGXGXGXGXGXGXGXGXGXGXGXGXGXGXGXGXGXGXGXGXGXGXGXGXGXGXGXGXGXGXGXGXGXGXGXGXGXGXGXGXGXGXGXGXGXGXGXGXGXGXGXGXGXGXGXGXGXGXGXGXGXGXGXGXGXGXGXGXGXGXGXGXGXGXGXGXGXGXGXGXGXGXGXGXGXGXGXGXGXGXGX",
"GXGXGXGXGXGXGXGXGXGXGXGXGXGXGXGXGXGXGXGXGXGXGXGXGXGXGXGXGXGXGXGXGXGXGXGXGXGXGXGXGXGXGXGXGXGXGXGXGXGXGXGXGXGXGXGXGXGXGXGXGXGXGXGXGXGXGXGXGXGXGXGXGXGXGXGXGXGXGXGXGXGXGXGXGXGXGXGXGXGXGXGXGXGXGXGXGXGXGXGXGXGXGXGXGXGXGXGXGXGXGXGXGXs.s.s.s.s.p.a.u.k.i.j.k.s.h.k.j.j.x.x.c.k.k.k.k.a.s.s.s.s.s.GXGXGXGXGXGXGXGXGXGXGXGXGXGXGXGXGXGXGXGXGXGXGXGXGXGXGXGXGXGXGXGXGXGXGXGXGXGXGXGXGXGXGXGXGXGXGXGXGXGXGXGXGXGXGXGXGXGXGXGXGXGXGXGXGXGXGXGXGXGXGXGXGXGXGXGXGXGXGXGXGXGXGXGXGXGXGXGXGXGXGXGXGXGXGXGXGXGXGXGXGXGXGXGXGXGXGXGXGXGXGXGXGX",
"GXGXGXGXGXGXGXGXGXGXGXGXGXGXGXGXGXGXGXGXGXGXGXGXGXGXGXGXGXGXGXGXGXGXGXGXGXGXGXGXGXGXGXGXGXGXGXGXGXGXGXGXGXGXGXGXGXGXGXGXGXGXGXGXGXGXGXGXGXGXGXGXGXGXGXGXGXGXGXGXGXGXGXGXGXGXGXGXGXGXGXGXGXGXGXGXGXGXGXGXGXGXGXGXGXGXGXGXGXGXGXGXGXGXGXGXGXGXGXGXGXGXGXGXGXGX}.P.P.P.GXGXGXGXGXGXGXGXGXGXGXGXGXGXGXGXGXGXGXGXGXGXGXGXGXGXGXGXGXGXGXGXGXGXGXGXGXGXGXGXGXGXGXGXGXGXGXGXGXGXGXGXGXGXGXGXGXGXGXGXGXGXGXGXGXGXGXGXGXGXGXGXGXGXGXGXGXGXGXGXGXGXGXGXGXGXGXGXGXGXGXGXGXGXGXGXGXGXGXGXGXGXGXGXGXGXGXGXGXGXGXGXGXGXGXGXGXGXGXGXGXGXGXGXGXGX",
"GXGXGXGXGXGXGXGXGXGXGXGXGXGXGXGXGXGXGXGXGXGXGXGXGXGXGXGXGXGXGXGXGXGXGXGXGXGXGXGXGXGXGXGXGXGXGXGXGXGXGXGXGXGXGXGXGXGXGXGXGXGXGXGXGXGXGXGXGXGXGXGXGXGXGXGXGXGXGXGXGXGXGXGXGXGXGXGXGXGXGXGXGXGXGXGXGXGXGXGXGXGXGXGXGXGXGXGXGXGXGXGXGXGXGXGXGXGXGXGXGXGXGXGXGXGXGXGXGXGXGXGXGXGXGXGXGXGXGXGXGXGXGXGXGXGXGXGXGXGXGXGXGXGXGXGXGXGXGXGXGXGXGXGXGXGXGXGXGXGXGXGXGXGXGXGXGXGXGXGXGXGXGXGXGXGXGXGXGXGXGXGXGXGXGXGXGXGXGXGXGXGXGXGXGXGXGXGXGXGXGXGXGXGXGXGXGXGXGXGXGXGXGXGXGXGXGXGXGXGXGXGXGXGXGXGXGXGXGXGXGXGXGXGXGXGXGXGXGXGXGXGXGXGXGXGX"
};
