/* XPM */
static char *result[] = {
/* columns rows colors chars-per-pixel */
"64 64 180 2 ",
"   c #975B01",
".  c #9B5E01",
"X  c #885C13",
"o  c #9E6101",
"O  c #986715",
"+  c #9F6B13",
"@  c #90661B",
"#  c #95691D",
"$  c #996C1D",
"%  c #A46501",
"&  c #A86700",
"*  c #A66904",
"=  c #AB6B03",
"-  c #A3670A",
";  c #A66A09",
":  c #AB6E0A",
">  c #B06E02",
",  c #B06F08",
"<  c #AF7004",
"1  c #A7710C",
"2  c #AD720C",
"3  c #B37304",
"4  c #B87602",
"5  c #BC7B03",
"6  c #B4740B",
"7  c #B8770C",
"8  c #B5790C",
"9  c #BB7B0C",
"0  c #A06D15",
"q  c #A86F13",
"w  c #A37016",
"e  c #AC7313",
"r  c #AD7815",
"t  c #A4731B",
"y  c #AC761B",
"u  c #AC7A1C",
"i  c #B17511",
"p  c #B67B13",
"a  c #BB7E13",
"s  c #B47D1C",
"d  c #B87E1A",
"f  c #966B22",
"g  c #986E24",
"h  c #956F29",
"j  c #9C7224",
"k  c #9D752B",
"l  c #A47521",
"z  c #A57925",
"x  c #AC7D22",
"c  c #A0762A",
"v  c #A57B2B",
"b  c #A97C29",
"n  c #B37F23",
"m  c #C17E02",
"M  c #BF8007",
"N  c #BD810E",
"B  c #B68115",
"V  c #BE8112",
"C  c #B3811D",
"Z  c #BC831C",
"A  c #BC891D",
"S  c #AE822B",
"D  c #B58223",
"F  c #BB8522",
"G  c #BD8A24",
"H  c #B4852B",
"J  c #BB8729",
"K  c #B7882D",
"L  c #BD8B2B",
"P  c #BE902E",
"I  c #AC8333",
"U  c #B18532",
"Y  c #B68A34",
"T  c #BC8D32",
"R  c #B38B3A",
"E  c #BE9235",
"W  c #BB923D",
"Q  c #C28104",
"!  c #C78806",
"~  c #CE8B03",
"^  c #C4830B",
"/  c #C8870B",
"(  c #C8880B",
")  c #C38612",
"_  c #C58811",
"`  c #CB8C13",
"'  c #C1871D",
"]  c #C28B1E",
"[  c #CA941C",
"{  c #C18620",
"}  c #C28C24",
"|  c #C28D2C",
" . c #C59124",
".. c #CB9522",
"X. c #CC9925",
"o. c #C5932C",
"O. c #CA962B",
"+. c #CC9A2B",
"@. c #D09C2C",
"#. c #C18E32",
"$. c #C49534",
"%. c #C89534",
"&. c #C69834",
"*. c #CB9C34",
"=. c #C3953B",
"-. c #C89738",
";. c #C59A3B",
":. c #CA9D3B",
">. c #CEA137",
",. c #CEA23C",
"<. c #D0A237",
"1. c #D1A53C",
"2. c #D3A83E",
"3. c #B79345",
"4. c #BB9443",
"5. c #BE994C",
"6. c #C39B44",
"7. c #CA9E43",
"8. c #C39D4B",
"9. c #C6A047",
"0. c #CDA343",
"q. c #C6A14D",
"w. c #CBA34B",
"e. c #CFA84C",
"r. c #D1A643",
"t. c #D3A945",
"y. c #D1A64A",
"u. c #D3AC4B",
"i. c #D6B04E",
"p. c #C7A252",
"a. c #CBA652",
"s. c #CEA953",
"d. c #CBA75B",
"f. c #CEAB5B",
"g. c #D3AD53",
"h. c #D2AD5A",
"j. c #D6B153",
"k. c #D8B455",
"l. c #D6B35B",
"z. c #D9B65B",
"x. c #DAB85E",
"c. c #CFAE61",
"v. c #D1AE61",
"b. c #D5B462",
"n. c #D9B663",
"m. c #D7B867",
"M. c #DBBB63",
"N. c #D6B66B",
"B. c #D9B66B",
"V. c #D7B86E",
"C. c #DCBE6B",
"Z. c #D7B671",
"A. c #D7B975",
"S. c #DCBD72",
"D. c #D6B77A",
"F. c #D7B978",
"G. c #DBBC7A",
"H. c #DEC06E",
"J. c #DEC173",
"K. c #DFC37A",
"L. c #E0C06D",
"P. c #E0C272",
"I. c #E1C57C",
"U. c #DABF82",
"Y. c #DEC383",
"T. c #DEC68A",
"R. c #E1C682",
"E. c #E2C885",
"W. c #E2CA8B",
"Q. c #E4CD93",
"!. c #E6D097",
"~. c #E6D19B",
"^. c #E9D5A4",
"/. c #EAD8A7",
"(. c #EAD9AC",
"). c #EDDEB5",
"_. c #EDDFB9",
"`. c #EEE0BE",
"'. c #F0E4C4",
"]. c None",
/* pixels */
"].].].].].].].].].].].].].].].].].].].].].].].].].].].].'.`./.^././.`.`.].].].].].].].].].].].].].].].].].].].].].].].].].].].].",
"].].].].].].].].].].].].].].].].].].].].].].].'.Q.C.k.u.t.2.t.2.t.2.1.1.t.j.J.!.'.].].].].].].].].].].].].].].].].].].].].].].].",
"].].].].].].].].].].].].].].].].].].].].`.W.j.u.u.u.k.x.f.f.x.n.x.x.x.x.l.g.t.2.t.k.W.'.].].].].].].].].].].].].].].].].].].].].",
"].].].].].].].].].].].].].].].].].].~.m.t.t.z.M.M.M.M.M.w.8.M.m.n.m.M.H.M.M.l.x.l.j.r.t.C./.].].].].].].].].].].].].].].].].].].",
"].].].].].].].].].].].].].].].].~.l.r.u.x.n.M.C.M.B.d.b.a.5.V.f.8.q.m.C.C.C.3.z 4.M.M.z.t.t.M.).].].].].].].].].].].].].].].].].",
"].].].].].].].].].].].].].].`.S.y.j.M.H.M.C.f.4.b.l.d.C.f.R J.R c.8.f.H.H.M.R h.=.4.M.s.g.x.u.t.I.].].].].].].].].].].].].].].].",
"].].].].].].].].].].].].].W.u.t.x.l.F.m.m.l.d.b.c.b.p.S.c.Y J.I W W J.J.V.s.3.J.a.4.M.p.g.n.M.x.2.j./.].].].].].].].].].].].].].",
"].].].].].].].].].].].].S.t.g.M.M.c.G.Y.Y.m.8.5.4.J.b.J.K.T.K.8.K.R.K.I.J.f.E H Y b.h.W C.h.b.M.x.u.r.E.].].].].].].].].].].].].",
"].].].].].].].].].].].x.0.M.M.M.M.n.b.l.p.b.S.M.I.E.Q.~.!.~.~.Q.!.~.~.!.~.Q.R.P.J.S.Y a.g.U Y p.b.n.k.2.J.].].].].].].].].].].].",
"].].].].].].].].].].x.e.l.T.K.C.H.H.f.w.l.K.W.^.^.Q.v.7.O...` m 6 ) ' | 7.m.W.Q.Q.I.l.C.8.8.8.U M.h.6.l.1.C.].].].].].].].].].].",
"].].].].].].].].].M.u.x.M.b.A.C.H.J.J.K.T.!.W.h.O.a ^ m / 7 m , 3 < 5 = = = 6 O.l.Q.~.V.W T U a.b.R 9.x.x.r.S.].].].].].].].].].",
"].].].].].].].].C.y.C.m.V.M.w.q.V.K.R.Q.T.t.V Q = m m ^ m > > > 3 5 4 4 > = = = m ' g.~.b.#.8.m.W 6.l.8.s.l.1.S.].].].].].].].].",
"].].].].].].].S.t.n.M.c.f.b.M.w.S.W.W.h...` m 4 4 4 X.y.n.G.I.E.K.R.Z.h.=.p & 3 7 9 m { N.Q.E.v.;.M.4.z 6.M.k.r.E.].].].].].].].",
"].].].].].].W.t.M.M.l.c.f.8.b.J.E.I.+.= / ^ 7 _ g.Y.W.W.W.R.I.R.R.R.E.E.W.W.S.7.7 , 7 m 3 =.E.Q.J.f.S w.g.n.x.j.t.^.].].].].].].",
"].].].].].(.g.k.n.V.M.l.c.f.V.E.C.] Q 3 m 7 y.W.W.R.R.I.K.J.R.I.I.K.K.P.J.I.R.E.I.=.4 m m , } E.W.z.K z.n.4.l.x.u.k.].].].].].].",
"].].].].].m.t.x.x.A.m.V.l.C.J.b.V 9 ~ = O.I.R.R.I.P.S.C.g.y.n.J.I.b.y.j.M.C.S.P.I.R.S.{ 9 7 4 m S.K.k.6.b T W n.x.r.P.].].].].].",
"].].].].W.u.x.x.b.m.q.l.H.K.m.1 3 < 7 w.W.R.S.H.C.u.} , 3 7 g.J.J.7.& & , X.j.C.H.C.J.E.-.= > % Z V.J.w.Y Y W n.M.j.1.`.].].].].",
"].].].].l.g.x.a.j.9.U f.J.J.B * 3 5 l.K.K.P.C.u.d = = > 7 7 a.P.I.8.. > 7 > 3 ' i.C.H.C.J.=.% = = F H.C.7.0.M.a.I 9.u.m.].].].].",
"].].].K.t.x.l.4.l.m.l.H.J.P = < Q h.I.I.P.S.T = > = & = > , h.P.I.8.= 7 7 6 = = > ;.C.C.C.n.$.% % = :.J.M.h.E v 6.x.l.y./.].].].",
"].].].z.g.M.s.H R p.m.H.a.o 3 < w.W.J.C.M.s = = = = o J h.Y.E.R.I.P.S.d.| , = = . % } C.M.l.b.D % = 3 l.V.e.=.l.x.x.x.r.M.].].].",
"].].Q.u.M.x.l.b.w.w.j.b.B < 3 G R.I.C.n.q % = 3 = $.S.E.E.I.I.J.L.L.R.I.R.S.}   . = 6 s C.C.M.m.q = = d S.C.n.M.x.M.n.j.t.].].].",
"].].x.u.x.8.v U l.m.l.,.5 o 4 n.J.K.H.s % 3 & 6 h.R.K.J.S.L.C.C.C.L.L.L.C.J.J.w.- 6 = % J C.M.H.w.% & & y.S.x.n.x.n.x.z.t.K.].].",
"].].g.z.M.Y W Y 9.l.j.N 3 < E H.C.C.%.3 % 3 6 h.H.H.L.C.j.%.n p p d i d p V i i , = % = : 9.C.S.m.s % = n S.M.x.R f I l.u.t.].].",
"].W.u.n.x.g.w.s.u.j.5.< * = x.H.C.j.a 7 = 6 b.I.H.C.j.F % . . = = > = , 7 , = * = = = = 7 6 M.C.k.w., , & g.C.e.j w.K v g.t.].].",
"].n.u.x.5.j.j.j.l.e.G < o o.m.M.M. .5 7 * g.Y.R.J.w.3 % % % % % & 6 , % 6 : & & = = % > > = %.M.n.M.n 6 = T M.e.I q.W k j.i.K.].",
"].l.j.x.w.8.a.n.l.l.< = < u.M.H.l.* 9 = Z K.K.J.u.= = % = = , = % 7 : & * & & & = % % & = * - M.z.j.%.& % i b.j.S z 9.,.k.j.M.].",
"].i.l.k.R v f w.e.w.* 3 N b.M.C.&.= = * s.H.C.z.- & = % * d w.m.B.V.J.B.V.B.V.Z.S.Z.S.7.> & o 7.k.g.r.= = o g.g.j.u.f.z.M.h.j.].",
"].t.l.j.E E 9.j.,.E 5 < Z z.M.M.B = o 7 M.C.M.J = > = % =.I.I.I.I.I.I.I.P.P.I.I.K.J.n.l.> o & n x.j.y.i = o ;.t.w.z $ 3.x.M.t.].",
"Y.i.u.a.w.h.m.x.w.G 1 3 o.x.x.j.= % 7 J M.H.M.% % & & T I.I.H.C.C.C.C.M.M.C.C.x.x.j.j.l.s . % : j.u.u.F % % L w.;.j 9.g k.k.t.].",
"G.i.9.n $ O S j.e.B 3 3 :.j.x.t.o % > -.M.M.w.% & % % x.C.C.k.&.o.o.+.$.L %.o.L o.u.k.M.#.  & > j.g.u.} % o H g.e.t # W z.k.u.^.",
"C.k.M.t.0.0.,.e.e.N 1 3 ,.j.M.0.* % = ,.x.H.P = = = D C.C.M.7 * = = 7 % * & * & & w.C.C.;.& = & u.k.j.L % o n u.e.j.e.M.z.z.g.W.",
"V.x.M.w.j k W y.t.B 5 * 0.z.M.w.= 8 * 9.x.H.o.= . % L C.L.k.6 6 > = 7 & & = & % & :.P.M.:.% & & a.M.k.J % % y u.u.k k k h w.g.K.",
"H.x.H.R $ T ,.,.0.A 4 = ,.l.M.y.5 3 = :.M.L.-.* * % L M.C.C.i 8 * % % * = & * . = 7.M.z.&.= % > h.M.l.J & = y y.,.L &.;.W j.i.Y.",
"V.x.H.3.h k R u.0.A 3 * ;.x.H.z.7 4 3 &.j.C.y.= = * 6 C.C.C.C.%.#.H | | | * % & % g.M.x.o.3 & % j.l.i.F o % n r.0.=.R 9.x.x.i.T.",
"J.l.x.e.T E W t.*.Z 3 3 o.u.x.x.m 3 = | l.L.M.3 * ; = -.z.x.H.H.S.I.L.C.| % o o 6 M.x.z.s 6 o , x.z.u.p % & n ,.;.@ z # x.x.u.T.",
"Y.x.H.x.e.9.u.r.o.L % = G e.k.x.} 6 o p j.M.S.| , < , 3 1.x.x.M.C.x.x.;.> o o = L M.z.j.: = = d x.j.u.6 % % T ;.-.# R $ s.x.j.].",
"].H.M.$ X O k y.&.*.< * 8 e.i.x.*.> 9 7 r.l.M.x.= ; = : = o.j.x.x.u.n o   o % = k.x.k.*.> 7 = =.z.u.,.% & % $.o.:.S l j j x.u.].",
"].x.M.e.u.i.$ ;.&.0.< 3 9 0.i.x.n.3 p 3 ' j.k.M.y.= = . o % . = , , o     % = 7.L.j.u.p & 6 * x.k.e.J % % . 0.&.u.u.j.x.x.i.k.].",
"].i.x.q.I h # 0.,.r.N 4 M X.t.i.M.} 7 3 = :.k.z.C.-.% % % - % 3 > , = . & = 7.K.C.u.o.* & , L M.i.,.p = & e =.:.u.u.j.j.z.g.u.].",
"].e.H.;.H E t.i.0.&.+.4 N _ 0.i.z.i.4 3 = 6 i.i.z.M.6.; 7 * = 6 , > , = i 7.C.z.j.:.= & = > j.k.u.;.* * & K L r.i.j.j.l.z.j.C.].",
"].F.C.x.l.j.i.i.,.P y._ ! 8 &.r.i.M.| , % > 6 <.t.i.z.M.y.F 4 6 , , F 7.M.x.x.j.>.2 > > * J l.i.t.i * =   ,.&.u.u.j.k.z.z.i.].].",
"].].x.H.x.j.r.u.i.E >.[ 4 < N ,.i.i.M.p = > = 2 <.2.i.z.x.C.L.x.M.L.C.n.x.j.t.<.6 = = % e x.l.u.$.= * o S &.t.i.u.j.j.z.j.g.].].",
"].].u.L.x.l.i.,.t.t.o.y.4 5 5 ] r.j.k.k.6 * 3 = : &.t.t.i.k.x.L.M.i.i.i.t.t.o.3 ; * % 1 x.M.k.r.e   o   9.o.r.t.i.j.l.x.j.h.].].",
"].].F.H.x.x.j.u.r.r.>.*. .o 3 M O.r.i.l.g.2 = 2 = = i O.<.t.k.z.k.i.2.@.F * = 6 7 % : g.j.g.1.} * o   D &.,.y.u.j.j.k.j.i.].].].",
"].].].k.C.j.i.t.>.:.*. .e.= 4 N 6 *.t.t.g.x.' > 4 & > & 3 7 +.i.t.<.6 = o & , 7 % s j.j.,.>.| , = % : :.o.,.t.u.j.z.k.t.,.].].].",
"].].].h.L.z.j.j.,.>.*.O. .0.8 3 = p :.>.u.l.n.:.= > = , 8 8 o.t.u.O.> = % > = 6 -.x.j.t.>.*.i > % 3 %.F ,.0.t.u.i.k.j.k.Z.].].].",
"].].].].x.P.x.z.j.>.>.&. .+.-.= 3 9 V &.*.u.j.k.x.%.a : , 6 ,.k.j.*.> = % 6 -.z.j.t.t.>.o.p 6 = . &.L &.t.t.u.j.j.k.j.:.].].].].",
"].].].].b.I.L.M.x.j.,.>.O.A *.*.4 ^ M 6 } <.t.u.j.l.M.y.=.F 1.i.i.:.J -.h.x.i.i.r.1.<.} 7 a 7 = J &.o.u.t.w.u.j.z.z.j.D.].].].].",
"].].].].].u.I.C.k.j.i.u.>.*...0.+.9 6 < < B *.,.t.t.i.j.j.i.i.i.t.i.x.k.i.j.j.t.*.o.d 6 2 7 B L :.&.,.t.t.u.j.j.j.k.w.].].].].].",
"].].].].].].C.L.j.u.t.t.*.*.>.O.>.>.: < : % = Z >.>.1.2.t.t.t.t.i.j.t.t.t.<.<. .i & > 6 > = *.>.+.0.t.u.u.i.l.x.x.u.].].].].].].",
"].].].].].].g.E.L.x.M.j.t.,.,.,.+.>.;.8 < 4 < * = p ..X.+.>.<.>.<.<.<.1.+.A p > = % = 7 6 ,.o.o.0.t.u.u.j.j.l.x.k.v.].].].].].].",
"].].].].].].].g.E.L.M.x.e.t.r.r.,.+.[ 0.| 3 3 o = 6 3 o * a p p a V 8 = * * = = , > 6 o.0. .>.1.r.t.u.i.k.k.x.M.e.].].].].].].].",
"].].].].].].].].i.I.M.x.x.i.1.,.,.>.>...+.u.%.= 3 8 = = = = * = 2 6 7 % *   = * 3 *.y.o.O.,.1.t.t.i.i.j.j.j.l.0.].].].].].].].].",
"].].].].].].].].].j.E.M.i.r.t.r.i.t.t.t.>...+.t.0.O.< * = = = = 7 7 3 = o * } *.r... .>.1.r.y.t.i.i.i.u.t.x.t.].].].].].].].].].",
"].].].].].].].].].].j.E.x.i.x.k.i.i.t.t.,.,.>...[ X.t.t.:.%.L } } &.o.-.0.r.+...O.>.1.r.t.t.t.u.i.j.u.i.x.u.].].].].].].].].].].",
"].].].].].].].].].].].i.W.H.x.k.i.i.i.u.r.1.,.o.L +.[ ....@.+.@.X.X...[ ..X.P D S &.r.t.t.u.i.j.k.z.x.M.:.].].].].].].].].].].].",
"].].].].].].].].].].].].j.I.H.x.k.j.i.t.t.t.t.D C 1.P H &.Y L &.L J K E >.L t L o.t.t.u.u.u.u.i.l.M.C.s.].].].].].].].].].].].].",
"].].].].].].].].].].].].].g.M.I.M.l.i.i.u.t.t.1 L r.u C w D A A u s G u u C u t.;.t t.u.i.x.M.L.C.k.b.].].].].].].].].].].].].].",
"].].].].].].].].].].].].].].].u.P.P.i.u.i.u.r.0 ,.e.1 G r B $.r.B A r.;.+ u t u.w.O =.k.i.k.C.C.u.].].].].].].].].].].].].].].].",
"].].].].].].].].].].].].].].].].B.i.I.L.i.u.r.r C C 8 ,.,.&.r u A G i.L + 0.u w 1 D g.x.J.C.u.S.].].].].].].].].].].].].].].].].",
"].].].].].].].].].].].].].].].].].].n.u.C.P.x.r.G A ,.,.1 } p G L 0 e 8 W j.k.u.u.M.P.M.t.C.].].].].].].].].].].].].].].].].].].",
"].].].].].].].].].].].].].].].].].].].].].y.k.M.H.H.H.j.r.:.,.j.e.9.t.k.x.M.H.H.C.j.u.].].].].].].].].].].].].].].].].].].].].].",
"].].].].].].].].].].].].].].].].].].].].].].].].e.1.i.M.M.C.L.L.H.P.P.L.C.k.2.l.].].].].].].].].].].].].].].].].].].].].].].].].",
"].].].].].].].].].].].].].].].].].].].].].].].].].].].].].P.L.x.M.L.I.].].].].].].].].].].].].].].].].].].].].].].].].].].].].]."
};
