/* XPM */
static char *result[] = {
/* columns rows colors chars-per-pixel */
"128 128 229 2 ",
"   c #7D5311",
".  c #8D5400",
"X  c #925700",
"o  c #955A01",
"O  c #9B5D01",
"+  c #945D08",
"@  c #855C15",
"#  c #895E15",
"$  c #895E18",
"%  c #825814",
"&  c #844E00",
"*  c #A25F00",
"=  c #9E6102",
"-  c #9D630A",
";  c #8C621A",
":  c #8D6117",
">  c #9D6A14",
",  c #92661C",
"<  c #94691D",
"1  c #9B6C1C",
"2  c #966513",
"3  c #9F701F",
"4  c #A36401",
"5  c #A96700",
"6  c #A66903",
"7  c #AC6B02",
"8  c #A16609",
"9  c #A46A0B",
"0  c #AB6D0A",
"q  c #B16D00",
"w  c #AE7006",
"e  c #A7700E",
"r  c #AC720B",
"t  c #B47203",
"y  c #B97501",
"u  c #B57A06",
"i  c #BC7A03",
"p  c #B3740B",
"a  c #B8770B",
"s  c #B6790C",
"d  c #BB7B0C",
"f  c #A26E13",
"g  c #A46E15",
"h  c #A57115",
"j  c #AD7312",
"k  c #A5731B",
"l  c #AB761C",
"z  c #AC7A1D",
"x  c #AE7A17",
"c  c #B37611",
"v  c #B57A13",
"b  c #BB7D13",
"n  c #B47C1A",
"m  c #BA7E1A",
"M  c #B17619",
"N  c #956B21",
"B  c #9A6F21",
"V  c #9E7325",
"C  c #9D742B",
"Z  c #A27525",
"A  c #A57926",
"S  c #AC7C22",
"D  c #A57B2B",
"F  c #AA7E2C",
"G  c #A2772A",
"H  c #B27E23",
"J  c #A77E32",
"K  c #C17D01",
"L  c #C07F0A",
"P  c #BD800B",
"I  c #BD8115",
"U  c #B6821D",
"Y  c #BC831B",
"T  c #BE891D",
"R  c #BE8816",
"E  c #AD822E",
"W  c #AD8027",
"Q  c #B48224",
"!  c #BA8423",
"~  c #BD8924",
"^  c #B3842C",
"/  c #B7882C",
"(  c #BC8C2C",
")  c #BA8629",
"_  c #AD8332",
"`  c #AB8539",
"'  c #B28633",
"]  c #B58934",
"[  c #BB8C33",
"{  c #B48B3A",
"}  c #BB8E39",
"|  c #B08739",
" . c #BE9134",
".. c #BC923C",
"X. c #C48202",
"o. c #C98601",
"O. c #CC8A04",
"+. c #C3830C",
"@. c #CC8C0B",
"#. c #C88A0C",
"$. c #D49307",
"%. c #C28415",
"&. c #C58A13",
"*. c #C98C15",
"=. c #C18519",
"-. c #C38B1B",
";. c #C98C1A",
":. c #CA9214",
">. c #C6911D",
",. c #CA931B",
"<. c #C79015",
"1. c #D19418",
"2. c #CD8F09",
"3. c #C28C23",
"4. c #C18D2A",
"5. c #C88F25",
"6. c #C59224",
"7. c #CA9524",
"8. c #CC9926",
"9. c #C4932C",
"0. c #CA962D",
"q. c #CB9A2C",
"w. c #C7982F",
"e. c #D29C2C",
"r. c #D09B26",
"t. c #C28E31",
"y. c #C49433",
"u. c #C99632",
"i. c #C69935",
"p. c #CB9C34",
"a. c #C3953B",
"s. c #C6993C",
"d. c #CB9D3B",
"f. c #C9963A",
"g. c #D19E32",
"h. c #D2A32D",
"j. c #CEA035",
"k. c #CEA23C",
"l. c #D3A235",
"z. c #D1A53D",
"x. c #D5A83D",
"c. c #AE8942",
"v. c #B48E42",
"b. c #BC9443",
"n. c #BB964A",
"m. c #BA9548",
"M. c #BE9A51",
"N. c #C29641",
"B. c #C49B44",
"V. c #CA9D42",
"C. c #C49D4B",
"Z. c #CA9E4C",
"A. c #C29E53",
"S. c #CC9F51",
"D. c #CEA443",
"F. c #C6A04D",
"G. c #CDA44B",
"H. c #CFA94C",
"J. c #C7A045",
"K. c #D1A642",
"L. c #D3A945",
"P. c #D1A54A",
"I. c #D4AD4B",
"U. c #DAAA44",
"Y. c #D6B04E",
"T. c #D9B14E",
"R. c #C5A253",
"E. c #CBA554",
"W. c #CEA953",
"Q. c #CAA65A",
"!. c #CDAB5C",
"~. c #C6A359",
"^. c #D1A551",
"/. c #D4AD52",
"(. c #D2AD5B",
"). c #D6AB57",
"_. c #D6B254",
"`. c #D8B455",
"'. c #D6B45A",
"]. c #D9B65B",
"[. c #DAB85E",
"{. c #DEB957",
"}. c #E0BC5F",
"|. c #CDAB62",
" X c #D1AF62",
".X c #D5B463",
"XX c #D9B662",
"oX c #DBBB63",
"OX c #D4B56B",
"+X c #D9B66A",
"@X c #DCBE6A",
"#X c #D7B96C",
"$X c #D7BA73",
"%X c #DBBD72",
"&X c #DBBE7B",
"*X c #D8B874",
"=X c #E0BF6B",
"-X c #E1BE62",
";X c #E0BC73",
":X c #DEC06D",
">X c #DEC173",
",X c #DFC37A",
"<X c #E1C16D",
"1X c #E1C375",
"2X c #E1C57C",
"3X c #E6C97E",
"4X c #DDC383",
"5X c #DDC68A",
"6X c #E1C682",
"7X c #E2C984",
"8X c #E3CB8B",
"9X c #E7CD8D",
"0X c #E4CE94",
"qX c #E6CF95",
"wX c #E6D19B",
"eX c #EAD39C",
"rX c #E9D194",
"tX c #E7D3A2",
"yX c #E9D5A3",
"uX c #E9D6AA",
"iX c #EBD9AD",
"pX c #EDD8A5",
"aX c #EBDAB3",
"sX c #EDDDB9",
"dX c #EFE1BE",
"fX c #F2E6C8",
"gX c #F4ECD5",
"hX c #EEE1C0",
"jX c None",
/* pixels */
"jXjXjXjXjXjXjXjXjXjXjXjXjXjXjXjXjXjXjXjXjXjXjXjXjXjXjXjXjXjXjXjXjXjXjXjXjXjXjXjXjXjXjXjXjXjXjXjXjXjXjXjXjXjXjXjXjXjXjXjXjXjXjXjXjXjXjXjXjXjXjXjXjXjXjXjXjXjXjXjXjXjXjXjXjXjXjXjXjXjXjXjXjXjXjXjXjXjXjXjXjXjXjXjXjXjXjXjXjXjXjXjXjXjXjXjXjXjXjXjXjXjXjXjXjXjXjXjX",
"jXjXjXjXjXjXjXjXjXjXjXjXjXjXjXjXjXjXjXjXjXjXjXjXjXjXjXjXjXjXjXjXjXjXjXjXjXjXjXjXjXjXjXjXjXjXjXjXjXjXjXjXjXhXiXwXqX9X8X,X,X>X@X:X@X>X>X>X,X,X7XqXyXaXfXjXjXjXjXjXjXjXjXjXjXjXjXjXjXjXjXjXjXjXjXjXjXjXjXjXjXjXjXjXjXjXjXjXjXjXjXjXjXjXjXjXjXjXjXjXjXjXjXjXjXjXjXjX",
"jXjXjXjXjXjXjXjXjXjXjXjXjXjXjXjXjXjXjXjXjXjXjXjXjXjXjXjXjXjXjXjXjXjXjXjXjXjXjXjXjXjXjXjXjXjXjXjXdXtX8X,X%X@XoXXX].`.Y.L.x.x.x.l.x.l.l.x.x.I.Y.].[.[.oX>X,XqXiXfXjXjXjXjXjXjXjXjXjXjXjXjXjXjXjXjXjXjXjXjXjXjXjXjXjXjXjXjXjXjXjXjXjXjXjXjXjXjXjXjXjXjXjXjXjXjXjXjX",
"jXjXjXjXjXjXjXjXjXjXjXjXjXjXjXjXjXjXjXjXjXjXjXjXjXjXjXjXjXjXjXjXjXjXjXjXjXjXjXjXjXjXjXjXgXuX0X6X%X@X[.Y.x.g.e.r.8.e.z.L.I.I.T._.T.T.P.L.x.l.q.8.7.r.e.L.`.XXoX%X,XqXhXjXjXjXjXjXjXjXjXjXjXjXjXjXjXjXjXjXjXjXjXjXjXjXjXjXjXjXjXjXjXjXjXjXjXjXjXjXjXjXjXjXjXjXjXjX",
"jXjXjXjXjXjXjXjXjXjXjXjXjXjXjXjXjXjXjXjXjXjXjXjXjXjXjXjXjXjXjXjXjXjXjXjXjXjXjXjXjXjXsX0X,X@XoX/.l.j.h.k.U.`.'.'.'.[.[.'.].[.[.[.[.[.[.[.[.'.].'._._.I.k.q.e.h.l._.XX@X,XqXfXjXjXjXjXjXjXjXjXjXjXjXjXjXjXjXjXjXjXjXjXjXjXjXjXjXjXjXjXjXjXjXjXjXjXjXjXjXjXjXjXjXjX",
"jXjXjXjXjXjXjXjXjXjXjXjXjXjXjXjXjXjXjXjXjXjXjXjXjXjXjXjXjXjXjXjXjXjXjXjXjXjXjXhXwX6X@XoXK.g.g.z._.'.XX[.oXXX[.XX[.n.v.XX[.XXoX[.XXXXoXoXXXXX.X].[.[.].[.].`.`.I.g.e.l.U.[.@X2XpXgXjXjXjXjXjXjXjXjXjXjXjXjXjXjXjXjXjXjXjXjXjXjXjXjXjXjXjXjXjXjXjXjXjXjXjXjXjXjXjX",
"jXjXjXjXjXjXjXjXjXjXjXjXjXjXjXjXjXjXjXjXjXjXjXjXjXjXjXjXjXjXjXjXjXjXjXjXjXsX9X,XoX/.p.q.P.].[.[.XXoXoX:XoXoXoXoXH.{ | J.oXoXXXoX@XXXoXoXoXoXoXoXXXoXoXoXXXXX[.[.[.`.I.l.8.l.`.oX:X9XfXjXjXjXjXjXjXjXjXjXjXjXjXjXjXjXjXjXjXjXjXjXjXjXjXjXjXjXjXjXjXjXjXjXjXjXjXjX",
"jXjXjXjXjXjXjXjXjXjXjXjXjXjXjXjXjXjXjXjXjXjXjXjXjXjXjXjXjXjXjXjXjXjXjXyX4X@XXXz.q.l./.XX@X@XoX@XoXoXoX#XoXoX:XoXoXs.{ :X#X:X XOX.X!.|.@X:XoX:XoXoXoXoXoXXXA.Q.oXXXXX[.].`.I.p.h.I.[.oX8XfXjXjXjXjXjXjXjXjXjXjXjXjXjXjXjXjXjXjXjXjXjXjXjXjXjXjXjXjXjXjXjXjXjXjXjX",
"jXjXjXjXjXjXjXjXjXjXjXjXjXjXjXjXjXjXjXjXjXjXjXjXjXjXjXjXjXjXjXjXjXyX>X'.].j.q.I.'._.[.'.oX[.oXoXoXoXoX$X$X!.$X#X:Xb.{ :X@X%X!.Q.R.R.A.W.:XOX:X:X:X#X:XXX!.C C _ M.oXXXoXXX[.]._.l.e.x.[.XX8XgXjXjXjXjXjXjXjXjXjXjXjXjXjXjXjXjXjXjXjXjXjXjXjXjXjXjXjXjXjXjXjXjXjX",
"jXjXjXjXjXjXjXjXjXjXjXjXjXjXjXjXjXjXjXjXjXjXjXjXjXjXjXjXjXjXjXsX,X:X].j.w.Y.'.[.[.:XXX:XoX:X#X@X:XoX].OXA.n.F.'.:X{ G W.>X%X!.Q...z...A.~.:X:X:X:X:XoX:XF.W V W E E |.oXoXXX[.[.]._.x.e.L.oX:XqXjXjXjXjXjXjXjXjXjXjXjXjXjXjXjXjXjXjXjXjXjXjXjXjXjXjXjXjXjXjXjXjX",
"jXjXjXjXjXjXjXjXjXjXjXjXjXjXjXjXjXjXjXjXjXjXjXjXjXjXjXjXjXjXwX,X[.K.w.H.`.[.[.XX:X[.:XXX].OXn.n.$X#XoXR.~.F.W.@X:XF.` n.,X>Xb.` !.:XW.n.J.>X:X:X:X:X#XoX{ ` b._.y._ _ oXoXoX].R.!.[.].`.L.h.Y.[.@XsXjXjXjXjXjXjXjXjXjXjXjXjXjXjXjXjXjXjXjXjXjXjXjXjXjXjXjXjXjXjX",
"jXjXjXjXjXjXjXjXjXjXjXjXjXjXjXjXjXjXjXjXjXjXjXjXjXjXjXjXyX>X#XI.w.H.].:XXX>X,X5X[.:XoXoX!.M.^ Q.J.:X:XF..X!.>X>X:Xb.E { ,X>X{ _ A.OXC.| { >X>X>X:X:X:X'.| m.[.:XoX^ D F.oX:X_.n.Z.W.oXoX]._.l.j.`.@X8XgXjXjXjXjXjXjXjXjXjXjXjXjXjXjXjXjXjXjXjXjXjXjXjXjXjXjXjXjX",
"jXjXjXjXjXjXjXjXjXjXjXjXjXjXjXjXjXjXjXjXjXjXjXjXjXjXjX5X#X'.u.z.'.:X:X[.,X,X5X4X'.:XOX!.|.v.'.H.oX>X:X Xm.W.>X,X>Xn._ _ >X:XE | b.| _ W (.,X>X:X:X:X:XF.{ A.:X:X:X..' b.@XoXoXB.B./.[.[.oXoX'._.g.x.].@XaXjXjXjXjXjXjXjXjXjXjXjXjXjXjXjXjXjXjXjXjXjXjXjXjXjXjXjX",
"jXjXjXjXjXjXjXjXjXjXjXjXjXjXjXjXjXjXjXjXjXjXjXjXjXsX:XXXL.7._.XX[.'.'.b.5XR.H.J.[.:X:XB.Q.&X>XXXn.~.>X(.Q.R.@X,X,XH.( ..,X,XF _ G. .i..X,X,X:X,X:X:X[._ _ M.:X,X X..{ F.@X@XR.b.XX[.oXoXoX[.oX[.'.z.8._.oX8XjXjXjXjXjXjXjXjXjXjXjXjXjXjXjXjXjXjXjXjXjXjXjXjXjXjX",
"jXjXjXjXjXjXjXjXjXjXjXjXjXjXjXjXjXjXjXjXjXjXjXjXtX@XXXl.p.].[.XX[.:X!.OX5XOX,X4X4X,X:XW.&Xv.~.M.m.{ :X#XJ.B.#X,X>X>X>X,X,X:X] v.oX>X>X,X,X>X:X:X:X:X!.W W E E _ ' ..} @X@X!.{ b.oX@X#X@X[.[.:XXX[.'.I.0.U.oX,XgXjXjXjXjXjXjXjXjXjXjXjXjXjXjXjXjXjXjXjXjXjXjXjXjX",
"jXjXjXjXjXjXjXjXjXjXjXjXjXjXjXjXjXjXjXjXjXjXjXqX#X_.u.I.].].oXXX[.:X[.~.$X>X5X5X5X,X,X:XV.' M.{ ..'.>X>X>X,X,X>X,X,X0XwX0X5XQ.W.5X0X8X5X,X4X5X4X:X:X4X:XW.k./ Q ^  .#X>X#X} _ J.oXoX!.M.Q.#XoXoXXX[.[.`.l.g.XX@XhXjXjXjXjXjXjXjXjXjXjXjXjXjXjXjXjXjXjXjXjXjXjXjX",
"jXjXjXjXjXjXjXjXjXjXjXjXjXjXjXjXjXjXjXjXjXjX>X[.I.u.'.oXoX[.oXoXoXoX#Xk.R..XH.G.!.~.F.>X>X'.K.I.%X6X1X&X&X6X0XwXyXaXaXaXsXsXuXuXaXsXaXsXaXaXuXyX0X6X6X;X2X%X@X%X>X,X,X>XC.' _ XXXXE.E E _ ..#XoXoXXXXX[.'.L.e.].@XuXjXjXjXjXjXjXjXjXjXjXjXjXjXjXjXjXjXjXjXjXjXjX",
"jXjXjXjXjXjXjXjXjXjXjXjXjXjXjXjXjXjXjXjXjX,XoXI.p.'.oX$X#XXXoXoXoX@X:X:XXXoX@XoXR.C.^.,X,X2X,X,X6X7X8XwXyXyXtXwX8X7X6X7X6X6X2X2X4X,X2X,X8X8X8X8XwXiXiXuXwX6X>X>X>X,X,X>XS } ..XX[.N.' ^ y.E { b.'.oXXXXX[.].I.q.`.[.wXjXjXjXjXjXjXjXjXjXjXjXjXjXjXjXjXjXjXjXjXjX",
"jXjXjXjXjXjXjXjXjXjXjXjXjXjXjXjXjXjXjXjX>XXXD.k.[.'.&X0X>XoX#X:X#X:X@X@X#XR.!.R.!.G.,X,X4X6X0XuXiXaXaXwX9X6X@XoX^.z.g.r.,.;.:.&.v m R ;.5.y.V./.%X6X6X0XwXyXyXwX4X,X,X>X_.p.'.:XoXE { @XXX[ D E '.oXXX`.b. X'.`.q.U.@XwXjXjXjXjXjXjXjXjXjXjXjXjXjXjXjXjXjXjXjXjX",
"jXjXjXjXjXjXjXjXjXjXjXjXjXjXjXjXjXjXjX7XoXk.D.XXXX'.&X0X0X:XoX:X@X:X:X>X@XB.y.H.I.,X2X5X9XwXuXuXyX0X6XoXZ.4.9 K K L ;.@.o.O.6 7 X.= t #.K a y q 4 v u./.@X:X7X8XyXyX0X,X>X#X:X,X&X[ { A..X] _ B.oXoX@Xa.{ [ [.[.`.q.Y.XXqXjXjXjXjXjXjXjXjXjXjXjXjXjXjXjXjXjXjXjX",
"jXjXjXjXjXjXjXjXjXjXjXjXjXjXjXjXjXjX6X#XK.K.'.XX:XXX!.,X0X5X:X:X@X:X>X>X>X#X@X>X,X6X8XwXyXqX8X4X.Xf.I m 1.o.7 L ;.@.K a 0 O.t t 6 i y = L X.0 t 4 7 q 7 q 3.L.XX>X8XwXuXtX5X,XF.' C.) ^ ' E [ XX#X#XR.{ [ N.XX[.[.`.p.T.oXwXjXjXjXjXjXjXjXjXjXjXjXjXjXjXjXjXjXjX",
"jXjXjXjXjXjXjXjXjXjXjXjXjXjXjXjXjX6XoXk.I.XX[.XXXXXXoXW.|.A.OX:X@X>X>X>X,X,X,X4X0XwXwX9X,X@Xd.I o.o.9 O.K v K O.o.L 0 L o.X.7 7 = O.i 7 i y t 4 i 6 6 7 5 5 K K 7.).2X8XyXaXwX/.[ [ C. .' { W.XXoXW.{ E I.oXXX[.XX].`.u.`.oXyXjXjXjXjXjXjXjXjXjXjXjXjXjXjXjXjXjX",
"jXjXjXjXjXjXjXjXjXjXjXjXjXjXjXjX7X@XG.D.oXoXoXXX:X:XoXXX..J.B..X>X>X>X,X2X2X8X0XwX0X2X@Xy.+.X.O.7 6 7 O.o.= 1.O.O.O.K * 7 0 y 4 X.7 t O.o.7 o.6 t t 7 7 5 5 y K K y -.K.>X9XyXiX/.( ' [ ' ..:XXX_.' ' ..oXoX#X.XoX[.].`.q./.oXiXjXjXjXjXjXjXjXjXjXjXjXjXjXjXjXjX",
"jXjXjXjXjXjXjXjXjXjXjXjXjXjXjX0X%X/.D.[.@X@X@X@XOX:X:X:X[.k.b.F.XX&X,X2X4X8X0X0X6X#Xp.&.L a 2.q X.6 O.t m @.K v w K d 6 i 5 7 K 6 u O.w y t w i 7 7 7 7 7 7 O 0 &.q 0 I -.D.,X0XtX%Xs.( s.:X>X^.{ ] ] [.XXB.J _ _ '.[.[.`.q.'.oXdXjXjXjXjXjXjXjXjXjXjXjXjXjXjXjX",
"jXjXjXjXjXjXjXjXjXjXjXjXjXjXqX%X_.k.:X[.[.:X.XQ.!. X:X:X:X X.. .(.,X,X6X0X0X8X>XV.*.;.L t q 9 o.w t o.7 o.L r @.7.f.S.+X%X;X2X2X&X*X*X+X(.V.' L q 7 5 q 5 5 y t y b %.+.b m 3.^.;X8XtX9X2X&X@XQ ' [ XX:X]./ C W { [.[.[.]._.q.[.oXgXjXjXjXjXjXjXjXjXjXjXjXjXjXjX",
"jXjXjXjXjXjXjXjXjXjXjXjXjXtX@X_.i.'.'.'.'.:X X#XJ.!.B. X#X:X_.:X>X,X8X0X8X>X^.c 1.&.*.1.$.$.K 7 X.y K 0 g.XX;XqX0X0XwX0X0X7X8X0X9X9X0X0X9X0XrX0X8X+XV.b 5 O a p b d K 0 L L a 5 3.XX&X0XyX6X%X[.i.].:X:XC.C V W E _.oX[.[.'.Y.q.[.,XjXjXjXjXjXjXjXjXjXjXjXjXjXjX",
"jXjXjXjXjXjXjXjXjXjXjXjXjX>XoXu.[.[.:X[.'./.5X!.OX!...F.OX:X:X:X2X8X0X6X>Xs.- u K ;.r.K o.r 7 o.O.! (.0XqX0XqXqX0X8X8X6X2X2X6X6X7X7X7X8X7X8X8X8X8X8X8XqX&XN.c &.L 5 4 * K y c m #.0 I.;X8XuX7X;X:X:X:XW.C E / (  .[.[.[.[.[.'.K.z.[.6XjXjXjXjXjXjXjXjXjXjXjXjXjX",
"jXjXjXjXjXjXjXjXjXjXjXjX4X@XD.I.'.:X[.:X[.W./.J. XJ...W...:X>X,X4X8X2XXX>.O.y 7 L $.y K 0 u O.p.,X8X0X0X8X7X7X7X6X8X6X2X;X6X6X6X2X4X6X,X6X,X6X6X6X6X,X6X6X8X8X(.3.p t K K L L K t y 4 t.@X6XuX7X>X>X#X..E ..'.].XX[.oXXXXX[.]._.j.I.XXiXjXjXjXjXjXjXjXjXjXjXjXjX",
"jXjXjXjXjXjXjXjXjXjXjX0X:XH.J.[.[.:X[.:X:X'.[.!.~.~.OXJ.:X>X,X4X,X%XI.#.$.P 6 6 $.L 0 0 d U.6XrX0X0X8X6X4X6X2X2X2X2X>X>X,X6X2X2X,X6X2X2X&X2X2X,X2X%X>X,X6X2X6X8X8XXX;.t 6 y a L %.X.q 7 m XX2XeX0X>X:Xk.W ' _..XXXoXR.Q.oXXX[.[.`.q.[.#XjXjXjXjXjXjXjXjXjXjXjXjX",
"jXjXjXjXjXjXjXjXjXjXjXXX_.w.].[.[.XXOX4X:X:X:XB. X,XR. X:X>X8X4X>XG.u =.d t X.7 K q y 7.>X8X8X8X8X7X6X2X2X&X1X&X>X>X>X>X6X2X,X,X,X2X2X,X&X1X>X>X>X>X2X7X7X,X6X,X7X7X9XA.K K K K y b c q K d -X&XwX5X:X:Xp.W _.[.XX(.Q D R.XXXX[.'.I.u.[.2XjXjXjXjXjXjXjXjXjXjXjX",
"jXjXjXjXjXjXjXjXjXjX>X[.j._.[.[..X'.,X5XR.>X:X.XI.L. X:X:X:X,X:XD.d t O.X.$.w w q 1._.7X8X7X6X6X6X,X2X1X1X>X1X@X@X:X:X>X,X2X2X2X2X2X>X>X<X@X:X:X@X<X>X:X,X>X,X,X&X6X6X8X&Xu.y L K K t y K K c (.>XwX7XoX'._._.b.Z ] N.Q D '.XX[.[.'.x.L.XXaXjXjXjXjXjXjXjXjXjXjX",
"jXjXjXjXjXjXjXjXjXwX$XY.D.[.[.[./.:X4X..>XOX X>X:X:X:X:X,X:X:X..t u t 2.O.O.4 7 e.2X6X6X,X4X2X,X,X>X%X>X@X=X@XoXP.w.5.%.u.>X:X1X>X,X,X! I 5.p.I.oXoX@X:X:XoX:X:X2X&X2X2X7X8X Xa d b L L y 5 * L H.:X5X,X'.'.I.A V Q ] [ E b.XX[.[.[.`.u.`.'.jXjXjXjXjXjXjXjXjXjX",
"jXjXjXjXjXjXjXjXjX%XXXp.[.XXoX`.H.>X$XOX$X~. XoX:X:X>X>X,X>Xb.6 7 d 7 t %.q 4 P.8X7X6X>X>X>X>X>X>X:X@X@XXXf.%.* q q 0 =.0.,X>X%X:X>X;Xm K * + * 7 3.U.oXoXoX@X<X>X:X:X:X1X6X8X6X%.y 0 O K 7 6 4 9 _.XXqX,X`._.S W !.] E E s.[.[.[.].].H.g._.8XjXjXjXjXjXjXjXjXjX",
"jXjXjXjXjXjXjXjX4XXXK.I.[.XXXX'.Y. XOX!.E J.!.H.:X:X4X4XoXG.6 6 7 w i - i p  X8X0X8X8X2X>X@X@X>X@X@X/.-.u 7 5 y 6 m L q 4.>X2X,X:X1X=Xn 7 X y q 0 6 K L 0.{.@X@X:X:XoXoX@X2X6X6X6Xa.t y y 6 6 X y s `.;X9X@XXXk.W ] ] ] / ].[..X[.OX[.Y.q._.oXjXjXjXjXjXjXjXjXjX",
"jXjXjXjXjXjXjXjXoX[.p.[.[.oX[.XX[._. ./ } '  ..X:X>X5X,XW.6 t O t 7 w X.#.OX7X2X>X,X1X>X@X@XoX:XD.m y q 7 5 u q a t v m y.;X1X>X,X2X;XH O * y 7 q 7 4 y y y 5./.[.}.oX:X@X:X@X%X;X2X[ 4 8 5 4 q 4 7 L '.oX9X@XoXj.' ]  .].[.XX:XA.C .._._.k.:X4XjXjXjXjXjXjXjXjX",
"jXjXjXjXjXjXjX,XXXk.`.XX[.oXW.{ H.[.oXH.E ( '.:X:X:X>XXXu = 6 7 7 i X.*.>X,X4X,X,X,X@X2X>X@X`.v q 4 * 9 t 7 5 q 0 L a y ^ :X>X>X>X>X6XH o 4 q j L d y q 0 u 4 q 6.[.[.:X<X@X@XoX@X=X1XV.4 5 q 4 6 y 6 l '.:X>X#X:Xw.H.'.XX:X~._ V W E '.XXk.Y.[.fXjXjXjXjXjXjXjX",
"jXjXjXjXjXjXjXoX[.p.[.XXXX[.F.F.k.[.XX:XH.'.:XOX,X$X:XT 6 t . i X.X.+.oX2X6X,X,X2X1X2X2X>X} 6 7 6 t q p q 4 a q y q a d t.;X%X<X>X2X>XH + q 0 L b p c 5 5 O y 5 6 u I.>X@X1X>X@XoX@XoX#Xf.6 4 = 4 4 0 q d.oX4X@X:X.X[.:X!...V V V ..'.[.'._.w.[.6XjXjXjXjXjXjXjX",
"jXjXjXjXjXjX%XXXk.`.[.[.XXG.E { OX:X:X.X:X[.:X:X,X:X..= 6 w 6 X.K i *X6X>X%X>X>X>X;X%XoXl 7 7 7 t q 7 4 7 O o q q 7 q 5 f.7X2X2X2X2X6X/ q * q L t m L t q q 4 q 7 t o p.@X>X@X@X@XoX[.XXXXQ 4 t 4 4 O y a /.@X8XXX[._.B.' E W ] H.[.[.[.[.'.k.I.oXfXjXjXjXjXjXjX",
"jXjXjXjXjXjXXX[.k.[.[.oX[.[ V D E m..X:X:X.X:X:X:XH.6 w w 7 i w q |.8X8X,X>X%X:X>X:X'.0 q 4 q 4 0 7 7 a * 4 5 q m V. X4X8X7X7X6X6X2X1X&X+X+XN.a L m 7 q 6 6 y q 8 o 8 7 =.@X>X@XXXXX[.`.'.'.Q = 4 O 4 7 q v XX>X>X_.'. .W / H.[.[.'.].[.[.'._.i.XX6XjXjXjXjXjXjX",
"jXjXjXjXjX4X[.K._.[.XX[.XX[.I.W V ` W J.:X[.OX:XOXx = - t X.i = D.8X8X6X,X>X@XoXoXG.= 7 7 9 7 t 4 t 4 5 o 5 f.&XqXqXqXqX7X7X4X2X1X@X<X@X;X5X0X0X*Xt.t f q q 5 8 o o o q q j oXoX@XoX'.'.oXXXXX= 4 9 q 5 q q 9.XX,X].[.H.k.[..X[.[.:X[.[.[.[.'.j.`.XXjXjXjXjXjXjX",
"jXjXjXjXjXXXXXl.[.[.[.oX[.[.[.[.J.W Q `.XX'.'.:Xd.w w P P 6 w T 8X8X7X6X:X[.@X=XD.4 7 O q 7 q q 7 4 q p B.2X8X8X9X7X8X7X6X2X2X>X<X@X:X:X2X6X2X6X2X8X2Xa.t q o 4 * X 4 5 b q j ].@XoX@X@X@XoX:XQ.8 O q 5 q q q T.XX7X@X@X].XXXX[.XX].[.[.[.[.[.Y.d.[.qXjXjXjXjXjX",
"jXjXjXjXjX[._.L.[.[.XXXX'.!.|.oXoX'.I.'._./.XXoXr w 6 = w 7 P :X>X,X6X>X>X:XoXP.O o 7 7 q 7 a p 4 u f.2X7X7X6X6X,X2X,X>X>X>X:X>X:X:X:X1X2X,X6X,X2X2X6X8X6X4.X O O o q q 6 c 5 j oX@X>X@X#X@X#X:Xf.5 * p 4 4 0 H oX;X%XoX[.:X:X[.XXoX[.XXXX[.'._.p.[.oXjXjXjXjXjX",
"jXjXjXjX#X[.d.].[.XX[.F.| Z V /.:XXXXX[._.'..X .K i o 6 u t s.:X>X>X,X2X:X:X).4 7 O 6 7 4 p q q b #X7X6X6X2X2X1X,X>X<X:X>X@X@X<X:X:X:X:X1X1X>X>X>X>X=X1X&X2X).8 X 8 5 v t 4 4 4 M oX@X@X:X:XoX:X&Xb 8 * q * 5 5 /.].2XoXXXXXoXXX[.[.XX[.[.].[.'.K.I.].sXjXjXjXjX",
"jXjXjXjX'.[.g.[.[.XX/.G B A Z _ b.XXoX>X(..X_.u K K = 6 i r .X:X@X@X>X>X1X@Xf 4 4 6 %.7 4 4 q Y >X6X,X,X&X;X1X%X:X:X:X<X@X@X@XoX@X:X<X:X:X[.:X:XoX=X@X@X=XoX@X+Xc 7 b q a 4 4 4 * 4.@XoXXXXX:X>XoXV.5 = 0 * 5 q H @X1X#X[.XXXXXXXXXXoXXX#X[.[.].`.u.`.,XjXjXjXjX",
"jXjXjX0X[.P._.[.XX[.V.J [ D ^ C.} `.XX.X/.@Xi.i X.7 t 6 6 _.:X:X:X:X@X:X>X) p 6 = 7 d w 7 4 ( %X:X:X>X,X:X<X@X@X@X@XoX{.K.t.4.! 3.! 0.4.~ S 6.3.3.H 0.5.H =.H -.n 5 q 9 - 4 4 5 t o F.@X@X@X@X>X@X@Xl 5 4 8 8 t 6 (.@X2XXXXXXX'.[.c.C N D Q.XX[.].u._.I.jXjXjXjX",
"jXjXjX'.[.z.].[.[.XXB.| Z.!.^ { W '.[.H.H._.- P w 7 = y / :X:X:X@X@X:X#XB.a y L 4 t t 7 5 9.%X1X:X:X:X:X:X@X@XoX`.[ 0 5 X 5 a 5 6 q 8 q 7 4 q 0 d q q c 5 4 t 4 7 q q t 7 * q 6 M d t XX@X:X>X@X'.`.^.7 4 7 4 4 5 ! @X1XoXXX[.'._ ; V N Z Z b.`._.K.z.D.uXjXjXjX",
"jXjXjX'.[.z.[.[.[.[.I.!..X(.(.(.s.Y.'.H.oX| w t 7 6 6 t H.:X[.:X:X:XoX[.p d %.p 4 7 t 7 3.2X6X<X:XoXoX<X:XoX/.3.q O O O O 4 4 q 6 4 7 q 7 7 t 7 p m I 4 5 q - q q a q 7 * u q t 7 p b ( :X>X>X[.'.'.'.m 5 a q 5 5 8 ).#X>X[.[.D.; < ] k.( < ; G.T.L.p.I.&XjXjXjX",
"jXjXjX'._.I.[.XX[.[.'.D.[ s.D.s._.'.'./.oX1 X.6 6 w = n :X.X:X:XoXoXoX9.%.&.i 7 7 7 0 m >X2X6X,X:X:XoX@X[.9.t q 4 4 4 . 4 X q 4 5 q q 7 9 q 0 q q t q q 6 O 7 q 4 = 8 q 4 4 q 9 b d q 4 D.XX@XoX'./.[.^.b 0 c p 4 4 t.oX>X[.'.[ V | '._.I.S ; ] I._.d.[.[.jXjXjX",
"jXjX#X[.K.[.[.[.[.F.`.`.I._._.'.'._.J.!._.u P 7 6 = w D.:XoX:X:X:XoX_.K i y d t 9 p a %X7X6X2X2X2X>X@XI.p q 4 7 5 4 7 o q X * q q 7 a p q q 4 0 5 a m 4 4 7 4 4 q q 5 q O p q y q p p 5 v =X@XoXXXoXoX@Xm c v v q 5 9 XX@XXX'.( W ..'.[.].] ; W _._.H._._.jXjXjX",
"jXjX/.[.K.[.[.[.G.; v.XX_.[.(._.XXW.k.H. .P 6 w w & P ].oXoXXX:X:XoX9.i w -.L 5 6 = P.7X6X6X2X,X:X:X/.t q 4 4 4 4 5 4 7 4 5 o q 7 4 q a j 5 6 O d m q 4 5 4 7 6 q 7 8 7 O o q q 5 t 5 4 0 H.oXoX[.XXoXXXN.m L 5 5 6 4 I.[.@X'.s.C E { ` b.W < .._.'.].D._.0XjXjX",
"jXjX/.[.K.[.[.'.D.] C.R. X_.XX'.oX'.!.[.x 7 6 7 6 6 8..XoXoXoXXXoX[.9 6 +.y t 7 6 R 2X4X6X2X,X1X1X'.r q a 4 4 O - 4 q q 4 8 6 6 5 q 0 b c p 5 4 9 c 0 7 4 7 4 6 6 5 t 4 4 4 q 5 6 0 5 t 4 Y oXoXoX'.`./.'.q 4 q 6 8 7 [ [.#X'.H.U B N N W D.( H.H.].oXk.[.@XjXjX",
"jXjX'.].L.[.[.'.XX/.b.} | .X>XoXoXW.[.XX6 7 6 7 7 P I.XXoXoXoX:XoXk.r 4 I =.6 q 7 W.>X,X,X1X,X:X[.t q 7 O q 7 6 q q 5 v =.p 8 5 4 4 q b 7 4 6 5 * o 7 5 6 4 q 7 5 5 4 O O 5 6 7 4 = 5 9 + o '.oXXX/.P.).XXb 5 8 4 5 7 j [.XX_._.D.U W ] J.Y.I.H._.:XoXk.XX].jXjX",
"jX8X'.L.'.[.[.`.`._.C.V D D J.].'.J.[.B.6 6 - w O.P [.XXoX[.@XoXoXY 4 7 o r t 4 R >X@X:X:X@XoX@Xg t 7 4 6 0 5 r 8 0 0 q q 3.s./.Z.Z.P.S.-X).Z.Z.E.Z.Z.G.S.P.^.P.E.P.^.S.S.^.R.9 q q q * 4 * i.[.`._._.H.P.9.8 5 q q 5 X [./.[.`._._._.H.Y.'.Y._.@X@X@Xd.:X_.jXjX",
"jX+X'.K.].].].`.V < F ; $ ;  ././.k.'.Q w 6 w o.t ~ '.XXXXoXoXoX].i i = 5 7 O q J.:X@X@X@X<X-XN.o - 5 5 7 7 7 X O 6 c Z.&X2X2X7X6X7X8X8X8X8X8X9X8X2X6X2X2X9X8X8X8X9X8X0X8X8X2Xy.q q q o O 5 M [.'.`.`.H.I.V.q q q 5 * O s.I.^._._.H.I./.R.!.'.oXoXoX].I._.H.jXjX",
"jXD.`.z.`.].[.D.' W k S /  ._.W.J.D.[.x 7 X.X.w t y.[.[.XXoXoX@Xs.7 i = o 7 6 u [.:X:X:X[.:XoXO q 7 5 q q 7 q o 4 i.2X2X2X7X7X6X6X6X2X2X&X6X6X7X6X2X,X,X2X6X6X6X2X6X6X,X@XoX[.[.q q 5 O O 0 6 '.[.[._././.K.0 0 v 5 * * ^ `.I.I.H.D.b.V N N _ :XoX'.oX[.V.I.wXjX",
"jXd.`.l.].[.XXD.d.D._._.oXXX'._.i.s.`.= X.u 6 7 4 H.'.[.[.oXoXoXm K 7 6 O 8 q 3.:XoXoXoX:X{.p.o 4 4 q q q q 5 * V.;X2X6X6X2X2X2X7X2X1X1X;X1X1X;X:X;X:X2X2X2X;X;X>X>X>XoX`.]._.[.c 5 4 * 4 7 = f.XX'.[._.K.V.5.q 5 5 O O k [.D.D.H.k.< N k < < n.[.'.oXXXk.`.6XjX",
"jXD.].z.'.].].[._.H.L._.XXXXXXXXs.D.J.9 d 4 - i t _.'.XX[.[.].].t 7 6 4 q I 4 G.oX@XoX@X@X@Xc * o q q 8 q 7 4 f.2X2X1X2X1X:X:X<X<X<X@X@X:X<XoX@X@XoX>X>X>X1X@XoX@X[.].`.Y.`.Y.`.0.O O * 4 5 5 ! '._.I.G.L.D.~ x 0 4 O 5 = /.D.B.I./ ; W k. .; V `.`.[._.p.`.%XjX",
"jXD.`.L._.] R.[ | W. X X#X:X].oXH._.s.p 6 9 6 i +.`.'.'.[.oX[.I.t 6 = 6 7 b t [.oXoXoX:X<X/.o 7 4 7 t O 5 = H 1X2X2X2X>X<X@X[.[.[.oX[.@XoX[.[.oX[.[.{.[.@X[.].].`._.`.Y.I._.Y.[.P.* * . 4 4 4 0 ]._._.'.H./.d.s 4 4 5 - * I.D.I.I./ ; _ '.J.N D _.]._.`.p.[.[.jX",
"jX`.T._.D.} ' 1 ; ; ; ; ; H._._.k.'.i.t p u p t -._.'.[.[.].].D.= = 6 = 7 t b XXoXoXoX:X@X4.o q 5 6 . 7 O 4 /.>X:X<X:X@XoX[.].`.T.`.`.`.`.`.`.[.`.T.`.{.`._.T.Y./._._.T.Y.].[.:X@X4 O o 4 4 q 7 ]._._.I.D.`.D.4 5 4 O 6 7 F.`.'.I.k.3 B B N N ..].'.Y.].p.oXXXjX",
"jX/.U.].].i.9.W z z W 2 1 y.H.H.s./.~ i t t u 7 3._.W._.[.[.`.w.= O O = t 7 Q '.oXoXoX:X=Xj 4 r 5 5 4 q o j XXoX:X:X:XoX[.V.d 7 7 t * q &.t 5 5 7 X q q q t . 6 6 0 K.`.'.].:XoXoXc X * 5 q q p K.Y._.Y.H._.K.m O * 8 * o N.`.`.I.W.( > ; ; _ oX[._.`.'.p.XX'.jX",
"jX/.T.[.oX{.K.K.k.J.k.k.i.H./.H.d._.-.i d t u 7 ~ Y._.Y.'.[.[.4.7 6 & t y O 3./.].[.[.{.[.= 7 4 4 7 q 4 4 [ {.[.[.:X[.[.k.7 q 0 7 d q q q v 5 6 0 q 7 0 6 6 7 7 4 O ! @X[.@X@X@X[.m O q q q * 5 J._._.'._._.I.4 4 O 4 * 9  .Y.H.H.I.H.I.k.H.XXoX].'.'.`.K.oX/.jX",
"jXI.U.[.oXoX`.H.G.k.D.L.D.D.Y.H.s.'.Y K - 9 r i ( _._.`.oXoXoX~ 6 6 O t q 4 y.`.[.:X:X[.[.= 0 4 q 7 4 7 4 G.@X@XoXoX:X].t t q 8 5 - t 6 %.b 5 4 8 4 4 5 7 0 q O q 7 b @X@X1X=XoX'.! 7 7 7 4 q 5 D._.].[.`._./.0 5 = 5 O 6 ..H.H.L.H.].].'.[.XX]./.]._.[.K.[.I.jX",
"jX[.`.@X:XoX[.Y...b...n.M.I./.D.i.'.l I K t = 4 ( _.'.].[.:X:XT 7 = u y 4 4 ..'.{.[.oX:X_.7 7 q 4 4 4 6 4 XX1X1X<X:X:XK.4 v I s 7 4 4 d q q 7 4 7 4 a 7 7 = 7 O - q s @X1X>XoX[.'.3.5 X 4 7 4 7 d.[.[.[.'._.I.7 o 7 O 7 = _ _.L.I._.b.` | c.c.c.c.` R.`.K./.I.jX",
"jX`.`.<X[.{._.E       ; V p.K.D.y._.U u I u K 4 u._.[.oXoX[.:X~ 7 t r %.+.O i.].].:X:X>X'.q q q O O 4 6 4 _.oX@X<X:X:Xk.7 a d 4 q a = b %.0 7 4 5 5 4 5 4 5 4 4 = q p :X:X@XoX'.'.~ 7 5 6 4 7 = a.oXXXXX[.I./.= 7 O 7 7 7 ^ Y.D.I.H.1   < $ ; ; @ % | ].I.`.D.jX",
"jX].{.:X:X[.'.    > l W / p.D.y.y.`.! R R y 6 6 ( I.`.'.[.[.[.9.K i p y t 5 9._.[.@X:X@XoXq p 6 4 * O 8 7 I.{.oX[.:X@X@X7 7 t j 4 O 7 o 0 7 4 p 4 7 8 5 6 6 o O t 6 c @X@X[.[.].`.~ 7 7 5 4 4 q D.@X@XXX[._./.4 q 5 0 0 * ) ^.k.D.K.Q W W / ( ^ / W J.[.H.Y.H.jX",
"jX].{.:X:X:X:X; : I.H.D.D.H.K.d.9./.4.K i = 7 6  .'.[.oX@X@X@Xp.i i 0 %.t 7 9.D.`.@X<X1X=X5 - 8 r 4 5 q 7 G.@XoX:X@X<X:XZ.0 I b a q O = 4 o q = q 7 q 4 5 7 4 O = 4 Y @XoXoX[.].`.m q 7 8 7 q q ^.=XoX'.`._.G.4 4 8 5 5 * [ I.i.D.D.k.k.D._.`.Y.I.H.'.].L.[.].jX",
"jX[.}.:X[.:X[.W ; v.b.{ v.XX`.G.y./.Y I i 6 = = Q _.XXoX@X<X>Xd.L M y 7 7 t ~ I.Y.XX@X=X<Xm q 6 = q p 4 4 4.-X@X:X}.<X:X2Xf.t 7 4 q o O q * 7 q v 0 4 q q O 4 4 q 4 4.oXoX[.[.].`.c b 6 q * 7 4 G.XX].`./.I.D.4 * O 5 * 5 a.P.d.D.k.k.K./.[.Y.L.I.Y.[.[.D.].I.jX",
"jX[.{.:X[.:X:XV @ , ; @ % i.I.D.9./.u.+.u u t 6 ~ K.`.XXoX:X>X`.+.t i t p 0 n H.Y.`.[.oX-Xw.6 7 0 t O 8 4 s oX@X:X:X@X@X=X1X,X@X.X X(.!.(..X'.'.).P.4 5 q O O 5 = q D.@XoXoX[.`./.a q q q o O 7 '.[.].`.Y.I.k.9 * * * 5 5 a.D.d.k.D.J.C N   ` H.].:X[.[.k.[.I.jX",
"jXI.T.:X[.:X[.W k k S z k s.I.D.( I.9.t p y w u I I.I._.`.[.oX/.d I p y w t r `.Y._.[.:X@XL.7 t 0 O 9 0 7 7 d.oX[.[.:X:X:X:X:X:X;X1X2X7X2X>X>X:XoXH 5 9 O 4 O O 7 7 [.oXoX[.'.'.I.4 p b q X 4 q XX[.[._._.I.y.7 O 5 q 5 4 b.K.y.s.k.V   @ @ : E [.[.`.].k.[.I.jX",
"jX_.`.{.[._.[.[._.k.K.H.D.I.I.D.~ D.i.7 u t p t d K.I.Y.`.].oX[.+.y t y = w t I.XX:X:X:X:X>Xd t 7 7 q 8 9 7 9 _.`.{.{.`.{.:X:X}.@X1X1X<X:X:XoX[.z.7 q o O O 5 4 7 T @X@X[.].'._.y.4 0 7 4 o q d XX[.'._.I.I.4.4 5 8 5 q . H.D.s.G.( ; , K.T ; ; [.oX'.].j.].K.jX",
"jXD.[.{.].:X[.].XXI.H.H.K.I.I.K.~ p.D.4 6 6 6 t P G.H.Y._.].[.].Y =.s y = O 6 ( Y.[.{.:X>X1Xy.9 7 p 7 p 7 t 6 I Y.].].`.`.{.[.[.oX:X[.:X[.[.{.K.q 7 * 5 O O 5 6 6 s.:XoX[.].`._.b 5 8 q 7 7 q ^ oX].'.`.I.I.U 4 q o 7 . X `.k.d.L.( : _ I...; B _.`.[.XXK.XXD.jX",
"jXz.:X{.:X[.:X].W.b...m.!.`.D.K.( s.`.4 6 = 6 6 = d.L.Y._.].[.:Xd.&.p 6 = 6 r c Y.Y.[.:X;X1X+Xq 7 t q 6 t 7 7 w v Y.{.[.:X:X[.{.oX<X{.].`.`.k.9 q t o O 4 4 0 5 p [.:X[.[.'.`.K.4 7 q q 0 5 t P.[.].`./.I.K.c q 6 4 0 = 9 `.i.p.k.] ; ; _ N ; W C.'.oX[.K.[./.jX",
"jXD.[.<X<X].F ,     ; : < W.K.D.y.y.[.u 4 t 6 6 i ~ K.I._._.].oX_.t 4 t 3.0 6 q D._.].[.oX:X:X9.q - 9 t 0 q 4 j t r U.[.XX].oX:X:XoX[.`._.4.7 O 7 + O o O 7 8 4 y.:X[.[.]._.Y.9.q q q q + 5 0 oX[.]._.Y.I.D.4 4 * * O 7 n H.( i.D.z B ; ; ; , : @ D oX].K.`..XjX",
"jXB.oX<X:X{.< ; : 2 k k ; 1 K.H.p.( _.U t t u = p x K.I.Y._.].oX=X3.p q y L %.m 9.I.T.`.].oX:X:Xa 7 0 + 8 0 q 5 4 4 6 R p.`.].].{.[.U.4.p - O = o X 4 4 O 7 4 p :X[.[.].].Y.Y.v q 7 v I a q m oX[.`.Y.H.K.9.* 7 5 q 6 5 [ s.( k.L.D.k.9.( / Q Z ; ' oX_.I.Y.&XjX",
"jX!.'.<XoX[. .s.K.H.K.G.1 <  .I.k.9.I.p.i = w 0 P %.D.L.I.I.`.oX=XP.L 5 b =.p t a K.Y.`.].].[.:X].m 0 q 5 8 O 6 = - 7 O 4 4 7 s 9 u 7 6 4 o O o X o O O 5 7 q ^.:X:X[.`.Y.Y.p.7 4 7 a q = q K.oX[._.Y.H.K.n 4 O 5 * 5 o J.k.( k.K.Y.Y.L.K.'.XX[.].[.[.I.'.I.jXjX",
"jXjXI.oX:XoXoX:X_.].'._.Z ; / K.K.( k._.X.4 i u P t p.D.I._.I.XX=X.Xq y p y 5 y q 6.Y.Y.T.{._.:X1Xu.5 q q q o O * 4 q X o O 9 4 q 0 m d 4 O = o . 4 7 5 q q P.2X<X[._.Y.Y.L.x 4 q 4 5 v s 0 @X:X].Y.Y.D.f.7 * 8 * * 5 + [.p.9.D.H._.H.Y._.].'.`.].:X].x.XXI.jXjX",
"jXjXK.@X{.:X[.oXW.n.| C ; : y.K.G.y.j.].u y X.6 X.X.-.k.L._.Y.].oX=X,.y 0 %.v a q w k.K._.T._.[.-X1XK.q q 4 5 * O a 4 6 4 O 0 q 7 0 q q 4 q O o o 7 7 7 q f.2X1X>X[.T.Y.z.9.0 q 4 7 7 m s ( @X`.`.Y.H.z.( w q 5 * 8 4 Z _.4.i.I.Y.Y.H.Y._._._.`.].].[.L.XXD.jXjX",
"jXjXk.[.}.oX_.< : @ ; : < W I.I.L.k.9.Y.( X.y y o.r +.k.D.L.Y._.].].).=.c y t 5 9 7 n I.`.[.].{.XXXX=Xu.X 4 4 4 5 O - 9 4 6 v q q 6 n q 7 q O = 7 q O 7 V.2X1X1X=X[._.K.p.0 6 4 7 4 q q 0 XX@X`.Y.L.k.i.v d q O 5 7 O i.d.! i.d.Y.Y.Y.Y./.`.`.'.].'.'.I.'.H.jXjX",
"jXjX .].<XoX{.< : 2 > U j.Y.Y.H.L.k.( I.I.o.- w P t t ( k.L.I.Y.].@X=X%.7 y y t 7 4 a p.`.`.`.[.@X{.-X2XZ.o o 9 =.q 5 6 6 t 5 b j 7 5 7 q t q 7 4 d 6 ^.<X@XoXoX[./.K.z.v 6 q 9 4 q q q Q :XoX`.Y.L.H.k.= 7 6 6 5 q o P.y.! i.K._.I.I._.T.'.'.`.].].`.I./.#XjXjX",
"jXjXW.Y.<X].`.i.j.I.K.D.Y.Y.Y.Y.H.D.6.k.`.#.X.P P -.:.#.k.D.I.Y._.].oXT.i i y 0 6 6 = 6 z.Y.L.I.`._.].].oXXXn 7 t b 9 0 7 q 7 a 7 q q 7 0 7 q 5 0 H ].@X@XoX[.'._.K.z.4.5 0 5 6 6 q 7 0 '.:X`._.I.K.z.Q 0 q 4 4 8 * l ^.) 3.D.I.I.I.I._.`.`.].'.'.].I.[.I.jXjXjX",
"jXjXjXI.<X<X[.Y.Y.].H.Y.Y.Y.I.I.L.k. .( Y.x.1.O.O.O.P p 9.k.K.I._._.oX:Xf.0 y 6 7 = q 4 - g.z.x.L.I.Y.`.[.}.>X'.p.u 7 0 7 t 6 d v 0 q 5 7 a c t.'.:X:X[.[.[.`.Y.I.j.9.w 5 t t q o q 4 y.oX[.[.I.I.P.y.0 4 4 7 q = X k.j.U k.H.Y._.I._._._._.'.'.].[.I.].k.jXjXjX",
"jXjXjXd.[.<X:X:X].oX[.Y.L.Y._.I.G.k.( T k._.#.U P o.P r &.k.D.I.U.I.`.@X;X+.y 7 0 O q 7 6 0 p.l.x.L.L.T.`.[.[.[.>X2X).4.u v m b 7 7 q c t.P.@X=XoX:X].].].`.Y.Y.K.T 4 6 t 7 t 5 4 0 M XX[.T.Y.k.K.k.Y 4 4 q q 4 = 2 /.( ( H.I.Y.I.I.Y.'._._.'.].'.].Y._.J.jXjXjX",
"jXjXjX ._.1X:X:X].].]._.H.L.I.I.I.D.y.) 9._.h.i O.6 = y X.8.k.L.I.K.L.Y.@XXX7 t 4 t 6 7 t 7 6 0.x.z.x.I.L.Y.{.:XoX:X@X@X>X:XXX[.@XoX&X2X<X=X@XoXoX].]._.Y.Y.L.I.9.6 7 6 q = 7 O O 6 /.<X].`.U.z.K.p.8 5 6 q t O = ..H.( k.Y.Y.Y.H.Y._._.].].'.].[._.].H.jXjXjXjX",
"jXjXjXjXK.<X<X<XoX].].Y.I.k.I.I.I.L.k.d.6.D.`.X.w y = 2.w p p.D.Y.`.`._.[.@Xi.7 t 4 u t 6 t 7 6 8.z.k.U.Y.Y.`.{.{.[.[.XX[.:X:X:X=X=X-XoXoXoX].].`.{.Y.Y.I.L.x.T w w 7 7 r 7 7 4 o D.oXoX[.]._.I.D.l 5 q o q - O = _.j.( L.H.L.H.I.Y._._._.].].].].x.[.k.jXjXjXjX",
"jXjXjXjXd.XX1XoX[.'.'.].Y.k.k.L.I.I.K.K.9.w.`.9.P w t P t i -.j.x.I._._.].].:X9.7 6 4 6 p t t - 6 Y K.I.L.L.U._.`.].{.].[.:X[.:X[.:X{.`.`.{.`._.T.Y.U.L.L.p.d q 8 9 r q 6 = 4 4 s.oX@XoX[._.I.K.9.o O o = - . = ' H.( j.K.L.L.Y.Y.Y._._._.].'.].].I.`.V.jXjXjXjX",
"jXjXjXjXB.`.1XoX[.].[.'.'._.D.k.K.I.K.K.j.3.D.'.7 i P w w O.X.q.k.D.I.Y._.].].:XQ t 4 9 4 t t q 4 = 9 p.T.L.K.L.I.U.Y.`.].[.:X[.[.].Y.L.L.U.I.I.L.z.x.k.-.q 7 p q 6 O 4 = 4 4 y.<X@X{.].`._.K.p.j 4 X o O X O = _.s.( k.z.I.H.H.H.Y._._.'.'.].'.I.[.I.jXjXjXjXjX",
"jXjXjXjXjXI.@X<X[.[.[.:X].I.I.L.D.I.I.K.k.6.8._.h.+.+ = w X.X.+.j.k.K.I.Y.Y.].[.:X! 7 4 w t 7 y q 7 O q r h.L.z.x.I.L.Y.`.].].{.[.`.Y.x.L.x.l.x.l.p.Y 4 t r t r m t q 4 * 4 ) @X[._.].`.I.z.d.3.t O O O O X =  .L.( p.z.K.H.L.I.Y._._.'.].]._._.I.[.d.jXjXjXjXjX",
"jXjXjXjXjXp.[.1X[.[.'.[.'.L.Y.D.k.D.D.K.D.p.T j.[.6 7 = 6 P X.6 v j.z.K.I.Y._.].[.#X( r 7 7 - s t 7 4 t X 7 p -.8.j.j.x.I.Y.`.`.`.Y.I.Y.x.l.q.7.b O . 5 8 7 v b b 7 5 4 O y.oX_.Y.I.L.I.K.d.4.5 0 4 7 o = X s _.w.( k.D.K.K.I.H.Y._._._.].]._.Y.U.I.F.jXjXjXjXjX",
"jXjXjXjXjX!.I.1X:X].`.`.Y._.Y.z.k.k.p.k.k.k.6.6.I.B.7 = i w #.t 7 3.k.k.K.I.I.Y._.].:Xd.t i q 0 q q t 4 4 q 4 q q t +.-.h.L.L.Y.Y.Y.Y.j.-.d 6 q 5 o O q 7 7 b t 5 4 4 4 D.oX`.I.x.k.K.j.d.u.0 b 7 5 5 o 4 4 K.V.~  .z.D.L.H.I.Y.Y._.`.'.].`.I.x.`.d.jXjXjXjXjXjX",
"jXjXjXjXjXjXk.[.1X].Y.Y.Y.L.Y.z.k.k.k.p.q.i.w.-.q.'.n 4 i t %.s w 7 6.k.x.K.k.D.I.`.].@X^.d t q a t q 8 q 7 4 q 6 d t 7 v x.L.L.x.L.I.R q q 6 9 7 O 5 t 7 q 0 b a O 9 I.[.].`.I.k.z.k.j.i.c 7 5 5 7 q 5 5 ( I.~ ~ k.z.L.K.I.H.Y._._.`.'.'.I.I.I.I.( jXjXjXjXjXjX",
"jXjXjXjXjXjXB.Y.1X:X}.`._._._._.k.p.k.k.u.p.8.6.-.k.oXd t =.K 7 7 7 7 w.k.k.k.D.K._.`.].XX=Xu.t 6 4 t q q 8 5 d 7 p b I R z.l.L.x.I.z.x q q q 5 4 7 7 t 7 0 r d q y.XXXX]._.Y.K.D.K.k.k.b 5 5 q 6 4 7 q M I.4.m j.k.J.k.z.I.K.L.I._.`.`.Y._.U.oXD.jXjXjXjXjXjXjX",
"jXjXjXjXjXjXjXk.[.3X:X].Y.I.[.Y.D.k.p.j.p.p.i.9.T >.I._.d t v t 6 w 6 P q.k.k.D.K.Y._._.].XX=X).t a 0 q y q q 0 m =.q 7 U Y.Y.Y.`.L.D.P q q 0 4 q + 7 y q 6 7 m (.oX].'.Y.I.I.j.p.p.j.x m L 0 q 7 7 p c D.w.U 4.z.z.D.k.L.H.K.Y.`.I.].`.].I._.I.y.jXjXjXjXjXjXjX",
"jXjXjXjXjXjXjXJ.`.3X>X:X'.Y.].'._.k.j.j.p.j.p.p.6.R 6._.K.g 9 7 6 t w v *.q.p.p.k.z.Y.Y.`.`.].[.=XP.m q n b q q q 7 m b T [.[.].{.Y.U.~ 9 7 7 0 - 7 5 = p m I.[.`._.Y.I.Y.L.D.k.i.p.m m q q 4 q = 7 7 s.d.U ~ k.L.I.z.L.H.Y.H.[.'.`._._.`._.[.p.jXjXjXjXjXjXjXjX",
"jXjXjXjXjXjXjXjXL.:XrX:X:X:X[.`.[.].D.D.d.k.i.q.w.3.&.q.`.0.7 7 i w *.P y 7 3.9. .j.D.U.I._.`.`.].].=X^.4.d n 7 q q 9 7 T ].Y.`._.Y._.6.q q 5 7 X q t u.P.=XoX[.{.I.z.K.x.z.j.u.9.I b q b m c q o o y.I.~ U p.d.I.Y.Y.z.Y.L.Y._.`.'.'.`.Y.`.K.( jXjXjXjXjXjXjXjX",
"jXjXjXjXjXjXjXjXF.Y.3X8X:X:X:X'.XX[._.Y.p.k.k.w.w.9.>.R 0.@Xy.X.K d i -.-.i 6 I 6.w.k.K.K.I.I._.T.'.].].oX=XG.u.b O 4 q T Y.Y.Y.Y.Y.Y.U 4 0 q n a.).@X[.]._.`.Y.K.z.z.K.z.k.p.~ c m t L L a 8 * O / _.y.U i.k.I.Y.H.I.D.D.I.]._._.'.`.'._.'.i.jXjXjXjXjXjXjXjXjX",
"jXjXjXjXjXjXjXjXjXj.`.7X:X}.oX[.[.[.[.I.H.k.j.w.9.6.8.-.&.p.@X3.t j *.K i u t t p 6.p.k.x.x.L.I.T.T.`.'.`.].[.oX%X+X).N.k.Y.Y.{.Y.Y.L.D.K.(.@X@X=X@X]._.U.Y.U.Y.L.K.L.l.j.p.I I P t =.=.t c 4 q ~ `.p.T y.K.I.I.L.L.K.z.I._.].`.].].`.`.`.k.( jXjXjXjXjXjXjXjXjX",
"jXjXjXjXjXjXjXjXjXQ.I.@X3XoXoX[.`.].].].`.Y.Y.Y.j.i.s.w.T <.D.oX8.i y =.L u 0 u = u -.p.k.k.z.x.K.I.Y.Y.Y.`.`.`.{.].`.Y.Y.Y.T.I.L.L.I.].[.:XoX].`._.{.I.Y._.Y.x.K.l.k.p.9.c L p t =.%.a I I r Q /.d.T w.k.K.L.L.K.I.I.Y._._.`._.].`.`.[.'.( jXjXjXjXjXjXjXjXjXjX",
"jXjXjXjXjXjXjXjXjXjXy._.7X1X:XoX[.T.Y.I.I.I.k.I.j.p.k.p.w.6.>.k.XXg.u K p 0 t t t 7 7 0 6.k.z.z.z.x.z.I.I.Y.Y.Y.`.Y.Y.I.Y.Y.T.L.x.L.I._.`.`.T.I.K.x.I.Y.Y.Y.U.K.k.u.9.b c b q 8 5 - q a I P  ._.p.3.p.z.D.D.L.L.K.I.I.I.L._._._._._.Y.].d.!.jXjXjXjXjXjXjXjXjXjX",
"jXjXjXjXjXjXjXjXjXjXjXj.@XrX<X<X].].U.L.I.I.k.j.p.y.p.k.i.p.8.>.k.[.a.X.p 0 d t 9 t 4 O o s 0.j.k.k.z.z.K.x.z.L.I.I.I.I.L.Y.L.L.`.`.Y.{.`.x.K.Y.Y.I.x.z.L.k.p.p.p.v 5 5 q p m 0 4 q q t t p.Y.j.3.u.D.D.K.L.L.H.I.Y.I.H._._.[.oX{.].[.K.~ jXjXjXjXjXjXjXjXjXjXjX",
"jXjXjXjXjXjXjXjXjXjXjXC.L.1X7X[.`.Y.`.L.I.z.I.I.k.k.p.p.k.k.j.7.>.p.oXI.7 9 = r 9 4 t = t t 7 v 0.j.j.l.z.z.j.x.z.x.x.L.x.L.x.Y.L.L.Y.Y.L.I.x.x.K.x.k.j.j.j.6.b 7 = q * q q q q q t 4 c K.I.w.T w.k.D.L.K.L.L.Y.I.Y._.`.[.].].`.[.oXoXy.jXjXjXjXjXjXjXjXjXjXjXjX",
"jXjXjXjXjXjXjXjXjXjXjXjXi._.7X7X:X:X`._.[.].Y._.Y.H.L.k.k.k.D.k.q.<.w._.].h = t w t 7 t t t 4 6 q w n 0.j.p.8.q.8.j.k.l.l.z.z.z.x.z.z.z.z.L.x.x.x.j.p.p.-.b q q O 7 5 O q 5 t q q O Y (.Y.( R w.z.K.x.K.H.I.I.I.Y.Y._.`.`.].oX@X].`.j.F.jXjXjXjXjXjXjXjXjXjXjXjX",
"jXjXjXjXjXjXjXjXjXjXjXjXjXp.-XwX>X:X:X:X[.:X[.Y.z.z.D.k.k.k.D.z.k.q.<.8.z.[.( y w 7 y =.t 5 7 4 q 6 6 7 u R <.r.8.0.j.j.j.j.l.p.h.j.l.j.p.j.p.p.q.R u w t 9 7 a 7 q - 7 p 0 c Y d u.'.l.~ T j.z.D.D.K.L.Y.I.I.Y._./.`.`.].].[.`.XXk.( jXjXjXjXjXjXjXjXjXjXjXjXjX",
"jXjXjXjXjXjXjXjXjXjXjXjXjXjXz.>XeX1X:X:X:X:X[.[.H.I.L.D.k.L.D.z.z.z.w.<.<.0.Y.W.I t 7 t t t o 6 7 q w t 7 7 = 6 7 r I -.-.7.6.8.7.6.6.>.-.P b 6 9 7 t - 7 5 t 6 q q 7 7 p b a b /.I.p.T ~ j.k.D.K.K.D.I.H.Y.Y.Y./.`.`.'.].[.].-X_.i.jXjXjXjXjXjXjXjXjXjXjXjXjXjX",
"jXjXjXjXjXjXjXjXjXjXjXjXjXjXG.I.:XrX:X:X[.[.[.[._.z._.L.z.L.L.K.D.z.j.h.>.#.8.K.].N.s u t t o O q q 0 =.I 6 6 = O 6 0 v 7 6 4 4 4 = u 7 7 6 O 7 O 7 4 6 0 6 0 7 7 b t q q v V.`.k.6.=.w.k.z.D.z.K.I.L.I.Y.Y.Y.Y.`.`.`.'.[.[.oX[.p.jXjXjXjXjXjXjXjXjXjXjXjXjXjXjX",
"jXjXjXjXjXjXjXjXjXjXjXjXjXjXjXd.I.:X9X:X[.:X:X].[._.Y.I.z.k.k.z.z.j.k.j.j.8.<.:.0.z.[.^.3.6 o 7 q 7 Y u q 7 4 6 7 7 4 7 9 - 6 4 7 7 j b q 7 q * 4 0 X + 4 7 9 0 t q %.3.P.XXz.6.R ~ j.k.z.z.L.L.L.I.I.I.Y.I._._._.Y.I._.`.[.].i.(.jXjXjXjXjXjXjXjXjXjXjXjXjXjXjX",
"jXjXjXjXjXjXjXjXjXjXjXjXjXjXjXjX9.Y.1XrX:X[.[.[.[.[.Y.I.I.k.k.z.z.z.z.j.j.k.j.q.<.7.q.Y.@XG.v t j i 7 b s 6 4 t 4 q q q t 6 = q 8 -.t 7 m L q * O 7 O O t 7 6 7 6 %.I.].K.q.-.-.w.k.z.z.K.K.z.L.I.I.I.Y.L.Y._._._.Y.`._.`.'.p.s.jXjXjXjXjXjXjXjXjXjXjXjXjXjXjXjX",
"jXjXjXjXjXjXjXjXjXjXjXjXjXjXjXjXjXw.Y.,X9X:X:X{.Y.L.L.L.L.z.z.K.K.I.L.z.k.K.L.K.p.8.<.>.q.Y.:XY.t.L =.%.6 7 7 8 q u t q 7 7 a q t q =.-.a 0 7 6 o q X 7 t p d 4./.[.K.q.>.-.0.j.z.D.z.K.K.L.I.L.I.I.Y.Y.Y.Y.D.I.I.I.Y.[.:XK.y.jXjXjXjXjXjXjXjXjXjXjXjXjXjXjXjXjX",
"jXjXjXjXjXjXjXjXjXjXjXjXjXjXjXjXjXjXj.Y.3X7X[.[._.L.H.L.L.L.I.Y._._._.I.I.I.L.H.x.k.p.8.:.:.8.k.(.@XT.u.%.4 8 u q = 6 9 7 4 4 7 e =.t q t q q 6 = O = %.u.I.].I.p.7.-.-.8.k.k.D.z.K.K.z.H.L.I.I.I.Y.Y.Y.Y.Y.Y.Y.Y.`.oX[.K.s.jXjXjXjXjXjXjXjXjXjXjXjXjXjXjXjXjXjX",
"jXjXjXjXjXjXjXjXjXjXjXjXjXjXjXjXjXjXjXq._.2XrX:X].Y.K.Y.oX[.].Y.Y.Y.`.Y.I.I.z.z.k.k.k.j.j.8.<.<.7.e.j.K.oX].I.s.! a q p t O d q q q b d q 5 b ! d.P.[.'.K.k.q.>.<.>.w.j.k.z.D.D.K.L.L.L.K.I.I.Y.Y.Y.Y._.I.I.Y.Y.Y.`.@XY.9.jXjXjXjXjXjXjXjXjXjXjXjXjXjXjXjXjXjXjX",
"jXjXjXjXjXjXjXjXjXjXjXjXjXjXjXjXjXjXjXjXq._.7XrX:X[.].[.'.[.[._.Y.Y.Y.Y.L.L.I.L.k.D.z.z.z.j.j.8.:.@.2.,.q.j.k.Y.I.].[.'./.G.B.K.P.K.P.T.`.[.[.I.I.z.p.8.>.<.*.7.q.j.k.k.k.D.L.L.x.L.L.I.I.I.Y.Y.Y.Y._._.Y.Y.Y.Y.<X[.D.d.jXjXjXjXjXjXjXjXjXjXjXjXjXjXjXjXjXjXjXjX",
"jXjXjXjXjXjXjXjXjXjXjXjXjXjXjXjXjXjXjXjXjXq.Y.:XeX>X:X[.[.]._._.Y.Y.Y.I.I.L.L.I.L.z.z.D.z.z.q. .B.p.8.,.:.:.:.1.,.8.l.l.l.l.z.l.l.k.g.p.q.8.7.,.:.:.:.>.0.p.y.] ] ..J.z.z.L.L.L.L.I.L.I.I.I.Y._._._.]._.]._.`.:XY.w.i.jXjXjXjXjXjXjXjXjXjXjXjXjXjXjXjXjXjXjXjXjX",
"jXjXjXjXjXjXjXjXjXjXjXjXjXjXjXjXjXjXjXjXjXjX8.Y.,XpX>X[.'.].].].Y.Y.Y.Y.Y.Y.I.Y.L.I.K.x.z.z.j.W k Q k.p.q.8.q.8.8.7.,.,.,.,.,.:.:.:.:.:.:.:.:.7.q.q.p.j.i.S S z k e > k.x.L.L.I.L.I.Y.I.Y.I.Y._.]._.].[.[.[.3X:X6.y.jXjXjXjXjXjXjXjXjXjXjXjXjXjXjXjXjXjXjXjXjXjX",
"jXjXjXjXjXjXjXjXjXjXjXjXjXjXjXjXjXjXjXjXjXjXjXk.Y.,XyX3X[.[.].`.`.`._._.I.K.I.U.I.I.K.x.z.k.w.e h ~ j.x.z.Q ] J.z.z.k.k.z.K.j.w.0.p.p.d.s.k.B.L.j.j.j.( l z k U ~ h 9.D.L.L.L.I.Y.Y.I.z.K.I.Y._.].].[.[.<X2XXXy.!.jXjXjXjXjXjXjXjXjXjXjXjXjXjXjXjXjXjXjXjXjXjXjX",
"jXjXjXjXjXjXjXjXjXjXjXjXjXjXjXjXjXjXjXjXjXjXjXjXG.k._.2X9X@X[.[.].`.`.`.Y.I.k.z.I.I.I.I.L.I./ f f i.I.j.j.h h T p.E k z k h ..j.S z S S z k k k F.j.9.h > l i.z.z.k.Y.'.I.U.Y.Y.Y.K.K.I.Y.Y.I.Y.].[.XX1X@X/.w.jXjXjXjXjXjXjXjXjXjXjXjXjXjXjXjXjXjXjXjXjXjXjXjXjX",
"jXjXjXjXjXjXjXjXjXjXjXjXjXjXjXjXjXjXjXjXjXjXjXjXjXjX8.I.@XeX1X[.].].].]._.Y._.I.I.Y.I.I.K.I.U e e j.z.z. .f f Q k > k x f r f Q S S l k U h f k k  .w.k h / L.L.D.) V W Y.Y.I.Y.I.I.].].oX].oX@XoX-X>XoXD.~ jXjXjXjXjXjXjXjXjXjXjXjXjXjXjXjXjXjXjXjXjXjXjXjXjXjX",
"jXjXjXjXjXjXjXjXjXjXjXjXjXjXjXjXjXjXjXjXjXjXjXjXjXjXjXj.K.].9X9X@X[.].{._.Y.`.I.L.L.L.z.I.z.e e W x.L.Y.Q 1 f ~ h k Q j.j.>.P j.z r h 9.j.h. .h h h U e > ( L.L.I.~ 3 k k.Y.H.I.Y._.].:X[.:X:X:X1X>X`.k.K.jXjXjXjXjXjXjXjXjXjXjXjXjXjXjXjXjXjXjXjXjXjXjXjXjXjXjX",
"jXjXjXjXjXjXjXjXjXjXjXjXjXjXjXjXjXjXjXjXjXjXjXjXjXjXjXjX'.p.I.@XrX7X[.`.Y.I.I.U.L.L.L.z.Y.k.f f / Y.Y.I.e > P i.r e U s.H.Y.z.z.Y e u ( z.z.k.~ > f x > > / I.I.Y.p.2 < ^ _._.]._.Y.].].].{.,X1X[.D.q.jXjXjXjXjXjXjXjXjXjXjXjXjXjXjXjXjXjXjXjXjXjXjXjXjXjXjXjXjX",
"jXjXjXjXjXjXjXjXjXjXjXjXjXjXjXjXjXjXjXjXjXjXjXjXjXjXjXjXjXjXk.z.`.>XrX7X{.I.I.I.[.Y.`.Y.K.k.> > ( Y._.i.e w U j.T e r r r T z.I.T u P ( L.Y.Y. .k > / f f > s.].`. .> 2 k _.Y.Y.I.Y.`.[.:X3X@XI.p.`.jXjXjXjXjXjXjXjXjXjXjXjXjXjXjXjXjXjXjXjXjXjXjXjXjXjXjXjXjXjX",
"jXjXjXjXjXjXjXjXjXjXjXjXjXjXjXjXjXjXjXjXjXjXjXjXjXjXjXjXjXjXjXjX0.K.].2XrX>XY.I.I.I.Y.L.z.k.h e U Y.Y.W w P ( j.j.w.R P e r e  .w.P P j.I.I.I.U > >  .j.> > f r e r e > D.'.[._._.[.}.>X:X].j.8.jXjXjXjXjXjXjXjXjXjXjXjXjXjXjXjXjXjXjXjXjXjXjXjXjXjXjXjXjXjXjXjX",
"jXjXjXjXjXjXjXjXjXjXjXjXjXjXjXjXjXjXjXjXjXjXjXjXjXjXjXjXjXjXjXjXjX[.q.K.].7XrX1X].Y.`.Y.H.z.T h > e e w P U z.Y.J.].Y.z.( > 1 U p.e r i.Y._.k.f > k I.Y.i.h > > > r U K.'.[.XX-X3X7X>X[.K.h.jXjXjXjXjXjXjXjXjXjXjXjXjXjXjXjXjXjXjXjXjXjXjXjXjXjXjXjXjXjXjXjXjXjX",
"jXjXjXjXjXjXjXjXjXjXjXjXjXjXjXjXjXjXjXjXjXjXjXjXjXjXjXjXjXjXjXjXjXjXjX_.p.I.[.1X9X7XoX`._.L.K.6.P P P w R H.I./ e x y.j.~ f e / j.> > k A h u 9 > p._._._.Y.k.p.d.I.].].oX=X2X2X1X'.D.8.jXjXjXjXjXjXjXjXjXjXjXjXjXjXjXjXjXjXjXjXjXjXjXjXjXjXjXjXjXjXjXjXjXjXjXjX",
"jXjXjXjXjXjXjXjXjXjXjXjXjXjXjXjXjXjXjXjXjXjXjXjXjXjXjXjXjXjXjXjXjXjXjXjXjX_.q.k.x.].2XrX3X:XY.L.k.j.h.x.z.].}. .r e u P u P P I.Y.f > f r r u R D._.`.`.'.].'.[.[.[.=X1X2X1X[.k.q.>.jXjXjXjXjXjXjXjXjXjXjXjXjXjXjXjXjXjXjXjXjXjXjXjXjXjXjXjXjXjXjXjXjXjXjXjXjXjX",
"jXjXjXjXjXjXjXjXjXjXjXjXjXjXjXjXjXjXjXjXjXjXjXjXjXjXjXjXjXjXjXjXjXjXjXjXjXjXjXjX8.8.D.[.1X9X9X2XoXY.I.Y.Y.[.`.L.z.8.-.U U  .Y._.Y.U Q ( w.z.U.'.'.`.].].].[.oX<X1X2X1X@X_.z.q.k.jXjXjXjXjXjXjXjXjXjXjXjXjXjXjXjXjXjXjXjXjXjXjXjXjXjXjXjXjXjXjXjXjXjXjXjXjXjXjXjX",
"jXjXjXjXjXjXjXjXjXjXjXjXjXjXjXjXjXjXjXjXjXjXjXjXjXjXjXjXjXjXjXjXjXjXjXjXjXjXjXjXjXjX_.,.j.k.k.`.,X7X7X7X2X:X`.Y.Y.Y._.`._.].Y.Y.].].`.].].].[.[.[.:X:X:X1X3X2X>X[._.K.q.r.jXjXjXjXjXjXjXjXjXjXjXjXjXjXjXjXjXjXjXjXjXjXjXjXjXjXjXjXjXjXjXjXjXjXjXjXjXjXjXjXjXjXjX",
"jXjXjXjXjXjXjXjXjXjXjXjXjXjXjXjXjXjXjXjXjXjXjXjXjXjXjXjXjXjXjXjXjXjXjXjXjXjXjXjXjXjXjXjXjXY.,.8.k.K.Y.:X:X3X0X8X7X3X3X2X<X=X-X@X:X:X<X<X1X3X7X7X7X2X1XoX`._.I.k.q.h.jXjXjXjXjXjXjXjXjXjXjXjXjXjXjXjXjXjXjXjXjXjXjXjXjXjXjXjXjXjXjXjXjXjXjXjXjXjXjXjXjXjXjXjXjXjX",
"jXjXjXjXjXjXjXjXjXjXjXjXjXjXjXjXjXjXjXjXjXjXjXjXjXjXjXjXjXjXjXjXjXjXjXjXjXjXjXjXjXjXjXjXjXjXjXjXjXK.>.h.h.w.z.Y.U.Y.[.XX@X>X1X>X:X:X1X,X:XoX[.`.`.I.I.k.q.l.`.jXjXjXjXjXjXjXjXjXjXjXjXjXjXjXjXjXjXjXjXjXjXjXjXjXjXjXjXjXjXjXjXjXjXjXjXjXjXjXjXjXjXjXjXjXjXjXjXjX",
"jXjXjXjXjXjXjXjXjXjXjXjXjXjXjXjXjXjXjXjXjXjXjXjXjXjXjXjXjXjXjXjXjXjXjXjXjXjXjXjXjXjXjXjXjXjXjXjXjXjXjXjXjXjX`.x.h.h.7.q.q.e.q.q.q.k.k.h.l.h.h.l.x.<XjXjXjXjXjXjXjXjXjXjXjXjXjXjXjXjXjXjXjXjXjXjXjXjXjXjXjXjXjXjXjXjXjXjXjXjXjXjXjXjXjXjXjXjXjXjXjXjXjXjXjXjXjXjX",
"jXjXjXjXjXjXjXjXjXjXjXjXjXjXjXjXjXjXjXjXjXjXjXjXjXjXjXjXjXjXjXjXjXjXjXjXjXjXjXjXjXjXjXjXjXjXjXjXjXjXjXjXjXjXjXjXjXjXjXjXjXjXjXjXjXjXjXjXjXjXjXjXjXjXjXjXjXjXjXjXjXjXjXjXjXjXjXjXjXjXjXjXjXjXjXjXjXjXjXjXjXjXjXjXjXjXjXjXjXjXjXjXjXjXjXjXjXjXjXjXjXjXjXjXjXjXjXjX"
};
