/* XPM */
static char *result[] = {
/* columns rows colors chars-per-pixel */
"32 32 116 2 ",
"   c #9C5F00",
".  c #A46501",
"X  c #A96701",
"o  c #A66803",
"O  c #AB6B03",
"+  c #A3680A",
"@  c #AD6F0A",
"#  c #B06F04",
"$  c #AF7105",
"%  c #AD710C",
"&  c #B37304",
"*  c #B97705",
"=  c #BA7B06",
"-  c #B3740B",
";  c #B87708",
":  c #B6790D",
">  c #BB7C0B",
",  c #AD7212",
"<  c #AF771A",
"1  c #B17513",
"2  c #B57A13",
"3  c #B97E14",
"4  c #B47C1A",
"5  c #B87E19",
"6  c #A37826",
"7  c #AE7D21",
"8  c #A47928",
"9  c #BD800F",
"0  c #BD8115",
"q  c #BA841D",
"w  c #BE881D",
"e  c #AD822D",
"r  c #B58324",
"t  c #BA8424",
"y  c #BE8A24",
"u  c #B78728",
"i  c #B98628",
"p  c #BC8B2A",
"a  c #BF912D",
"s  c #AC8432",
"d  c #B28732",
"f  c #B58B34",
"g  c #BF8E35",
"h  c #B68E39",
"j  c #BE9133",
"k  c #BD943D",
"l  c #C08009",
"z  c #C28713",
"x  c #C88A13",
"c  c #C08721",
"v  c #C28C25",
"b  c #C18D2A",
"n  c #C59226",
"m  c #C89626",
"M  c #C4922C",
"N  c #C9952B",
"B  c #CA982E",
"V  c #C08F30",
"C  c #C39434",
"Z  c #C99636",
"A  c #C79935",
"S  c #CB9C34",
"D  c #C3953B",
"F  c #C89739",
"G  c #C69A3C",
"H  c #CA9D3A",
"J  c #CDA13C",
"K  c #D0A53F",
"L  c #BB9542",
"P  c #C29742",
"I  c #C39B44",
"U  c #CA9D41",
"Y  c #C49E4A",
"T  c #C6A045",
"R  c #CDA344",
"E  c #C6A14B",
"W  c #CCA44B",
"Q  c #CFA84B",
"!  c #D1A744",
"~  c #D3AA46",
"^  c #D1A74C",
"/  c #D3AC4C",
"(  c #D6B04F",
")  c #C6A150",
"_  c #CAA653",
"`  c #CEAB54",
"'  c #CEAB5D",
"]  c #D0A755",
"[  c #D3AD53",
"{  c #D2AE5B",
"}  c #D6B255",
"|  c #D8B355",
" . c #D6B35B",
".. c #D8B55B",
"X. c #DAB85E",
"o. c #D0AF60",
"O. c #D5B463",
"+. c #D9B663",
"@. c #DABA63",
"#. c #D8B768",
"$. c #DBBC6A",
"%. c #DCBD74",
"&. c #DDBF7B",
"*. c #DFC06D",
"=. c #DEC174",
"-. c #DEC27B",
";. c #E0C176",
":. c #E0C57D",
">. c #DFC381",
",. c #E1C582",
"<. c #E1C884",
"1. c #E3C98B",
"2. c #E5CD94",
"3. c #E7CF98",
"4. c #E7D19A",
"5. c None",
/* pixels */
"5.5.5.5.5.5.5.5.5.5.5.5.5.3.<.-.;.,.3.5.5.5.5.5.5.5.5.5.5.5.5.5.",
"5.5.5.5.5.5.5.5.5.5.%...| X._ O.O.+.X./ | ;.5.5.5.5.5.5.5.5.5.5.",
"5.5.5.5.5.5.5.5.O. .+.{ O.o.Y ' ) #.$.L Y  ./ $.5.5.5.5.5.5.5.5.",
"5.5.5.5.5.5.1.[ O.%.$._ O.O.O.' o.=.O.I Y _ O.+.( 4.5.5.5.5.5.5.",
"5.5.5.5.5.%.+.$.$.] O.,.1.%...[ _ { %.<.:._ I P  .^ ,.5.5.5.5.5.",
"5.5.5.5.-...#. .%.,.:.U 3 l l & & * O 2 R :.P Y Y [ [ ,.5.5.5.5.",
"5.5.5.1. .O._ O.,.R x l Z +.&.:.,.%.] b ; 9 W >. .f { ( 4.5.5.5.",
"5.5.5.} #.O.O.=.v * N ;.:.%.+.;.%.+.%.;.%.v ; M =.E k { ( 5.5.5.",
"5.5... .} E =.q & Q >.@.C - ; O.O.o > A @.=.D O b #.k ` E @.5.5.",
"5.5.| Y _ #.P $ Q =.{ % O @ D %.$.V 2 O %  .+.p o U  .P  .[ 5.5.",
"5.+. .I ` } - y :.{ @ O I :.-.=.*.;.;.D o - { $.4 @ @.+.X...%.5.",
"5. .` I [ a O  .+.0 O ] $.[ q , - - 2 % O o q #.W O D  .s h / 5.",
"5.| E } } - q @.A ; D :.H O X o O O @ o o o O U  .5 ,  .d D } 5.",
"-. .h L U $ H @.2 O +.` X O g $.%.&.%.%.%. .O 1 } y . Q I L X.2.",
"#.I h Q A $ !  .. q @.p . t =.| ^ / ! ^ /  ., o } A . G h s | -.",
"+.} h R M $ / [ O t @.q . W @.- # # o o t $.5 o } H . C I L E #.",
"$._ 6 J M O Q ..* q @.t O U $.C < 4 % . i @.0 o  .H . V G D [ #.",
"$.X.L R a $ J ..> 1 X.H O 2 | @.$. .@ . H ..- @ ..b o j e 6  .=.",
">._ d f S $ n | v : R X.2 o % p b +   1 ..H # i } 5 . A G k W 1.",
"5.` e G J 0 z Q ~ ; 2 }  ., @ O # o < ..[ - # ^ W O , A }  .| 5.",
"5.*.| / S B = B } b O 3 ~ ..~ A Z ^ +./ 3 O i | y X u Q ( } } 5.",
"5.$.../ Q S : 9 ! } r O - A / ..| ~ b > O 4  .J + + A ~ } | #.5.",
"5.5.X.( J B M ; 3 ! } b O O ; J J # o @ p } J 2 X p J ! } [ 5.5.",
"5.5.*.@.( H m v ; z H ( / C 5 / ! 5 b ^ / S 0 & r A ! } | } 5.5.",
"5.5.5.*.| ~ H B N $ % y K / / ~ ( ( ~ J t ; & n S ! / | | 5.5.5.",
"5.5.5.-.=.X.~ K B m : O & 9 w n n y 0 $ O 2 M S ! ( } X.-.5.5.5.",
"5.5.5.5.%.*.( ! ~ J J n y O O O - O . 5 n S J ! ( ( } #.5.5.5.5.",
"5.5.5.5.5.=.@...( ~ J B m J N m m m S M M ! ~ ( } | #.5.5.5.5.5.",
"5.5.5.5.5.5.>.$...( ~ a A r u p r u p u j ~ ( ..+.>.5.5.5.5.5.5.",
"5.5.5.5.5.5.5.5.$.X.( p a w y p q J 7 r r [ +.@.5.5.5.5.5.5.5.5.",
"5.5.5.5.5.5.5.5.5.5.@...! [ n A j M [ +...$.5.5.5.5.5.5.5.5.5.5.",
"5.5.5.5.5.5.5.5.5.5.5.5.5.>.;.$.*.:.1.5.5.5.5.5.5.5.5.5.5.5.5.5."
};
